; generated by Slic3r Prusa Edition 1.41.0+win64 on 2018-10-15 at 11:57:14

; 

; external perimeters extrusion width = 0.45mm
; perimeters extrusion width = 0.45mm
; infill extrusion width = 0.45mm
; solid infill extrusion width = 0.45mm
; top infill extrusion width = 0.40mm
; support material extrusion width = 0.35mm
; first layer extrusion width = 0.42mm

M201 X9000 Y9000 Z500 E10000 ; sets maximum accelerations, mm/sec^2
M203 X500 Y500 Z12 E120 ; sets maximum feedrates, mm/sec
M204 P1500 R1500 T1500 ; sets acceleration (P, T) and retract acceleration (R), mm/sec^2
M205 X10.00 Y10.00 Z0.20 E2.50 ; sets the jerk limits, mm/sec
M205 S0 T0 ; sets the minimum extruding and travel feed rate, mm/sec
M107
M115 U3.3.1 ; tell printer latest fw version
M201 X1000 Y1000 Z1000 E9000 ; sets maximum accelerations, mm/sec^2
M203 X200 Y200 Z12 E120 ; sets maximum feedrates, mm/sec
M204 S1250 T1250 ; sets acceleration (S) and retract acceleration (T)
M205 X8 Y8 Z0.4 E1.5 ; sets the jerk limits, mm/sec
M205 S0 T0 ; sets the minimum extruding and travel feed rate, mm/sec
M83  ; extruder relative mode
M104 S255 ; set extruder temp
M140 S100 ; set bed temp
M190 S100 ; wait for bed temp
M109 S255 ; wait for extruder temp
G28 W ; home all without mesh bed level
G80 ; mesh bed leveling
G1 Y-3.0 F1000.0 ; go outside print area
G92 E0.0
G1 X60.0 E9.0  F1000.0 ; intro line
G1 X100.0 E12.5  F1000.0 ; intro line
G92 E0.0
M221 S95
M900 K30; Filament gcode
G4 P120000; wait two minutes to start
G21 ; set units to millimeters
G90 ; use absolute coordinates
M83 ; use relative distances for extrusion
;BEFORE_LAYER_CHANGE
G92 E0.0
;0.2


G1 E-0.80000 F2100.00000
G1 Z0.600 F10800.000
;AFTER_LAYER_CHANGE
;0.2
G1 X117.656 Y72.942
G1 Z0.200
G1 E0.80000 F2100.00000
M204 S1000
G1 F1800
G1 X118.070 Y72.538 E0.01817
G1 X118.573 Y72.257 E0.01805
G1 X119.135 Y72.117 E0.01817
G1 X129.383 Y72.103 E0.32129
G1 X130.006 Y72.195 E0.01976
G1 X130.577 Y72.461 E0.01976
G1 X131.049 Y72.878 E0.01976
G1 X131.384 Y73.416 E0.01987
G1 X155.003 Y130.626 E1.94065
G1 X155.113 Y131.298 E0.02134
G1 X155.113 Y148.953 E0.55356
G1 X154.942 Y149.793 E0.02687
G1 X154.617 Y150.333 E0.01976
G1 X154.152 Y150.758 E0.01976
G1 X153.585 Y151.032 E0.01976
G1 X152.963 Y151.134 E0.01976
G1 X97.102 Y150.965 E1.75147
G1 X96.267 Y150.793 E0.02676
G1 X95.767 Y150.499 E0.01817
G1 X95.360 Y150.082 E0.01828
G1 X95.078 Y149.572 E0.01828
G1 X94.940 Y149.005 E0.01828
G1 X94.930 Y138.097 E0.34203
G1 X97.267 Y128.717 E0.30307
G1 X117.362 Y73.442 E1.84410
G1 X117.626 Y72.994 E0.01629
; PURGING FINISHED
G1 F8640
G1 X118.070 Y72.538 E-0.14720
G1 X118.573 Y72.257 E-0.13295
G1 X119.135 Y72.117 E-0.13379
G1 X120.634 Y72.115 E-0.34606
G1 E-0.04000 F2100.00000
G1 Z0.800 F10800.000
G1 X97.116 Y138.195
G1 Z0.200
G1 E0.80000 F2100.00000
G1 F1800
G1 X97.116 Y148.776 E0.33175
G1 X97.871 Y148.776 E0.02365
G1 X97.871 Y139.189 E0.30058
G1 X98.625 Y139.944 E0.03344
G1 X98.625 Y148.776 E0.27694
G1 X99.379 Y148.776 E0.02365
G1 X99.379 Y144.750 E0.12623
G1 X100.133 Y144.750 E0.02365
G1 X100.133 Y148.776 E0.12623
G1 X100.887 Y148.776 E0.02365
G1 X100.887 Y144.750 E0.12623
G1 X101.641 Y144.750 E0.02365
G1 X101.641 Y148.776 E0.12623
G1 X102.396 Y148.776 E0.02365
G1 X102.396 Y144.750 E0.12623
G1 X103.150 Y144.750 E0.02365
G1 X103.150 Y148.776 E0.12623
G1 X103.904 Y148.776 E0.02365
G1 X103.904 Y144.750 E0.12623
G1 X104.658 Y144.750 E0.02365
G1 X104.658 Y148.776 E0.12623
G1 X105.412 Y148.776 E0.02365
G1 X105.412 Y144.750 E0.12623
G1 X106.166 Y144.750 E0.02365
G1 X106.166 Y148.776 E0.12623
G1 X106.921 Y148.776 E0.02365
G1 X106.921 Y144.750 E0.12623
G1 X107.675 Y144.750 E0.02365
G1 X107.675 Y148.776 E0.12623
G1 X108.429 Y148.776 E0.02365
G1 X108.429 Y144.750 E0.12623
G1 X109.183 Y144.750 E0.02365
G1 X109.183 Y148.776 E0.12623
G1 X109.937 Y148.776 E0.02365
G1 X109.937 Y144.750 E0.12623
G1 X110.691 Y144.750 E0.02365
G1 X110.691 Y148.776 E0.12623
G1 X111.445 Y148.776 E0.02365
G1 X111.445 Y144.750 E0.12623
G1 X112.200 Y144.750 E0.02365
G1 X112.200 Y148.776 E0.12623
G1 X112.954 Y148.776 E0.02365
G1 X112.954 Y144.750 E0.12623
G1 X113.708 Y144.750 E0.02365
G1 X113.708 Y148.776 E0.12623
G1 X114.462 Y148.776 E0.02365
G1 X114.462 Y144.750 E0.12623
G1 X115.216 Y144.750 E0.02365
G1 X115.216 Y148.776 E0.12623
G1 X115.970 Y148.776 E0.02365
G1 X115.970 Y144.750 E0.12623
G1 X116.725 Y144.750 E0.02365
G1 X116.725 Y148.776 E0.12623
G1 X117.479 Y148.776 E0.02365
G1 X117.479 Y144.750 E0.12623
G1 X118.233 Y144.750 E0.02365
G1 X118.233 Y148.776 E0.12623
G1 X118.987 Y148.776 E0.02365
G1 X118.987 Y144.750 E0.12623
G1 X119.741 Y144.750 E0.02365
G1 X119.741 Y148.776 E0.12623
G1 X120.495 Y148.776 E0.02365
G1 X120.495 Y144.750 E0.12623
G1 X121.250 Y144.750 E0.02365
G1 X121.250 Y148.776 E0.12623
G1 X122.004 Y148.776 E0.02365
G1 X122.004 Y144.750 E0.12623
G1 X122.758 Y144.750 E0.02365
G1 X122.758 Y148.776 E0.12623
G1 X123.512 Y148.776 E0.02365
G1 X123.512 Y144.750 E0.12623
G1 X124.266 Y144.750 E0.02365
G1 X124.266 Y148.776 E0.12623
G1 X125.020 Y148.776 E0.02365
G1 X125.020 Y144.750 E0.12623
G1 X125.774 Y144.750 E0.02365
G1 X125.774 Y148.776 E0.12623
G1 X126.529 Y148.776 E0.02365
G1 X126.529 Y144.750 E0.12623
G1 X127.283 Y144.750 E0.02365
G1 X127.283 Y148.776 E0.12623
G1 X128.037 Y148.776 E0.02365
G1 X128.037 Y144.750 E0.12623
G1 X128.791 Y144.750 E0.02365
G1 X128.791 Y148.776 E0.12623
G1 X129.545 Y148.776 E0.02365
G1 X129.545 Y144.750 E0.12623
G1 X130.299 Y144.750 E0.02365
G1 X130.299 Y148.776 E0.12623
G1 X131.054 Y148.776 E0.02365
G1 X131.054 Y144.750 E0.12623
G1 X131.808 Y144.750 E0.02365
G1 X131.808 Y148.776 E0.12623
G1 X132.562 Y148.776 E0.02365
G1 X132.562 Y144.750 E0.12623
G1 X133.316 Y144.750 E0.02365
G1 X133.316 Y148.776 E0.12623
G1 X134.070 Y148.776 E0.02365
G1 X134.070 Y144.750 E0.12623
G1 X134.824 Y144.750 E0.02365
G1 X134.824 Y148.776 E0.12623
G1 X135.579 Y148.776 E0.02365
G1 X135.579 Y144.750 E0.12623
G1 X136.333 Y144.750 E0.02365
G1 X136.333 Y148.776 E0.12623
G1 X137.087 Y148.776 E0.02365
G1 X137.087 Y144.750 E0.12623
G1 X137.841 Y144.750 E0.02365
G1 X137.841 Y148.776 E0.12623
G1 X138.595 Y148.776 E0.02365
G1 X138.595 Y144.750 E0.12623
G1 X139.349 Y144.750 E0.02365
G1 X139.349 Y148.776 E0.12623
G1 X140.104 Y148.776 E0.02365
G1 X140.104 Y144.750 E0.12623
G1 X140.858 Y144.750 E0.02365
G1 X140.858 Y148.776 E0.12623
G1 X141.612 Y148.776 E0.02365
G1 X141.612 Y144.750 E0.12623
G1 X142.366 Y144.750 E0.02365
G1 X142.366 Y148.776 E0.12623
G1 X143.120 Y148.776 E0.02365
G1 X143.120 Y144.750 E0.12623
G1 X143.874 Y144.750 E0.02365
G1 X143.874 Y148.776 E0.12623
G1 X144.628 Y148.776 E0.02365
G1 X144.628 Y144.750 E0.12623
G1 X145.383 Y144.750 E0.02365
G1 X145.383 Y148.776 E0.12623
G1 X146.137 Y148.776 E0.02365
G1 X146.137 Y144.750 E0.12623
G1 X146.891 Y144.750 E0.02365
G1 X146.891 Y148.776 E0.12623
G1 X147.645 Y148.776 E0.02365
G1 X147.645 Y144.750 E0.12623
G1 X148.399 Y144.750 E0.02365
G1 X148.399 Y148.776 E0.12623
G1 X149.153 Y148.776 E0.02365
G1 X149.153 Y144.750 E0.12623
G1 X149.569 Y144.750 E0.01303
G1 X149.837 Y144.482 E0.01191
G1 X149.837 Y131.311 E0.41296
G1 X149.908 Y131.311 E0.00220
G1 X149.908 Y148.776 E0.54761
G1 X150.662 Y148.776 E0.02365
G1 X150.662 Y131.311 E0.54761
G1 X151.416 Y131.311 E0.02365
G1 X151.416 Y148.776 E0.54761
G1 X152.170 Y148.776 E0.02365
G1 X152.170 Y131.311 E0.54761
G1 X152.924 Y131.311 E0.02365
G1 X152.924 Y148.946 E0.55293
G1 F8640
G1 X152.924 Y145.654 E-0.76000
G1 E-0.04000 F2100.00000
G1 Z0.800 F10800.000
G1 X148.792 Y143.705
G1 Z0.200
G1 E0.80000 F2100.00000
G1 F1800
G1 X99.966 Y143.705 E1.53090
G1 X99.966 Y129.879 E0.43350
G1 X119.566 Y129.879 E0.61454
G1 X119.566 Y127.879 E0.06271
G1 X120.392 Y127.879 E0.02589
G1 X120.392 Y129.879 E0.06271
G1 X124.966 Y129.879 E0.14342
G1 X124.966 Y78.305 E1.61707
G1 X120.392 Y78.305 E0.14342
G1 X120.392 Y80.305 E0.06271
G1 X119.966 Y80.305 E0.01335
G1 X119.966 Y74.879 E0.17012
G1 X128.792 Y74.879 E0.27673
G1 X128.792 Y129.879 E1.72449
G1 X148.792 Y129.879 E0.62709
G1 X148.792 Y143.645 E0.43162
G1 F8640
G1 X145.500 Y143.649 E-0.76000
G1 E-0.04000 F2100.00000
G1 Z0.800 F10800.000
G1 X129.169 Y129.502
G1 Z0.200
G1 E0.80000 F2100.00000
G1 F1800
G1 X149.169 Y129.502 E0.62709
G1 X149.169 Y144.082 E0.45715
G1 X99.589 Y144.082 E1.55455
G1 X99.589 Y129.502 E0.45715
G1 X119.189 Y129.502 E0.61454
G1 X119.189 Y127.502 E0.06271
G1 X120.769 Y127.502 E0.04954
G1 X120.769 Y129.502 E0.06271
G1 X124.589 Y129.502 E0.11977
G1 X124.589 Y78.682 E1.59343
G1 X120.769 Y78.682 E0.11977
G1 X120.769 Y80.682 E0.06271
G1 X119.589 Y80.682 E0.03700
G1 X119.589 Y74.502 E0.19377
G1 X129.169 Y74.502 E0.30037
G1 X129.169 Y129.442 E1.72261
G1 X129.192 Y129.901 F10800.000
G1 X128.679 Y129.738
G1 F1800
G1 X125.249 Y126.308 E0.15243
G1 X125.249 Y125.774 E0.01680
G1 X128.509 Y129.034 E0.14489
G1 X128.509 Y128.499 E0.01680
G1 X125.249 Y125.239 E0.14489
G1 X125.249 Y124.705 E0.01680
G1 X128.509 Y127.965 E0.14489
G1 X128.509 Y127.430 E0.01680
G1 X125.249 Y124.170 E0.14489
G1 X125.249 Y123.636 E0.01680
G1 X128.509 Y126.896 E0.14489
G1 X128.509 Y126.362 E0.01680
G1 X125.249 Y123.101 E0.14489
G1 X125.249 Y122.567 E0.01680
G1 X128.509 Y125.827 E0.14489
G1 X128.509 Y125.293 E0.01680
G1 X125.249 Y122.032 E0.14489
G1 X125.249 Y121.498 E0.01680
G1 X128.509 Y124.758 E0.14489
G1 X128.509 Y124.224 E0.01680
G1 X125.249 Y120.963 E0.14489
G1 X125.249 Y120.429 E0.01680
G1 X128.509 Y123.689 E0.14489
G1 X128.509 Y123.155 E0.01680
G1 X125.249 Y119.894 E0.14489
G1 X125.249 Y119.360 E0.01680
G1 X128.509 Y122.620 E0.14489
G1 X128.509 Y122.086 E0.01680
G1 X125.249 Y118.825 E0.14489
G1 X125.249 Y118.291 E0.01680
G1 X128.509 Y121.551 E0.14489
G1 X128.509 Y121.017 E0.01680
G1 X125.249 Y117.756 E0.14489
G1 X125.249 Y117.222 E0.01680
G1 X128.509 Y120.482 E0.14489
G1 X128.509 Y119.948 E0.01680
G1 X125.249 Y116.688 E0.14489
G1 X125.249 Y116.153 E0.01680
G1 X128.509 Y119.413 E0.14489
G1 X128.509 Y118.879 E0.01680
G1 X125.249 Y115.619 E0.14489
G1 X125.249 Y115.084 E0.01680
G1 X128.509 Y118.344 E0.14489
G1 X128.509 Y117.810 E0.01680
G1 X125.249 Y114.550 E0.14489
G1 X125.249 Y114.015 E0.01680
G1 X128.509 Y117.275 E0.14489
G1 X128.509 Y116.741 E0.01680
G1 X125.249 Y113.481 E0.14489
G1 X125.249 Y112.946 E0.01680
G1 X128.509 Y116.206 E0.14489
G1 X128.509 Y115.672 E0.01680
G1 X125.249 Y112.412 E0.14489
G1 X125.249 Y111.877 E0.01680
G1 X128.509 Y115.138 E0.14489
G1 X128.509 Y114.603 E0.01680
G1 X125.249 Y111.343 E0.14489
G1 X125.249 Y110.808 E0.01680
G1 X128.509 Y114.069 E0.14489
G1 X128.509 Y113.534 E0.01680
G1 X125.249 Y110.274 E0.14489
G1 X125.249 Y109.739 E0.01680
G1 X128.509 Y113.000 E0.14489
G1 X128.509 Y112.465 E0.01680
G1 X125.249 Y109.205 E0.14489
G1 X125.249 Y108.670 E0.01680
G1 X128.509 Y111.931 E0.14489
G1 X128.509 Y111.396 E0.01680
G1 X125.249 Y108.136 E0.14489
G1 X125.249 Y107.601 E0.01680
G1 X128.509 Y110.862 E0.14489
G1 X128.509 Y110.327 E0.01680
G1 X125.249 Y107.067 E0.14489
G1 X125.249 Y106.533 E0.01680
G1 X128.509 Y109.793 E0.14489
G1 X128.509 Y109.258 E0.01680
G1 X125.249 Y105.998 E0.14489
G1 X125.249 Y105.464 E0.01680
G1 X128.509 Y108.724 E0.14489
G1 X128.509 Y108.189 E0.01680
G1 X125.249 Y104.929 E0.14489
G1 X125.249 Y104.395 E0.01680
G1 X128.509 Y107.655 E0.14489
G1 X128.509 Y107.120 E0.01680
G1 X125.249 Y103.860 E0.14489
G1 X125.249 Y103.326 E0.01680
G1 X128.509 Y106.586 E0.14489
G1 X128.509 Y106.051 E0.01680
G1 X125.249 Y102.791 E0.14489
G1 X125.249 Y102.257 E0.01680
G1 X128.509 Y105.517 E0.14489
G1 X128.509 Y104.983 E0.01680
G1 X125.249 Y101.722 E0.14489
G1 X125.249 Y101.188 E0.01680
G1 X128.509 Y104.448 E0.14489
G1 X128.509 Y103.914 E0.01680
G1 X125.249 Y100.653 E0.14489
G1 X125.249 Y100.119 E0.01680
G1 X128.509 Y103.379 E0.14489
G1 X128.509 Y102.845 E0.01680
G1 X125.249 Y99.584 E0.14489
G1 X125.249 Y99.050 E0.01680
G1 X128.509 Y102.310 E0.14489
G1 X128.509 Y101.776 E0.01680
G1 X125.249 Y98.515 E0.14489
G1 X125.249 Y97.981 E0.01680
G1 X128.509 Y101.241 E0.14489
G1 X128.509 Y100.707 E0.01680
G1 X125.249 Y97.446 E0.14489
G1 X125.249 Y96.912 E0.01680
G1 X128.509 Y100.172 E0.14489
G1 X128.509 Y99.638 E0.01680
G1 X125.249 Y96.377 E0.14489
G1 X125.249 Y95.843 E0.01680
G1 X128.509 Y99.103 E0.14489
G1 X128.509 Y98.569 E0.01680
G1 X125.249 Y95.309 E0.14489
G1 X125.249 Y94.774 E0.01680
G1 X128.509 Y98.034 E0.14489
G1 X128.509 Y97.500 E0.01680
G1 X125.249 Y94.240 E0.14489
G1 X125.249 Y93.705 E0.01680
G1 X128.509 Y96.965 E0.14489
G1 X128.509 Y96.431 E0.01680
G1 X125.249 Y93.171 E0.14489
G1 X125.249 Y92.636 E0.01680
G1 X128.509 Y95.896 E0.14489
G1 X128.509 Y95.362 E0.01680
G1 X125.249 Y92.102 E0.14489
G1 X125.249 Y91.567 E0.01680
G1 X128.509 Y94.827 E0.14489
G1 X128.509 Y94.293 E0.01680
G1 X125.249 Y91.033 E0.14489
G1 X125.249 Y90.498 E0.01680
G1 X128.509 Y93.759 E0.14489
G1 X128.509 Y93.224 E0.01680
G1 X125.249 Y89.964 E0.14489
G1 X125.249 Y89.429 E0.01680
G1 X128.509 Y92.690 E0.14489
G1 X128.509 Y92.155 E0.01680
G1 X125.249 Y88.895 E0.14489
G1 X125.249 Y88.360 E0.01680
G1 X128.509 Y91.621 E0.14489
G1 X128.509 Y91.086 E0.01680
G1 X125.249 Y87.826 E0.14489
G1 X125.249 Y87.291 E0.01680
G1 X128.509 Y90.552 E0.14489
G1 X128.509 Y90.017 E0.01680
G1 X125.249 Y86.757 E0.14489
G1 X125.249 Y86.222 E0.01680
G1 X128.509 Y89.483 E0.14489
G1 X128.509 Y88.948 E0.01680
G1 X125.249 Y85.688 E0.14489
G1 X125.249 Y85.154 E0.01680
G1 X128.509 Y88.414 E0.14489
G1 X128.509 Y87.879 E0.01680
G1 X125.249 Y84.619 E0.14489
G1 X125.249 Y84.085 E0.01680
G1 X128.509 Y87.345 E0.14489
G1 X128.509 Y86.810 E0.01680
G1 X125.249 Y83.550 E0.14489
G1 X125.249 Y83.016 E0.01680
G1 X128.509 Y86.276 E0.14489
G1 X128.509 Y85.741 E0.01680
G1 X125.249 Y82.481 E0.14489
G1 X125.249 Y81.947 E0.01680
G1 X128.509 Y85.207 E0.14489
G1 X128.509 Y84.672 E0.01680
G1 X125.249 Y81.412 E0.14489
G1 X125.249 Y80.878 E0.01680
G1 X128.509 Y84.138 E0.14489
G1 X128.509 Y83.603 E0.01680
G1 X125.249 Y80.343 E0.14489
G1 X125.249 Y79.809 E0.01680
G1 X128.509 Y83.069 E0.14489
G1 X128.509 Y82.535 E0.01680
G1 X125.249 Y79.274 E0.14489
G1 X125.249 Y78.740 E0.01680
G1 X128.509 Y82.000 E0.14489
G1 X128.509 Y81.466 E0.01680
G1 X122.205 Y75.162 E0.28016
G1 X122.740 Y75.162 E0.01680
G1 X128.509 Y80.931 E0.25641
G1 X128.509 Y80.397 E0.01680
G1 X123.274 Y75.162 E0.23265
G1 X123.809 Y75.162 E0.01680
G1 X128.509 Y79.862 E0.20890
G1 X128.509 Y79.328 E0.01680
G1 X124.343 Y75.162 E0.18515
G1 X124.878 Y75.162 E0.01680
G1 X128.509 Y78.793 E0.16139
G1 X128.509 Y78.259 E0.01680
G1 X125.412 Y75.162 E0.13764
G1 X125.946 Y75.162 E0.01680
G1 X128.509 Y77.724 E0.11389
G1 X128.509 Y77.190 E0.01680
G1 X126.481 Y75.162 E0.09013
G1 X127.015 Y75.162 E0.01680
G1 X128.509 Y76.655 E0.06638
G1 X128.509 Y76.121 E0.01680
G1 X127.550 Y75.162 E0.04263
G1 X128.084 Y75.162 E0.01680
G1 X128.679 Y75.756 E0.02642
G1 F8640
G1 X128.084 Y75.162 E-0.19410
G1 X127.550 Y75.162 E-0.12341
G1 X128.509 Y76.121 E-0.31322
G1 X128.509 Y76.655 E-0.12341
G1 X128.491 Y76.637 E-0.00586
G1 E-0.04000 F2100.00000
G1 Z0.800 F10800.000
G1 X124.701 Y78.192
G1 Z0.200
G1 E0.80000 F2100.00000
G1 F1800
G1 X121.671 Y75.162 E0.13466
G1 X121.136 Y75.162 E0.01680
G1 X123.996 Y78.022 E0.12712
G1 X123.462 Y78.022 E0.01680
G1 X120.602 Y75.162 E0.12712
G1 X120.249 Y75.162 E0.01109
G1 X120.249 Y75.343 E0.00571
G1 X122.927 Y78.022 E0.11905
G1 X122.393 Y78.022 E0.01680
G1 X120.249 Y75.878 E0.09529
G1 X120.249 Y76.412 E0.01680
G1 X121.859 Y78.022 E0.07154
G1 X121.324 Y78.022 E0.01680
G1 X120.249 Y76.947 E0.04779
G1 X120.249 Y77.481 E0.01680
G1 X120.790 Y78.022 E0.02403
G1 X120.255 Y78.022 E0.01680
G1 X120.079 Y77.846 E0.00782
G1 F8640
G1 X120.255 Y78.022 E-0.05747
G1 X120.790 Y78.022 E-0.12341
G1 X120.249 Y77.481 E-0.17659
G1 X120.249 Y76.947 E-0.12341
G1 X121.104 Y77.801 E-0.27911
G1 E-0.04000 F2100.00000
G1 Z0.800 F10800.000
G1 X120.279 Y128.821
G1 Z0.200
G1 E0.80000 F2100.00000
G1 F1800
G1 X119.849 Y128.391 E0.01911
G1 X119.849 Y128.925 E0.01680
G1 X120.109 Y129.185 E0.01157
G1 X120.109 Y129.720 E0.01680
G1 X119.849 Y129.460 E0.01157
G1 X119.849 Y129.994 E0.01680
G1 X133.277 Y143.422 E0.59675
G1 X133.811 Y143.422 E0.01680
G1 X120.551 Y130.162 E0.58931
