; generated by Slic3r Prusa Edition 1.41.0+win64 on 2018-10-09 at 10:15:13

; 

; external perimeters extrusion width = 0.45mm
; perimeters extrusion width = 0.45mm
; infill extrusion width = 0.45mm
; solid infill extrusion width = 0.45mm
; top infill extrusion width = 0.40mm
; support material extrusion width = 0.35mm
; first layer extrusion width = 0.42mm

M201 X9000 Y9000 Z500 E10000 ; sets maximum accelerations, mm/sec^2
M203 X500 Y500 Z12 E120 ; sets maximum feedrates, mm/sec
M204 P1500 R1500 T1500 ; sets acceleration (P, T) and retract acceleration (R), mm/sec^2
M205 X10.00 Y10.00 Z0.20 E2.50 ; sets the jerk limits, mm/sec
M205 S0 T0 ; sets the minimum extruding and travel feed rate, mm/sec
M107
M115 U3.3.1 ; tell printer latest fw version
M201 X1000 Y1000 Z1000 E9000 ; sets maximum accelerations, mm/sec^2
M203 X200 Y200 Z12 E120 ; sets maximum feedrates, mm/sec
M204 S1250 T1250 ; sets acceleration (S) and retract acceleration (T)
M205 X8 Y8 Z0.4 E1.5 ; sets the jerk limits, mm/sec
M205 S0 T0 ; sets the minimum extruding and travel feed rate, mm/sec
M83  ; extruder relative mode
M104 S255 ; set extruder temp
M140 S100 ; set bed temp
M190 S100 ; wait for bed temp
M109 S255 ; wait for extruder temp
G28 W ; home all without mesh bed level
G80 ; mesh bed leveling
G1 Y-3.0 F1000.0 ; go outside print area
G92 E0.0
G1 X60.0 E9.0  F1000.0 ; intro line
G1 X100.0 E12.5  F1000.0 ; intro line
G92 E0.0
M221 S95
M900 K30; Filament gcode
G4 P120000; wait two minutes to start
G21 ; set units to millimeters
G90 ; use absolute coordinates
M83 ; use relative distances for extrusion
;BEFORE_LAYER_CHANGE
G92 E0.0
;0.2


G1 E-0.80000 F2100.00000
G1 Z0.600 F10800.000
;AFTER_LAYER_CHANGE
;0.2
G1 X98.896 Y77.031
G1 Z0.200
G1 E0.80000 F2100.00000
M204 S1000
G1 F1800
G1 X99.332 Y76.561 E0.02010
G1 X99.885 Y76.237 E0.02010
G1 X100.505 Y76.088 E0.01998
G1 X115.704 Y76.080 E0.47658
G1 X116.507 Y76.234 E0.02563
G1 X171.806 Y98.379 E1.86770
G1 X172.226 Y98.699 E0.01658
G1 X172.558 Y99.110 E0.01658
G1 X172.782 Y99.590 E0.01658
G1 X172.884 Y100.112 E0.01669
G1 X172.888 Y108.337 E0.25791
G1 X172.804 Y108.874 E0.01703
G1 X172.590 Y109.373 E0.01703
G1 X172.156 Y109.903 E0.02146
G1 X171.577 Y110.274 E0.02157
G1 X115.708 Y134.239 E1.90608
G1 X115.022 Y134.347 E0.02179
G1 X98.394 Y134.177 E0.52137
G1 X97.842 Y134.095 E0.01749
G1 X97.333 Y133.877 E0.01737
G1 X96.920 Y133.565 E0.01623
G1 X96.592 Y133.164 E0.01623
G1 X96.368 Y132.697 E0.01623
G1 X96.259 Y132.191 E0.01623
G1 X96.250 Y122.120 E0.31576
G1 X98.515 Y78.152 E1.38043
G1 X98.615 Y77.607 E0.01737
G1 X98.869 Y77.085 E0.01821
; PURGING FINISHED
G1 F8640
G1 X99.332 Y76.561 E-0.16130
G1 X99.885 Y76.237 E-0.14799
G1 X100.505 Y76.088 E-0.14716
G1 X101.819 Y76.088 E-0.30354
G1 E-0.04000 F2100.00000
G1 Z0.800 F10800.000
G1 X98.438 Y122.172
G1 Z0.200
G1 E0.80000 F2100.00000
G1 F1800
G1 X98.438 Y131.989 E0.30781
G1 X99.192 Y131.989 E0.02365
G1 X99.192 Y123.166 E0.27664
G1 X99.947 Y123.920 E0.03344
G1 X99.947 Y131.989 E0.25299
G1 X100.701 Y131.989 E0.02365
G1 X100.701 Y128.727 E0.10228
G1 X101.455 Y128.727 E0.02365
G1 X101.455 Y131.989 E0.10228
G1 X102.209 Y131.989 E0.02365
G1 X102.209 Y128.727 E0.10228
G1 X102.963 Y128.727 E0.02365
G1 X102.963 Y131.989 E0.10228
G1 X103.717 Y131.989 E0.02365
G1 X103.717 Y128.727 E0.10228
G1 X104.472 Y128.727 E0.02365
G1 X104.472 Y131.989 E0.10228
G1 X105.226 Y131.989 E0.02365
G1 X105.226 Y128.727 E0.10228
G1 X105.980 Y128.727 E0.02365
G1 X105.980 Y131.989 E0.10228
G1 X106.734 Y131.989 E0.02365
G1 X106.734 Y128.727 E0.10228
G1 X107.488 Y128.727 E0.02365
G1 X107.488 Y131.989 E0.10228
G1 X108.242 Y131.989 E0.02365
G1 X108.242 Y128.727 E0.10228
G1 X108.997 Y128.727 E0.02365
G1 X108.997 Y131.989 E0.10228
G1 X109.751 Y131.989 E0.02365
G1 X109.751 Y128.727 E0.10228
G1 X110.505 Y128.727 E0.02365
G1 X110.505 Y131.989 E0.10228
G1 X111.259 Y131.989 E0.02365
G1 X111.259 Y128.727 E0.10228
G1 X112.013 Y128.727 E0.02365
G1 X112.013 Y131.989 E0.10228
G1 X112.767 Y131.989 E0.02365
G1 X112.767 Y128.727 E0.10228
G1 X113.522 Y128.727 E0.02365
G1 X113.522 Y131.989 E0.10228
G1 X114.276 Y131.989 E0.02365
G1 X114.276 Y128.727 E0.10228
G1 X115.030 Y128.727 E0.02365
G1 X115.030 Y132.158 E0.10760
G1 F8640
G1 X115.030 Y128.867 E-0.76000
G1 E-0.04000 F2100.00000
G1 Z0.800 F10800.000
G1 X115.030 Y127.681
G1 Z0.200
G1 E0.80000 F2100.00000
G1 F1800
G1 X101.288 Y127.681 E0.43087
G1 X101.288 Y78.855 E1.53090
G1 X115.114 Y78.855 E0.43350
G1 X115.114 Y100.455 E0.67725
G1 X117.114 Y100.455 E0.06271
G1 X117.114 Y101.281 E0.02589
G1 X115.114 Y101.281 E0.06271
G1 X115.114 Y103.855 E0.08071
G1 X166.688 Y103.855 E1.61707
G1 X166.688 Y101.281 E0.08071
G1 X164.688 Y101.281 E0.06271
G1 X164.688 Y100.855 E0.01335
G1 X170.114 Y100.855 E0.17012
G1 X170.114 Y107.681 E0.21402
G1 X115.114 Y107.681 E1.72449
G1 X115.114 Y127.681 E0.62709
G1 X115.090 Y127.681 E0.00075
G1 F8640
G1 X111.798 Y127.681 E-0.76000
G1 E-0.04000 F2100.00000
G1 Z0.800 F10800.000
G1 X115.491 Y100.078
G1 Z0.200
G1 E0.80000 F2100.00000
G1 F1800
G1 X117.491 Y100.078 E0.06271
G1 X117.491 Y101.658 E0.04954
G1 X115.491 Y101.658 E0.06271
G1 X115.491 Y103.478 E0.05706
G1 X166.311 Y103.478 E1.59343
G1 X166.311 Y101.658 E0.05706
G1 X164.311 Y101.658 E0.06271
G1 X164.311 Y100.478 E0.03700
G1 X170.491 Y100.478 E0.19377
G1 X170.491 Y108.058 E0.23767
G1 X115.491 Y108.058 E1.72449
G1 X115.491 Y128.058 E0.62709
G1 X100.911 Y128.058 E0.45715
G1 X100.911 Y78.478 E1.55455
G1 X115.491 Y78.478 E0.45715
G1 X115.491 Y100.018 E0.67537
G1 X115.569 Y100.470 F10800.000
G1 X115.001 Y100.258
G1 F1800
G1 X101.571 Y86.829 E0.59772
G1 X101.571 Y86.293 E0.01684
G1 X114.831 Y99.554 E0.59016
G1 X114.831 Y99.018 E0.01684
G1 X101.571 Y85.758 E0.59016
G1 X101.571 Y85.223 E0.01684
G1 X114.831 Y98.483 E0.59016
G1 X114.831 Y97.948 E0.01684
G1 X101.571 Y84.688 E0.59016
G1 X101.571 Y84.152 E0.01684
G1 X114.831 Y97.413 E0.59016
G1 X114.831 Y96.877 E0.01684
G1 X101.571 Y83.617 E0.59016
G1 X101.571 Y83.082 E0.01684
G1 X114.831 Y96.342 E0.59016
G1 X114.831 Y95.807 E0.01684
G1 X101.571 Y82.547 E0.59016
G1 X101.571 Y82.011 E0.01684
G1 X114.831 Y95.272 E0.59016
G1 X114.831 Y94.736 E0.01684
G1 X101.571 Y81.476 E0.59016
G1 X101.571 Y80.941 E0.01684
G1 X114.831 Y94.201 E0.59016
G1 X114.831 Y93.666 E0.01684
G1 X101.571 Y80.406 E0.59016
G1 X101.571 Y79.870 E0.01684
G1 X114.831 Y93.131 E0.59016
G1 X114.831 Y92.595 E0.01684
G1 X101.571 Y79.335 E0.59016
G1 X101.571 Y79.138 E0.00620
G1 X101.909 Y79.138 E0.01064
G1 X114.831 Y92.060 E0.57512
G1 X114.831 Y91.525 E0.01684
G1 X102.444 Y79.138 E0.55129
G1 X102.979 Y79.138 E0.01684
G1 X114.831 Y90.990 E0.52747
G1 X114.831 Y90.454 E0.01684
G1 X103.515 Y79.138 E0.50365
G1 X104.050 Y79.138 E0.01684
G1 X114.831 Y89.919 E0.47983
G1 X114.831 Y89.384 E0.01684
G1 X104.585 Y79.138 E0.45601
G1 X105.120 Y79.138 E0.01684
G1 X114.831 Y88.849 E0.43218
G1 X114.831 Y88.313 E0.01684
G1 X105.656 Y79.138 E0.40836
G1 X106.191 Y79.138 E0.01684
G1 X114.831 Y87.778 E0.38454
G1 X114.831 Y87.243 E0.01684
G1 X106.726 Y79.138 E0.36072
G1 X107.261 Y79.138 E0.01684
G1 X114.831 Y86.708 E0.33690
G1 X114.831 Y86.172 E0.01684
G1 X107.797 Y79.138 E0.31307
G1 X108.332 Y79.138 E0.01684
G1 X114.831 Y85.637 E0.28925
G1 X114.831 Y85.102 E0.01684
G1 X108.867 Y79.138 E0.26543
G1 X109.402 Y79.138 E0.01684
G1 X114.831 Y84.567 E0.24161
G1 X114.831 Y84.031 E0.01684
G1 X109.938 Y79.138 E0.21779
G1 X110.473 Y79.138 E0.01684
G1 X114.831 Y83.496 E0.19396
G1 X114.831 Y82.961 E0.01684
G1 X111.008 Y79.138 E0.17014
G1 X111.543 Y79.138 E0.01684
G1 X114.831 Y82.426 E0.14632
G1 X114.831 Y81.890 E0.01684
G1 X112.079 Y79.138 E0.12250
G1 X112.614 Y79.138 E0.01684
G1 X114.831 Y81.355 E0.09868
G1 X114.831 Y80.820 E0.01684
G1 X113.149 Y79.138 E0.07485
G1 X113.684 Y79.138 E0.01684
G1 X114.831 Y80.285 E0.05103
G1 X114.831 Y79.749 E0.01684
G1 X114.220 Y79.138 E0.02721
G1 X114.755 Y79.138 E0.01684
G1 X115.001 Y79.384 E0.01094
G1 F8640
G1 X114.755 Y79.138 E-0.08028
G1 X114.220 Y79.138 E-0.12359
G1 X114.831 Y79.749 E-0.19965
G1 X114.831 Y80.285 E-0.12359
G1 X114.118 Y79.571 E-0.23289
G1 E-0.04000 F2100.00000
G1 Z0.800 F10800.000
G1 X115.310 Y100.568
G1 Z0.200
G1 E0.80000 F2100.00000
G1 F1800
G1 X115.740 Y100.998 E0.01914
G1 X116.276 Y100.998 E0.01684
G1 X116.015 Y100.738 E0.01158
G1 X116.551 Y100.738 E0.01684
G1 X116.980 Y101.168 E0.01914
G1 F8640
G1 X116.551 Y100.738 E-0.14040
G1 X116.015 Y100.738 E-0.12359
G1 X116.276 Y100.998 E-0.08499
G1 X115.740 Y100.998 E-0.12359
G1 X115.310 Y100.568 E-0.14040
G1 E-0.18703 F2100.00000
G1 Z0.800 F10800.000
G1 X115.375 Y101.168
G1 Z0.200
G1 E0.80000 F2100.00000
G1 F1800
G1 X101.571 Y87.364 E0.61437
G1 X101.571 Y87.899 E0.01684
G1 X114.831 Y101.159 E0.59016
G1 X114.831 Y101.695 E0.01684
G1 X101.571 Y88.434 E0.59016
G1 X101.571 Y88.970 E0.01684
G1 X114.831 Y102.230 E0.59016
G1 X114.831 Y102.765 E0.01684
G1 X101.571 Y89.505 E0.59016
G1 X101.571 Y90.040 E0.01684
G1 X115.001 Y103.470 E0.59772
G1 X115.499 Y103.968 F10800.000
G1 F1800
G1 X118.929 Y107.398 E0.15265
G1 X119.464 Y107.398 E0.01684
G1 X116.204 Y104.138 E0.14510
G1 X116.739 Y104.138 E0.01684
G1 X119.999 Y107.398 E0.14510
G1 X120.535 Y107.398 E0.01684
G1 X117.274 Y104.138 E0.14510
G1 X117.810 Y104.138 E0.01684
G1 X121.070 Y107.398 E0.14510
G1 X121.605 Y107.398 E0.01684
G1 X118.345 Y104.138 E0.14510
G1 X118.880 Y104.138 E0.01684
G1 X122.140 Y107.398 E0.14510
G1 X122.676 Y107.398 E0.01684
G1 X119.415 Y104.138 E0.14510
G1 X119.951 Y104.138 E0.01684
G1 X123.211 Y107.398 E0.14510
G1 X123.746 Y107.398 E0.01684
G1 X120.486 Y104.138 E0.14510
G1 X121.021 Y104.138 E0.01684
G1 X124.281 Y107.398 E0.14510
G1 X124.817 Y107.398 E0.01684
G1 X121.556 Y104.138 E0.14510
G1 X122.092 Y104.138 E0.01684
G1 X125.352 Y107.398 E0.14510
G1 X125.887 Y107.398 E0.01684
G1 X122.627 Y104.138 E0.14510
G1 X123.162 Y104.138 E0.01684
G1 X126.422 Y107.398 E0.14510
G1 X126.958 Y107.398 E0.01684
G1 X123.697 Y104.138 E0.14510
G1 X124.233 Y104.138 E0.01684
G1 X127.493 Y107.398 E0.14510
G1 X128.028 Y107.398 E0.01684
G1 X124.768 Y104.138 E0.14510
G1 X125.303 Y104.138 E0.01684
G1 X128.563 Y107.398 E0.14510
G1 X129.099 Y107.398 E0.01684
G1 X125.838 Y104.138 E0.14510
G1 X126.374 Y104.138 E0.01684
G1 X129.634 Y107.398 E0.14510
G1 X130.169 Y107.398 E0.01684
G1 X126.909 Y104.138 E0.14510
G1 X127.444 Y104.138 E0.01684
G1 X130.704 Y107.398 E0.14510
G1 X131.240 Y107.398 E0.01684
G1 X127.979 Y104.138 E0.14510
G1 X128.515 Y104.138 E0.01684
G1 X131.775 Y107.398 E0.14510
G1 X132.310 Y107.398 E0.01684
G1 X129.050 Y104.138 E0.14510
G1 X129.585 Y104.138 E0.01684
G1 X132.845 Y107.398 E0.14510
G1 X133.381 Y107.398 E0.01684
G1 X130.120 Y104.138 E0.14510
G1 X130.656 Y104.138 E0.01684
G1 X133.916 Y107.398 E0.14510
G1 X134.451 Y107.398 E0.01684
G1 X131.191 Y104.138 E0.14510
G1 X131.726 Y104.138 E0.01684
G1 X134.986 Y107.398 E0.14510
G1 X135.522 Y107.398 E0.01684
G1 X132.261 Y104.138 E0.14510
G1 X132.797 Y104.138 E0.01684
G1 X136.057 Y107.398 E0.14510
G1 X136.592 Y107.398 E0.01684
G1 X133.332 Y104.138 E0.14510
G1 X133.867 Y104.138 E0.01684
G1 X137.127 Y107.398 E0.14510
G1 X137.663 Y107.398 E0.01684
G1 X134.402 Y104.138 E0.14510
G1 X134.938 Y104.138 E0.01684
G1 X138.198 Y107.398 E0.14510
G1 X138.733 Y107.398 E0.01684
G1 X135.473 Y104.138 E0.14510
G1 X136.008 Y104.138 E0.01684
G1 X139.268 Y107.398 E0.14510
G1 X139.804 Y107.398 E0.01684
G1 X136.543 Y104.138 E0.14510
G1 X137.079 Y104.138 E0.01684
G1 X140.339 Y107.398 E0.14510
G1 X140.874 Y107.398 E0.01684
G1 X137.614 Y104.138 E0.14510
G1 X138.149 Y104.138 E0.01684
G1 X141.409 Y107.398 E0.14510
G1 X141.945 Y107.398 E0.01684
G1 X138.684 Y104.138 E0.14510
G1 X139.220 Y104.138 E0.01684
G1 X142.480 Y107.398 E0.14510
G1 X143.015 Y107.398 E0.01684
G1 X139.755 Y104.138 E0.14510
G1 X140.290 Y104.138 E0.01684
G1 X143.550 Y107.398 E0.14510
G1 X144.086 Y107.398 E0.01684
G1 X140.825 Y104.138 E0.14510
G1 X141.361 Y104.138 E0.01684
G1 X144.621 Y107.398 E0.14510
G1 X145.156 Y107.398 E0.01684
G1 X141.896 Y104.138 E0.14510
G1 X142.431 Y104.138 E0.01684
G1 X145.691 Y107.398 E0.14510
G1 X146.227 Y107.398 E0.01684
G1 X142.966 Y104.138 E0.14510
G1 X143.502 Y104.138 E0.01684
G1 X146.762 Y107.398 E0.14510
G1 X147.297 Y107.398 E0.01684
G1 X144.037 Y104.138 E0.14510
G1 X144.572 Y104.138 E0.01684
G1 X147.832 Y107.398 E0.14510
G1 X148.368 Y107.398 E0.01684
G1 X145.107 Y104.138 E0.14510
G1 X145.643 Y104.138 E0.01684
G1 X148.903 Y107.398 E0.14510
G1 X149.438 Y107.398 E0.01684
G1 X146.178 Y104.138 E0.14510
G1 X146.713 Y104.138 E0.01684
G1 X149.973 Y107.398 E0.14510
G1 X150.509 Y107.398 E0.01684
G1 X147.248 Y104.138 E0.14510
G1 X147.784 Y104.138 E0.01684
G1 X151.044 Y107.398 E0.14510
G1 X151.579 Y107.398 E0.01684
G1 X148.319 Y104.138 E0.14510
G1 X148.854 Y104.138 E0.01684
G1 X152.114 Y107.398 E0.14510
G1 X152.650 Y107.398 E0.01684
G1 X149.389 Y104.138 E0.14510
G1 X149.925 Y104.138 E0.01684
G1 X153.185 Y107.398 E0.14510
G1 X153.720 Y107.398 E0.01684
G1 X150.460 Y104.138 E0.14510
G1 X150.995 Y104.138 E0.01684
G1 X154.255 Y107.398 E0.14510
G1 X154.791 Y107.398 E0.01684
G1 X151.530 Y104.138 E0.14510
G1 X152.066 Y104.138 E0.01684
G1 X155.326 Y107.398 E0.14510
G1 X155.861 Y107.398 E0.01684
G1 X152.601 Y104.138 E0.14510
G1 X153.136 Y104.138 E0.01684
G1 X156.396 Y107.398 E0.14510
G1 X156.932 Y107.398 E0.01684
G1 X153.671 Y104.138 E0.14510
G1 X154.207 Y104.138 E0.01684
G1 X157.467 Y107.398 E0.14510
G1 X158.002 Y107.398 E0.01684
G1 X154.742 Y104.138 E0.14510
G1 X155.277 Y104.138 E0.01684
G1 X158.537 Y107.398 E0.14510
G1 X159.073 Y107.398 E0.01684
G1 X155.812 Y104.138 E0.14510
G1 X156.348 Y104.138 E0.01684
G1 X159.608 Y107.398 E0.14510
G1 X160.143 Y107.398 E0.01684
G1 X156.883 Y104.138 E0.14510
G1 X157.418 Y104.138 E0.01684
G1 X160.678 Y107.398 E0.14510
G1 X161.214 Y107.398 E0.01684
G1 X157.953 Y104.138 E0.14510
G1 X158.489 Y104.138 E0.01684
G1 X161.749 Y107.398 E0.14510
G1 X162.284 Y107.398 E0.01684
G1 X159.024 Y104.138 E0.14510
G1 X159.559 Y104.138 E0.01684
G1 X162.819 Y107.398 E0.14510
G1 X163.355 Y107.398 E0.01684
G1 X160.094 Y104.138 E0.14510
G1 X160.630 Y104.138 E0.01684
G1 X163.890 Y107.398 E0.14510
G1 X164.425 Y107.398 E0.01684
G1 X161.165 Y104.138 E0.14510
G1 X161.700 Y104.138 E0.01684
G1 X164.960 Y107.398 E0.14510
G1 X165.496 Y107.398 E0.01684
G1 X162.235 Y104.138 E0.14510
G1 X162.771 Y104.138 E0.01684
G1 X166.031 Y107.398 E0.14510
G1 X166.566 Y107.398 E0.01684
G1 X163.306 Y104.138 E0.14510
G1 X163.841 Y104.138 E0.01684
G1 X167.101 Y107.398 E0.14510
G1 X167.637 Y107.398 E0.01684
G1 X164.376 Y104.138 E0.14510
G1 X164.912 Y104.138 E0.01684
G1 X168.172 Y107.398 E0.14510
G1 X168.707 Y107.398 E0.01684
G1 X165.447 Y104.138 E0.14510
G1 X165.982 Y104.138 E0.01684
G1 X169.242 Y107.398 E0.14510
G1 X169.778 Y107.398 E0.01684
G1 X166.517 Y104.138 E0.14510
G1 X166.971 Y104.138 E0.01427
G1 X166.971 Y104.056 E0.00258
G1 X169.831 Y106.916 E0.12730
G1 X169.831 Y106.381 E0.01684
G1 X166.971 Y103.521 E0.12730
G1 X166.971 Y102.986 E0.01684
G1 X169.831 Y105.846 E0.12730
G1 X169.831 Y105.311 E0.01684
G1 X166.971 Y102.450 E0.12730
G1 X166.971 Y101.915 E0.01684
G1 X169.831 Y104.775 E0.12730
G1 X169.831 Y104.240 E0.01684
G1 X166.971 Y101.380 E0.12730
G1 X166.971 Y101.138 E0.00761
G1 X167.264 Y101.138 E0.00923
G1 X169.831 Y103.705 E0.11424
G1 X169.831 Y103.170 E0.01684
G1 X167.799 Y101.138 E0.09042
G1 X168.335 Y101.138 E0.01684
G1 X169.831 Y102.634 E0.06660
G1 X169.831 Y102.099 E0.01684
G1 X168.870 Y101.138 E0.04278
G1 X169.405 Y101.138 E0.01684
G1 X170.001 Y101.733 E0.02651
G1 F8640
G1 X169.405 Y101.138 E-0.19448
G1 X168.870 Y101.138 E-0.12359
G1 X169.831 Y102.099 E-0.31385
G1 X169.831 Y102.634 E-0.12359
G1 X169.817 Y102.621 E-0.00449
G1 E-0.04000 F2100.00000
G1 Z0.800 F10800.000
G1 X118.563 Y107.568
G1 Z0.200
G1 E0.80000 F2100.00000
G1 F1800
G1 X101.571 Y90.575 E0.75628
G1 X101.571 Y91.111 E0.01684
G1 X117.858 Y107.398 E0.72490
G1 X117.323 Y107.398 E0.01684
G1 X101.571 Y91.646 E0.70108
G1 X101.571 Y92.181 E0.01684
G1 X116.788 Y107.398 E0.67726
G1 X116.253 Y107.398 E0.01684
G1 X101.571 Y92.716 E0.65344
G1 X101.571 Y93.252 E0.01684
G1 X115.717 Y107.398 E0.62961
G1 X115.182 Y107.398 E0.01684
