; generated by Slic3r Prusa Edition 1.41.0+win64 on 2018-10-02 at 09:29:46

; 

; external perimeters extrusion width = 0.45mm
; perimeters extrusion width = 0.45mm
; infill extrusion width = 0.45mm
; solid infill extrusion width = 0.45mm
; top infill extrusion width = 0.40mm
; first layer extrusion width = 0.42mm

M201 X9000 Y9000 Z500 E10000 ; sets maximum accelerations, mm/sec^2
M203 X500 Y500 Z12 E120 ; sets maximum feedrates, mm/sec
M204 P1500 R1500 T1500 ; sets acceleration (P, T) and retract acceleration (R), mm/sec^2
M205 X10.00 Y10.00 Z0.20 E2.50 ; sets the jerk limits, mm/sec
M205 S0 T0 ; sets the minimum extruding and travel feed rate, mm/sec
M107
M115 U3.3.1 ; tell printer latest fw version
M201 X1000 Y1000 Z1000 E9000 ; sets maximum accelerations, mm/sec^2
M203 X200 Y200 Z12 E120 ; sets maximum feedrates, mm/sec
M204 S1250 T1250 ; sets acceleration (S) and retract acceleration (T)
M205 X8 Y8 Z0.4 E1.5 ; sets the jerk limits, mm/sec
M205 S0 T0 ; sets the minimum extruding and travel feed rate, mm/sec
M83  ; extruder relative mode
M104 S255 ; set extruder temp
M140 S100 ; set bed temp
M190 S100 ; wait for bed temp
M109 S255 ; wait for extruder temp
G28 W ; home all without mesh bed level
G80 ; mesh bed leveling
G1 Y-3.0 F1000.0 ; go outside print area
G92 E0.0
G1 X60.0 E9.0  F1000.0 ; intro line
G1 X100.0 E12.5  F1000.0 ; intro line
G92 E0.0
M221 S95
M900 K30; Filament gcode
G4 P120000; wait two minutes to start
G21 ; set units to millimeters
G90 ; use absolute coordinates
M83 ; use relative distances for extrusion
;BEFORE_LAYER_CHANGE
G92 E0.0
;0.2


G1 E-0.80000 F2100.00000
G1 Z0.600 F10800.000
;AFTER_LAYER_CHANGE
;0.2
G1 X120.950 Y100.994
G1 Z0.200
G1 E0.80000 F2100.00000
M204 S1000
G1 F1204
G1 X121.825 Y100.270 E0.03562
G1 X122.770 Y99.758 E0.03371
G1 X123.887 Y99.413 E0.03666
G1 X124.976 Y99.303 E0.03430
G1 X126.121 Y99.415 E0.03606
G1 X127.146 Y99.723 E0.03356
G1 X128.181 Y100.275 E0.03680
G1 X129.013 Y100.957 E0.03371
G1 X129.756 Y101.865 E0.03680
G1 X130.257 Y102.806 E0.03341
G1 X130.595 Y103.934 E0.03695
G1 X130.696 Y105.000 E0.03356
G1 X130.595 Y106.066 E0.03356
G1 X130.257 Y107.194 E0.03695
G1 X129.756 Y108.135 E0.03341
G1 X129.013 Y109.043 E0.03680
G1 X128.182 Y109.725 E0.03371
G1 X127.146 Y110.277 E0.03680
G1 X126.121 Y110.585 E0.03356
G1 X124.971 Y110.697 E0.03621
G1 X123.883 Y110.586 E0.03430
G1 X122.757 Y110.237 E0.03695
G1 X121.814 Y109.722 E0.03371
G1 X120.923 Y108.979 E0.03636
G1 X120.240 Y108.131 E0.03415
G1 X119.703 Y107.098 E0.03651
G1 X119.404 Y106.070 E0.03356
G1 X119.304 Y104.943 E0.03547
G1 X119.413 Y103.884 E0.03341
G1 X119.721 Y102.858 E0.03356
G1 X120.256 Y101.846 E0.03591
G1 X120.912 Y101.040 E0.03257
G1 X121.203 Y101.277 F10800.000
G1 F1204
G1 X122.035 Y100.583 E0.03398
G1 X122.915 Y100.106 E0.03138
G1 X123.961 Y99.783 E0.03432
G1 X124.974 Y99.680 E0.03194
G1 X126.050 Y99.785 E0.03389
G1 X127.000 Y100.071 E0.03110
G1 X127.970 Y100.587 E0.03446
G1 X128.745 Y101.222 E0.03138
G1 X129.441 Y102.072 E0.03446
G1 X129.909 Y102.952 E0.03124
G1 X130.226 Y104.009 E0.03460
G1 X130.319 Y105.001 E0.03124
G1 X130.226 Y105.988 E0.03110
G1 X129.909 Y107.050 E0.03474
G1 X129.443 Y107.925 E0.03110
G1 X128.744 Y108.779 E0.03460
G1 X127.969 Y109.413 E0.03138
G1 X126.999 Y109.930 E0.03446
G1 X126.049 Y110.215 E0.03110
G1 X124.969 Y110.320 E0.03404
G1 X123.955 Y110.216 E0.03194
G1 X122.901 Y109.889 E0.03460
G1 X122.023 Y109.409 E0.03138
G1 X121.190 Y108.713 E0.03404
G1 X120.555 Y107.922 E0.03180
G1 X120.052 Y106.955 E0.03418
G1 X119.774 Y105.998 E0.03124
G1 X119.681 Y104.943 E0.03319
G1 X119.783 Y103.957 E0.03110
G1 X120.068 Y103.007 E0.03110
G1 X120.567 Y102.058 E0.03362
G1 X121.165 Y101.323 E0.02969
G1 X121.456 Y101.560 F10800.000
G1 F1204
G1 X122.245 Y100.896 E0.03234
G1 X123.060 Y100.454 E0.02906
G1 X124.035 Y100.153 E0.03198
G1 X124.974 Y100.058 E0.02959
G1 X125.976 Y100.155 E0.03158
G1 X126.860 Y100.421 E0.02893
G1 X127.763 Y100.903 E0.03211
G1 X128.480 Y101.490 E0.02906
G1 X129.128 Y102.283 E0.03211
G1 X129.562 Y103.098 E0.02893
G1 X129.856 Y104.083 E0.03224
G1 X129.942 Y105.001 E0.02893
G1 X129.856 Y105.917 E0.02884
G1 X129.560 Y106.905 E0.03233
G1 X129.129 Y107.716 E0.02880
G1 X128.478 Y108.512 E0.03224
G1 X127.764 Y109.097 E0.02893
G1 X126.857 Y109.580 E0.03224
G1 X125.977 Y109.845 E0.02880
G1 X124.971 Y109.942 E0.03171
G1 X124.032 Y109.847 E0.02959
G1 X123.050 Y109.542 E0.03224
G1 X122.236 Y109.098 E0.02906
G1 X121.457 Y108.446 E0.03184
G1 X120.871 Y107.717 E0.02933
G1 X120.401 Y106.812 E0.03197
G1 X120.145 Y105.926 E0.02893
G1 X120.058 Y104.943 E0.03092
G1 X120.153 Y104.030 E0.02880
G1 X120.417 Y103.150 E0.02880
G1 X120.882 Y102.266 E0.03131
G1 X121.418 Y101.606 E0.02666
G1 X121.709 Y101.843 F10800.000
G1 F1204
G1 X122.459 Y101.206 E0.03085
G1 X123.206 Y100.802 E0.02663
G1 X124.113 Y100.522 E0.02975
G1 X124.977 Y100.435 E0.02725
G1 X125.906 Y100.526 E0.02926
G1 X126.715 Y100.769 E0.02650
G1 X127.556 Y101.218 E0.02988
G1 X128.213 Y101.756 E0.02663
G1 X128.816 Y102.494 E0.02988
G1 X129.212 Y103.240 E0.02650
G1 X129.486 Y104.157 E0.03000
G1 X129.565 Y105.003 E0.02663
G1 X129.464 Y105.954 E0.03000
G1 X129.212 Y106.761 E0.02650
G1 X128.815 Y107.507 E0.02650
G1 X128.212 Y108.245 E0.02988
G1 X127.555 Y108.783 E0.02663
G1 X126.714 Y109.231 E0.02988
G1 X125.905 Y109.475 E0.02650
G1 X124.968 Y109.565 E0.02951
G1 X124.108 Y109.477 E0.02712
G1 X123.194 Y109.193 E0.03000
G1 X122.449 Y108.786 E0.02663
G1 X121.724 Y108.180 E0.02963
G1 X121.187 Y107.512 E0.02687
G1 X120.750 Y106.669 E0.02975
G1 X120.515 Y105.853 E0.02663
G1 X120.435 Y104.939 E0.02876
G1 X120.523 Y104.103 E0.02638
G1 X120.766 Y103.293 E0.02650
G1 X121.199 Y102.471 E0.02913
G1 X121.671 Y101.890 E0.02349
G1 X121.962 Y102.126 F10800.000
G1 F1204
G1 X122.014 Y102.063 E0.00257
G1 X122.667 Y101.521 E0.02659
G1 X123.349 Y101.151 E0.02433
G1 X124.187 Y100.891 E0.02751
G1 X124.973 Y100.812 E0.02479
G1 X125.832 Y100.895 E0.02705
G1 X126.572 Y101.118 E0.02421
G1 X127.346 Y101.531 E0.02751
G1 X127.946 Y102.023 E0.02433
G1 X128.503 Y102.705 E0.02762
G1 X128.864 Y103.384 E0.02410
G1 X129.117 Y104.231 E0.02773
G1 X129.188 Y105.000 E0.02421
G1 X129.117 Y105.769 E0.02420
G1 X128.865 Y106.613 E0.02763
G1 X128.503 Y107.295 E0.02421
G1 X127.945 Y107.978 E0.02762
G1 X127.348 Y108.468 E0.02421
G1 X126.571 Y108.882 E0.02762
G1 X125.832 Y109.105 E0.02421
G1 X124.969 Y109.188 E0.02717
G1 X124.183 Y109.108 E0.02478
G1 X123.342 Y108.846 E0.02762
G1 X122.661 Y108.474 E0.02433
G1 X121.993 Y107.916 E0.02728
G1 X121.503 Y107.306 E0.02456
G1 X121.099 Y106.527 E0.02751
G1 X120.885 Y105.785 E0.02422
G1 X120.812 Y104.943 E0.02648
G1 X120.893 Y104.175 E0.02421
G1 X121.113 Y103.439 E0.02410
G1 X121.511 Y102.682 E0.02682
G1 X121.925 Y102.173 E0.02056
; PURGING FINISHED
G1 F8640
G1 X122.014 Y102.063 E-0.03281
G1 X122.667 Y101.521 E-0.19585
G1 X123.349 Y101.151 E-0.17916
G1 X124.187 Y100.891 E-0.20258
G1 X124.832 Y100.826 E-0.14961
G1 E-0.04000 F2100.00000
G1 Z0.800 F10800.000
G1 X123.927 Y104.082
G1 Z0.200
G1 E0.80000 F2100.00000
G1 F1204
G1 X124.031 Y103.973 E0.00475
G1 X124.233 Y103.815 E0.00803
G1 X124.364 Y103.739 E0.00475
G1 X124.503 Y103.679 E0.00475
G1 X124.741 Y103.613 E0.00775
G1 X124.993 Y103.589 E0.00792
G1 X125.289 Y103.618 E0.00934
G1 X125.526 Y103.691 E0.00776
G1 X125.747 Y103.802 E0.00776
G1 X125.871 Y103.889 E0.00475
G1 X125.984 Y103.989 E0.00473
G1 X126.154 Y104.187 E0.00819
G1 X126.232 Y104.311 E0.00460
G1 X126.299 Y104.448 E0.00475
G1 X126.377 Y104.691 E0.00803
G1 X126.403 Y104.840 E0.00475
G1 X126.411 Y104.992 E0.00475
G1 X126.389 Y105.247 E0.00803
G1 X126.355 Y105.394 E0.00475
G1 X126.305 Y105.537 E0.00475
G1 X126.186 Y105.764 E0.00803
G1 X126.098 Y105.887 E0.00475
G1 X125.997 Y105.999 E0.00475
G1 X125.800 Y106.163 E0.00803
G1 X125.671 Y106.242 E0.00475
G1 X125.534 Y106.307 E0.00475
G1 X125.289 Y106.382 E0.00803
G1 X125.139 Y106.405 E0.00475
G1 X124.988 Y106.411 E0.00475
G1 X124.733 Y106.386 E0.00803
G1 X124.586 Y106.350 E0.00475
G1 X124.444 Y106.298 E0.00475
G1 X124.219 Y106.176 E0.00803
G1 X124.097 Y106.086 E0.00475
G1 X123.980 Y105.977 E0.00501
G1 X123.792 Y105.730 E0.00974
G1 X123.683 Y105.508 E0.00775
G1 X123.613 Y105.265 E0.00792
G1 X123.593 Y105.120 E0.00460
G1 X123.588 Y104.968 E0.00475
G1 X123.617 Y104.714 E0.00803
G1 X123.655 Y104.567 E0.00475
G1 X123.710 Y104.426 E0.00475
G1 X123.890 Y104.130 E0.01087
G1 X123.640 Y103.837 F10800.000
G1 F1204
G1 X123.778 Y103.693 E0.00626
G1 X124.021 Y103.502 E0.00970
G1 X124.194 Y103.402 E0.00626
G1 X124.377 Y103.322 E0.00626
G1 X124.672 Y103.241 E0.00960
G1 X124.982 Y103.211 E0.00977
G1 X125.374 Y103.250 E0.01233
G1 X125.667 Y103.340 E0.00961
G1 X125.940 Y103.478 E0.00961
G1 X126.104 Y103.592 E0.00626
G1 X126.254 Y103.724 E0.00625
G1 X126.458 Y103.963 E0.00987
G1 X126.562 Y104.127 E0.00610
G1 X126.649 Y104.307 E0.00626
G1 X126.744 Y104.601 E0.00970
G1 X126.778 Y104.798 E0.00626
G1 X126.789 Y104.997 E0.00626
G1 X126.763 Y105.305 E0.00970
G1 X126.718 Y105.500 E0.00626
G1 X126.652 Y105.688 E0.00626
G1 X126.508 Y105.962 E0.00970
G1 X126.392 Y106.124 E0.00626
G1 X126.258 Y106.272 E0.00626
G1 X126.020 Y106.470 E0.00970
G1 X125.850 Y106.575 E0.00626
G1 X125.670 Y106.659 E0.00626
G1 X125.374 Y106.750 E0.00970
G1 X125.177 Y106.781 E0.00626
G1 X124.977 Y106.789 E0.00626
G1 X124.669 Y106.759 E0.00970
G1 X124.476 Y106.711 E0.00626
G1 X124.288 Y106.642 E0.00626
G1 X124.016 Y106.495 E0.00970
G1 X123.856 Y106.376 E0.00626
G1 X123.708 Y106.238 E0.00635
G1 X123.464 Y105.919 E0.01258
G1 X123.330 Y105.644 E0.00960
G1 X123.244 Y105.344 E0.00977
G1 X123.216 Y105.152 E0.00610
G1 X123.211 Y104.952 E0.00626
G1 X123.246 Y104.645 E0.00970
G1 X123.296 Y104.452 E0.00626
G1 X123.368 Y104.266 E0.00626
G1 X123.519 Y103.995 E0.00970
G1 X123.603 Y103.884 E0.00437
G1 X123.836 Y103.871 F10800.000
G1 F8640
G1 X123.778 Y103.693 E-0.05985
G1 X124.021 Y103.502 E-0.07145
G1 X124.194 Y103.402 E-0.04607
G1 X124.377 Y103.322 E-0.04607
G1 X124.672 Y103.241 E-0.07072
G1 X124.982 Y103.211 E-0.07196
G1 X125.374 Y103.250 E-0.09083
G1 X125.667 Y103.340 E-0.07076
G1 X125.940 Y103.478 E-0.07076
G1 X126.104 Y103.592 E-0.04607
G1 X126.254 Y103.724 E-0.04603
G1 X126.449 Y103.952 E-0.06941
G1 E-0.04000 F2100.00000
G1 Z0.800 F10800.000
G1 X124.708 Y106.260
G1 Z0.200
G1 E0.80000 F2100.00000
G1 F1204
G1 X124.033 Y105.581 E0.03492
G1 X123.948 Y105.406 E0.00710
G1 X123.893 Y105.214 E0.00731
G1 X123.873 Y104.973 E0.00883
G1 X123.890 Y104.821 E0.00555
G1 X125.177 Y106.109 E0.06643
G1 X125.424 Y106.044 E0.00932
G1 X125.625 Y105.936 E0.00834
G1 X124.063 Y104.374 E0.08061
G1 X124.228 Y104.178 E0.00935
G1 X124.374 Y104.064 E0.00676
G1 X125.935 Y105.625 E0.08059
G1 X126.041 Y105.431 E0.00808
G1 X126.111 Y105.181 E0.00949
G1 X124.820 Y103.890 E0.06664
G1 X125.000 Y103.872 E0.00661
G1 X125.225 Y103.895 E0.00825
G1 X125.420 Y103.954 E0.00743
G1 X125.593 Y104.041 E0.00707
G1 X126.266 Y104.714 E0.03473
;BEFORE_LAYER_CHANGE
G92 E0.0
;0.4


G1 F8640
G1 X125.593 Y104.041 E-0.21973
G1 X125.420 Y103.954 E-0.04470
G1 X125.225 Y103.895 E-0.04700
G1 X125.000 Y103.872 E-0.05221
G1 X124.820 Y103.890 E-0.04179
G1 X125.906 Y104.975 E-0.35456
G1 E-0.04000 F2100.00000
G1 Z0.800 F10800.000
;AFTER_LAYER_CHANGE
;0.4
M140 S110 ; set bed temperature
G1 X130.595 Y103.934
G1 Z0.400
G1 E0.80000 F2100.00000
G1 F300
G1 X130.696 Y105.000 E0.03356
G1 X130.595 Y106.066 E0.03356
G1 X130.257 Y107.194 E0.03695
G1 X129.756 Y108.135 E0.03341
G1 X129.013 Y109.043 E0.03680
G1 X128.182 Y109.725 E0.03371
G1 X127.146 Y110.277 E0.03680
G1 X126.121 Y110.585 E0.03356
G1 X124.971 Y110.697 E0.03621
G1 X123.883 Y110.586 E0.03430
G1 X122.757 Y110.237 E0.03695
G1 X121.814 Y109.722 E0.03371
G1 X120.923 Y108.979 E0.03636
G1 X120.240 Y108.131 E0.03415
G1 X119.703 Y107.098 E0.03651
G1 X119.404 Y106.070 E0.03356
G1 X119.304 Y104.943 E0.03547
G1 X119.413 Y103.884 E0.03341
G1 X119.721 Y102.858 E0.03356
G1 X120.256 Y101.846 E0.03591
G1 X120.950 Y100.994 E0.03445
G1 X121.825 Y100.270 E0.03562
G1 X122.770 Y99.758 E0.03371
G1 X123.887 Y99.413 E0.03666
G1 X124.976 Y99.303 E0.03430
G1 X126.121 Y99.415 E0.03606
G1 X127.146 Y99.723 E0.03356
G1 X128.181 Y100.275 E0.03680
G1 X129.013 Y100.957 E0.03371
G1 X129.756 Y101.865 E0.03680
G1 X130.257 Y102.806 E0.03341
G1 X130.578 Y103.877 E0.03507
; PURGING FINISHED
G1 F8640
G1 X130.696 Y105.000 E-0.26074
G1 X130.595 Y106.066 E-0.24717
G1 X130.282 Y107.111 E-0.25209
G1 E-0.04000 F2100.00000
G1 Z1.000 F10800.000
G1 X126.330 Y104.698
G1 Z0.400
G1 E0.80000 F2100.00000
M204 S800
G1 F300
G1 X126.365 Y105.008 E0.01056
G1 X126.345 Y105.240 E0.00787
G1 X126.264 Y105.519 E0.00985
G1 X126.148 Y105.740 E0.00845
G1 X125.965 Y105.967 E0.00985
G1 X125.773 Y106.126 E0.00845
G1 X125.517 Y106.265 E0.00985
G1 X125.279 Y106.338 E0.00845
G1 X124.991 Y106.366 E0.00979
G1 X124.746 Y106.341 E0.00834
G1 X124.448 Y106.248 E0.01056
G1 X124.243 Y106.138 E0.00787
G1 X124.013 Y105.946 E0.01015
G1 X123.831 Y105.708 E0.01015
G1 X123.725 Y105.491 E0.00814
G1 X123.658 Y105.260 E0.00815
G1 X123.633 Y104.970 E0.00985
G1 X123.662 Y104.722 E0.00845
G1 X123.751 Y104.445 E0.00985
G1 X123.873 Y104.227 E0.00845
G1 X124.062 Y104.006 E0.00985
G1 X124.258 Y103.852 E0.00845
G1 X124.518 Y103.721 E0.00985
G1 X124.748 Y103.658 E0.00809
G1 X124.985 Y103.636 E0.00803
G1 X125.295 Y103.667 E0.01056
G1 X125.509 Y103.733 E0.00757
G1 X125.724 Y103.841 E0.00814
G1 X125.951 Y104.020 E0.00979
G1 X126.111 Y104.208 E0.00834
G1 X126.261 Y104.479 E0.01051
G1 X126.312 Y104.641 E0.00573
M204 S1000
G1 X126.704 Y105.496 F10800.000
M204 S800
G1 F300
G1 X126.638 Y105.682 E0.00669
G1 X126.496 Y105.954 E0.01040
G1 X126.380 Y106.115 E0.00669
G1 X126.248 Y106.261 E0.00669
G1 X126.011 Y106.458 E0.01040
G1 X125.843 Y106.561 E0.00669
G1 X125.664 Y106.645 E0.00669
G1 X125.370 Y106.735 E0.01040
G1 X125.175 Y106.766 E0.00669
G1 X124.978 Y106.774 E0.00667
G1 X124.664 Y106.741 E0.01071
G1 X124.289 Y106.626 E0.01327
G1 X124.024 Y106.482 E0.01020
G1 X123.718 Y106.228 E0.01346
G1 X123.477 Y105.912 E0.01346
G1 X123.344 Y105.638 E0.01029
G1 X123.259 Y105.346 E0.01029
G1 X123.226 Y104.953 E0.01336
G1 X123.260 Y104.648 E0.01040
G1 X123.381 Y104.272 E0.01336
G1 X123.531 Y104.004 E0.01040
G1 X123.788 Y103.704 E0.01336
G1 X124.030 Y103.514 E0.01040
G1 X124.382 Y103.337 E0.01336
G1 X124.674 Y103.256 E0.01027
G1 X124.986 Y103.227 E0.01060
G1 X125.376 Y103.266 E0.01327
G1 X125.661 Y103.354 E0.01009
G1 X125.933 Y103.491 E0.01029
G1 X126.243 Y103.734 E0.01334
G1 X126.447 Y103.975 E0.01071
G1 X126.637 Y104.317 E0.01325
G1 X126.730 Y104.613 E0.01050
G1 X126.774 Y105.003 E0.01327
G1 X126.748 Y105.303 E0.01020
G1 X126.717 Y105.437 E0.00466
M204 S1000
G1 X126.512 Y105.545 F10800.000
G1 F8640
G1 X126.638 Y105.682 E-0.05941
G1 X126.496 Y105.954 E-0.07096
G1 X126.380 Y106.115 E-0.04563
G1 X126.248 Y106.261 E-0.04563
G1 X126.011 Y106.458 E-0.07096
G1 X125.843 Y106.561 E-0.04563
G1 X125.664 Y106.645 E-0.04563
G1 X125.370 Y106.735 E-0.07096
G1 X125.175 Y106.766 E-0.04563
G1 X124.978 Y106.774 E-0.04550
G1 X124.664 Y106.741 E-0.07304
G1 X124.289 Y106.626 E-0.09050
G1 X124.097 Y106.522 E-0.05053
G1 E-0.04000 F2100.00000
G1 Z1.000 F10800.000
G1 X125.280 Y106.210
G1 Z0.400
G1 E0.80000 F2100.00000
M204 S1500
G1 F300
G1 X125.783 Y105.706 E0.02494
G1 X125.891 Y105.572 E0.00603
G1 X125.979 Y105.405 E0.00662
G1 X126.043 Y105.184 E0.00806
G1 X126.058 Y105.012 E0.00604
G1 X126.040 Y104.853 E0.00559
G1 X124.849 Y106.045 E0.05901
G1 X124.567 Y105.966 E0.01028
G1 X124.414 Y105.883 E0.00606
G1 X125.879 Y104.419 E0.07254
G1 X125.738 Y104.241 E0.00795
G1 X125.583 Y104.119 E0.00692
G1 X124.119 Y105.583 E0.07251
G1 X124.011 Y105.381 E0.00801
G1 X123.955 Y105.151 E0.00829
G1 X125.147 Y103.959 E0.05905
G1 X124.983 Y103.942 E0.00577
G1 X124.804 Y103.959 E0.00633
G1 X124.628 Y104.008 E0.00637
G1 X124.423 Y104.111 E0.00806
G1 X124.314 Y104.196 E0.00484
G1 X123.791 Y104.720 E0.02592
M204 S1000
;BEFORE_LAYER_CHANGE
G92 E0.0
;0.6


G1 F8640
G1 X124.314 Y104.196 E-0.17082
G1 X124.423 Y104.111 E-0.03188
G1 X124.628 Y104.008 E-0.05316
G1 X124.804 Y103.959 E-0.04201
G1 X124.983 Y103.942 E-0.04170
