; generated by Slic3r Prusa Edition 1.41.0+win64 on 2018-10-26 at 13:40:33

; 

; external perimeters extrusion width = 0.45mm
; perimeters extrusion width = 0.45mm
; infill extrusion width = 0.45mm
; solid infill extrusion width = 0.45mm
; top infill extrusion width = 0.40mm
; first layer extrusion width = 0.42mm

M201 X9000 Y9000 Z500 E10000 ; sets maximum accelerations, mm/sec^2
M203 X500 Y500 Z12 E120 ; sets maximum feedrates, mm/sec
M204 P1500 R1500 T1500 ; sets acceleration (P, T) and retract acceleration (R), mm/sec^2
M205 X10.00 Y10.00 Z0.20 E2.50 ; sets the jerk limits, mm/sec
M205 S0 T0 ; sets the minimum extruding and travel feed rate, mm/sec
M107
M115 U3.3.1 ; tell printer latest fw version
M201 X1000 Y1000 Z1000 E9000 ; sets maximum accelerations, mm/sec^2
M203 X200 Y200 Z12 E120 ; sets maximum feedrates, mm/sec
M204 S1250 T1250 ; sets acceleration (S) and retract acceleration (T)
M205 X8 Y8 Z0.4 E1.5 ; sets the jerk limits, mm/sec
M205 S0 T0 ; sets the minimum extruding and travel feed rate, mm/sec
M83  ; extruder relative mode
M104 S255 ; set extruder temp
M140 S100 ; set bed temp
M190 S100 ; wait for bed temp
M109 S255 ; wait for extruder temp
G28 W ; home all without mesh bed level
G80 ; mesh bed leveling
G1 Y-3.0 F1000.0 ; go outside print area
G92 E0.0
G1 X60.0 E9.0  F1000.0 ; intro line
G1 X100.0 E12.5  F1000.0 ; intro line
G92 E0.0
M221 S95
M900 K30; Filament gcode
G4 P120000; wait two minutes to start
G21 ; set units to millimeters
G90 ; use absolute coordinates
M83 ; use relative distances for extrusion
;BEFORE_LAYER_CHANGE
G92 E0.0
;0.2


G1 E-0.80000 F2100.00000
G1 Z0.600 F10800.000
;AFTER_LAYER_CHANGE
;0.2
G1 X120.807 Y100.713
G1 Z0.200
G1 E0.80000 F2100.00000
M204 S1000
G1 F1293
G1 X121.752 Y99.959 E0.03790
G1 X122.731 Y99.449 E0.03460
G1 X123.881 Y99.109 E0.03760
G1 X125.066 Y99.004 E0.03730
G1 X126.178 Y99.120 E0.03505
G1 X127.329 Y99.474 E0.03775
G1 X128.389 Y100.053 E0.03790
G1 X129.245 Y100.765 E0.03490
G1 X130.003 Y101.694 E0.03760
G1 X130.564 Y102.764 E0.03790
G1 X130.904 Y103.949 E0.03864
G1 X130.996 Y105.058 E0.03490
G1 X130.863 Y106.260 E0.03790
G1 X130.493 Y107.405 E0.03775
G1 X129.954 Y108.379 E0.03490
G1 X129.179 Y109.301 E0.03775
G1 X128.240 Y110.046 E0.03760
G1 X127.251 Y110.558 E0.03490
G1 X126.096 Y110.896 E0.03775
G1 X124.882 Y110.996 E0.03819
G1 X123.668 Y110.847 E0.03834
G1 X122.615 Y110.502 E0.03475
G1 X121.560 Y109.912 E0.03790
G1 X120.658 Y109.136 E0.03730
G1 X119.968 Y108.262 E0.03490
G1 X119.420 Y107.196 E0.03760
G1 X119.094 Y106.037 E0.03775
G1 X119.004 Y104.942 E0.03446
G1 X119.137 Y103.740 E0.03790
G1 X119.505 Y102.599 E0.03760
G1 X120.041 Y101.629 E0.03475
G1 X120.769 Y100.759 E0.03557
G1 X121.057 Y100.999 F10800.000
G1 F1293
G1 X121.956 Y100.276 E0.03618
G1 X122.871 Y99.800 E0.03233
G1 X123.951 Y99.479 E0.03535
G1 X125.066 Y99.381 E0.03507
G1 X126.100 Y99.489 E0.03261
G1 X127.182 Y99.821 E0.03549
G1 X128.176 Y100.364 E0.03549
G1 X128.976 Y101.029 E0.03261
G1 X129.686 Y101.899 E0.03521
G1 X130.216 Y102.909 E0.03577
G1 X130.533 Y104.019 E0.03619
G1 X130.619 Y105.056 E0.03261
G1 X130.493 Y106.185 E0.03563
G1 X130.146 Y107.258 E0.03535
G1 X129.644 Y108.164 E0.03247
G1 X128.916 Y109.031 E0.03549
G1 X128.033 Y109.731 E0.03535
G1 X127.113 Y110.207 E0.03248
G1 X126.031 Y110.524 E0.03535
G1 X124.885 Y110.619 E0.03605
G1 X123.748 Y110.478 E0.03591
G1 X122.764 Y110.155 E0.03248
G1 X121.776 Y109.603 E0.03549
G1 X120.928 Y108.873 E0.03507
G1 X120.284 Y108.056 E0.03261
G1 X119.770 Y107.058 E0.03521
G1 X119.465 Y105.968 E0.03549
G1 X119.381 Y104.949 E0.03206
G1 X119.506 Y103.819 E0.03563
G1 X119.852 Y102.746 E0.03535
G1 X120.351 Y101.844 E0.03233
G1 X121.018 Y101.045 E0.03263
G1 X121.306 Y101.286 F10800.000
G1 F1293
G1 X122.164 Y100.591 E0.03462
G1 X123.014 Y100.148 E0.03007
G1 X124.022 Y99.849 E0.03296
G1 X125.065 Y99.758 E0.03283
G1 X126.028 Y99.859 E0.03033
G1 X127.037 Y100.169 E0.03309
G1 X127.966 Y100.677 E0.03323
G1 X128.707 Y101.293 E0.03020
G1 X129.372 Y102.107 E0.03296
G1 X129.866 Y103.050 E0.03336
G1 X130.162 Y104.089 E0.03389
G1 X130.242 Y105.049 E0.03020
G1 X130.125 Y106.106 E0.03336
G1 X129.799 Y107.110 E0.03309
G1 X129.334 Y107.949 E0.03007
G1 X128.653 Y108.761 E0.03323
G1 X127.829 Y109.414 E0.03296
G1 X126.970 Y109.858 E0.03033
G1 X125.961 Y110.154 E0.03296
G1 X124.888 Y110.241 E0.03375
G1 X123.828 Y110.110 E0.03349
G1 X122.917 Y109.811 E0.03007
G1 X121.992 Y109.294 E0.03323
G1 X121.199 Y108.610 E0.03283
G1 X120.602 Y107.854 E0.03020
G1 X120.120 Y106.915 E0.03309
G1 X119.835 Y105.899 E0.03309
G1 X119.758 Y104.951 E0.02981
G1 X119.874 Y103.898 E0.03323
G1 X120.199 Y102.894 E0.03309
G1 X120.663 Y102.054 E0.03007
G1 X121.268 Y101.332 E0.02952
G1 X121.555 Y101.573 F10800.000
G1 F1293
G1 X121.602 Y101.517 E0.00228
G1 X122.372 Y100.906 E0.03083
G1 X123.155 Y100.498 E0.02768
G1 X124.094 Y100.220 E0.03070
G1 X125.065 Y100.135 E0.03058
G1 X125.951 Y100.228 E0.02793
G1 X126.891 Y100.517 E0.03083
G1 X127.753 Y100.989 E0.03083
G1 X128.438 Y101.558 E0.02793
G1 X129.058 Y102.316 E0.03070
G1 X129.516 Y103.190 E0.03095
G1 X129.792 Y104.159 E0.03157
G1 X129.865 Y105.046 E0.02793
G1 X129.756 Y106.027 E0.03095
G1 X129.454 Y106.959 E0.03070
G1 X129.024 Y107.735 E0.02780
G1 X128.389 Y108.491 E0.03095
G1 X127.622 Y109.099 E0.03070
G1 X126.834 Y109.506 E0.02780
G1 X125.895 Y109.783 E0.03070
G1 X124.895 Y109.864 E0.03144
G1 X123.904 Y109.740 E0.03132
G1 X123.065 Y109.464 E0.02768
G1 X122.207 Y108.984 E0.03083
G1 X121.466 Y108.344 E0.03070
G1 X120.918 Y107.647 E0.02780
G1 X120.470 Y106.777 E0.03070
G1 X120.206 Y105.830 E0.03083
G1 X120.135 Y104.954 E0.02756
G1 X120.243 Y103.976 E0.03083
G1 X120.546 Y103.041 E0.03083
G1 X120.974 Y102.269 E0.02768
G1 X121.517 Y101.619 E0.02655
G1 X121.805 Y101.860 F10800.000
G1 F1293
G1 X121.866 Y101.787 E0.00300
G1 X122.579 Y101.220 E0.02855
G1 X123.296 Y100.848 E0.02531
G1 X124.165 Y100.590 E0.02844
G1 X125.065 Y100.512 E0.02832
G1 X125.875 Y100.598 E0.02554
G1 X126.745 Y100.865 E0.02855
G1 X127.544 Y101.302 E0.02855
G1 X128.170 Y101.823 E0.02554
G1 X128.742 Y102.522 E0.02832
G1 X129.167 Y103.332 E0.02866
G1 X129.421 Y104.229 E0.02923
G1 X129.488 Y105.040 E0.02554
G1 X129.387 Y105.949 E0.02866
G1 X129.107 Y106.811 E0.02844
G1 X128.714 Y107.521 E0.02542
G1 X128.129 Y108.219 E0.02855
G1 X127.418 Y108.782 E0.02844
G1 X126.694 Y109.156 E0.02554
G1 X125.824 Y109.412 E0.02844
G1 X124.899 Y109.487 E0.02912
G1 X123.984 Y109.372 E0.02889
G1 X123.218 Y109.119 E0.02531
G1 X122.423 Y108.675 E0.02855
G1 X121.739 Y108.084 E0.02832
G1 X121.236 Y107.444 E0.02554
G1 X120.821 Y106.638 E0.02844
G1 X120.577 Y105.761 E0.02855
G1 X120.512 Y104.960 E0.02520
G1 X120.612 Y104.055 E0.02855
G1 X120.892 Y103.192 E0.02844
G1 X121.284 Y102.482 E0.02542
G1 X121.766 Y101.906 E0.02356
; PURGING FINISHED
G1 F8640
G1 X121.866 Y101.787 E-0.03594
G1 X122.579 Y101.220 E-0.21025
G1 X123.296 Y100.848 E-0.18640
G1 X124.165 Y100.590 E-0.20941
G1 X124.674 Y100.546 E-0.11801
G1 E-0.04000 F2100.00000
G1 Z0.800 F10800.000
G1 X123.742 Y103.839
G1 Z0.200
G1 E0.80000 F2100.00000
G1 F1293
G1 X123.867 Y103.717 E0.00547
G1 X124.099 Y103.545 E0.00905
G1 X124.251 Y103.460 E0.00547
G1 X124.419 Y103.389 E0.00571
G1 X124.765 Y103.305 E0.01115
G1 X125.058 Y103.289 E0.00920
G1 X125.406 Y103.337 E0.01103
G1 X125.741 Y103.457 E0.01117
G1 X125.990 Y103.604 E0.00905
G1 X126.127 Y103.712 E0.00547
G1 X126.252 Y103.833 E0.00547
G1 X126.431 Y104.060 E0.00905
G1 X126.519 Y104.211 E0.00547
G1 X126.595 Y104.377 E0.00571
G1 X126.690 Y104.728 E0.01141
G1 X126.710 Y105.083 E0.01117
G1 X126.671 Y105.369 E0.00905
G1 X126.559 Y105.707 E0.01117
G1 X126.379 Y106.014 E0.01115
G1 X126.185 Y106.235 E0.00920
G1 X125.908 Y106.451 E0.01103
G1 X125.588 Y106.608 E0.01117
G1 X125.309 Y106.683 E0.00905
G1 X125.137 Y106.707 E0.00547
G1 X124.773 Y106.697 E0.01141
G1 X124.419 Y106.611 E0.01141
G1 X124.259 Y106.543 E0.00547
G1 X124.010 Y106.396 E0.00905
G1 X123.873 Y106.288 E0.00547
G1 X123.748 Y106.167 E0.00547
G1 X123.569 Y105.940 E0.00905
G1 X123.481 Y105.789 E0.00547
G1 X123.348 Y105.450 E0.01141
G1 X123.290 Y105.091 E0.01141
G1 X123.290 Y104.917 E0.00546
G1 X123.330 Y104.626 E0.00920
G1 X123.374 Y104.462 E0.00533
G1 X123.525 Y104.131 E0.01142
G1 X123.704 Y103.885 E0.00953
G1 X123.413 Y103.644 F10800.000
G1 F1293
G1 X123.622 Y103.429 E0.00939
G1 X123.894 Y103.227 E0.01063
G1 X124.086 Y103.121 E0.00689
G1 X124.291 Y103.034 E0.00697
G1 X124.720 Y102.929 E0.01384
G1 X125.063 Y102.912 E0.01078
G1 X125.496 Y102.970 E0.01369
G1 X125.911 Y103.120 E0.01384
G1 X126.203 Y103.292 E0.01063
G1 X126.376 Y103.427 E0.00689
G1 X126.533 Y103.581 E0.00689
G1 X126.743 Y103.847 E0.01063
G1 X126.854 Y104.036 E0.00689
G1 X126.946 Y104.239 E0.00697
G1 X127.063 Y104.668 E0.01393
G1 X127.087 Y105.108 E0.01384
G1 X127.042 Y105.444 E0.01063
G1 X126.903 Y105.863 E0.01384
G1 X126.679 Y106.244 E0.01384
G1 X126.452 Y106.502 E0.01078
G1 X126.108 Y106.772 E0.01369
G1 X125.711 Y106.965 E0.01384
G1 X125.384 Y107.054 E0.01063
G1 X124.944 Y107.089 E0.01384
G1 X124.504 Y107.030 E0.01393
G1 X124.089 Y106.880 E0.01384
G1 X123.797 Y106.708 E0.01063
G1 X123.467 Y106.419 E0.01375
G1 X123.257 Y106.153 E0.01063
G1 X123.054 Y105.761 E0.01384
G1 X122.937 Y105.332 E0.01393
G1 X122.913 Y104.892 E0.01384
G1 X122.959 Y104.551 E0.01078
G1 X123.097 Y104.137 E0.01369
G1 X123.200 Y103.939 E0.00697
G1 X123.375 Y103.690 E0.00955
G1 X123.708 Y103.698 F10800.000
G1 F8640
G1 X123.622 Y103.429 E-0.08295
G1 X123.894 Y103.227 E-0.07828
G1 X124.086 Y103.121 E-0.05071
G1 X124.291 Y103.034 E-0.05136
G1 X124.720 Y102.929 E-0.10190
G1 X125.063 Y102.912 E-0.07939
G1 X125.496 Y102.970 E-0.10085
G1 X125.911 Y103.120 E-0.10193
G1 X126.203 Y103.292 E-0.07828
G1 X126.320 Y103.384 E-0.03434
G1 E-0.04000 F2100.00000
G1 Z0.800 F10800.000
G1 X124.515 Y106.515
G1 Z0.200
G1 E0.80000 F2100.00000
G1 F1293
G1 X123.888 Y105.888 E0.02977
G1 X123.808 Y105.786 E0.00436
G1 X123.670 Y105.520 E0.01006
G1 X123.590 Y105.227 E0.01021
G1 X123.578 Y105.007 E0.00740
G1 X124.991 Y106.420 E0.06713
G1 X125.253 Y106.406 E0.00881
G1 X125.485 Y106.342 E0.00808
G1 X123.663 Y104.520 E0.08657
G1 X123.700 Y104.410 E0.00389
G1 X123.858 Y104.144 E0.01041
G1 X125.856 Y106.142 E0.09493
G1 X125.985 Y106.034 E0.00564
G1 X126.142 Y105.856 E0.00797
G1 X124.147 Y103.861 E0.09476
G1 X124.246 Y103.788 E0.00415
G1 X124.514 Y103.658 E0.01002
G1 X126.337 Y105.480 E0.08657
G1 X126.395 Y105.306 E0.00617
G1 X126.422 Y104.993 E0.01053
G1 X125.004 Y103.575 E0.06736
G1 X125.332 Y103.611 E0.01109
G1 X125.621 Y103.714 E0.01032
G1 X125.824 Y103.834 E0.00792
G1 X126.515 Y104.516 E0.03261
;BEFORE_LAYER_CHANGE
G92 E0.0
;0.4


G1 F8640
G1 X125.824 Y103.834 E-0.22416
G1 X125.621 Y103.714 E-0.05443
G1 X125.332 Y103.611 E-0.07090
G1 X125.004 Y103.575 E-0.07622
G1 X126.027 Y104.599 E-0.33429
G1 E-0.04000 F2100.00000
G1 Z0.800 F10800.000
;AFTER_LAYER_CHANGE
;0.4
M140 S110 ; set bed temperature
G1 X130.564 Y102.764
G1 Z0.400
G1 E0.80000 F2100.00000
G1 F300
G1 X130.904 Y103.949 E0.03864
G1 X130.996 Y105.058 E0.03490
G1 X130.863 Y106.260 E0.03790
G1 X130.493 Y107.405 E0.03775
G1 X129.954 Y108.379 E0.03490
G1 X129.179 Y109.301 E0.03775
G1 X128.240 Y110.046 E0.03760
G1 X127.251 Y110.558 E0.03490
G1 X126.096 Y110.896 E0.03775
G1 X124.882 Y110.996 E0.03819
G1 X123.668 Y110.847 E0.03834
G1 X122.615 Y110.502 E0.03475
G1 X121.560 Y109.912 E0.03790
G1 X120.658 Y109.136 E0.03730
G1 X119.968 Y108.262 E0.03490
G1 X119.420 Y107.196 E0.03760
G1 X119.094 Y106.037 E0.03775
G1 X119.004 Y104.942 E0.03446
G1 X119.137 Y103.740 E0.03790
G1 X119.505 Y102.599 E0.03760
G1 X120.041 Y101.629 E0.03475
G1 X120.807 Y100.713 E0.03745
G1 X121.752 Y99.959 E0.03790
G1 X122.731 Y99.449 E0.03460
G1 X123.881 Y99.109 E0.03760
G1 X125.066 Y99.004 E0.03730
G1 X126.178 Y99.120 E0.03505
G1 X127.329 Y99.474 E0.03775
G1 X128.389 Y100.053 E0.03790
G1 X129.245 Y100.765 E0.03490
G1 X130.003 Y101.694 E0.03760
G1 X130.537 Y102.711 E0.03602
; PURGING FINISHED
G1 F8640
G1 X130.904 Y103.949 E-0.29812
G1 X130.996 Y105.058 E-0.25700
G1 X130.899 Y105.940 E-0.20488
G1 E-0.04000 F2100.00000
G1 Z1.000 F10800.000
G1 X126.479 Y104.231
G1 Z0.400
G1 E0.80000 F2100.00000
M204 S800
G1 F300
G1 X126.608 Y104.561 E0.01200
G1 X126.665 Y104.911 E0.01200
G1 X126.665 Y105.080 E0.00572
G1 X126.627 Y105.361 E0.00957
G1 X126.583 Y105.524 E0.00572
G1 X126.518 Y105.689 E0.00601
G1 X126.344 Y105.986 E0.01167
G1 X126.159 Y106.196 E0.00947
G1 X125.870 Y106.421 E0.01239
G1 X125.729 Y106.499 E0.00546
G1 X125.574 Y106.564 E0.00568
G1 X125.304 Y106.637 E0.00947
G1 X124.940 Y106.665 E0.01239
G1 X124.604 Y106.619 E0.01145
G1 X124.434 Y106.568 E0.00601
G1 X124.279 Y106.502 E0.00572
G1 X124.035 Y106.359 E0.00957
G1 X123.902 Y106.255 E0.00572
G1 X123.781 Y106.137 E0.00572
G1 X123.607 Y105.914 E0.00957
G1 X123.521 Y105.769 E0.00572
G1 X123.447 Y105.607 E0.00601
G1 X123.354 Y105.265 E0.01200
G1 X123.335 Y104.921 E0.01167
G1 X123.374 Y104.644 E0.00947
G1 X123.489 Y104.297 E0.01239
G1 X123.662 Y104.006 E0.01145
G1 X123.896 Y103.751 E0.01171
G1 X124.123 Y103.583 E0.00957
G1 X124.271 Y103.501 E0.00572
G1 X124.434 Y103.432 E0.00601
G1 X124.769 Y103.350 E0.01167
G1 X125.048 Y103.336 E0.00947
G1 X125.411 Y103.385 E0.01239
G1 X125.566 Y103.432 E0.00546
G1 X125.721 Y103.498 E0.00572
G1 X125.965 Y103.641 E0.00957
G1 X126.098 Y103.745 E0.00572
G1 X126.219 Y103.863 E0.00572
G1 X126.449 Y104.180 E0.01324
M204 S1000
G1 X126.799 Y103.973 F10800.000
M204 S800
G1 F300
G1 X126.932 Y104.244 E0.01023
G1 X127.002 Y104.454 E0.00748
G1 X127.072 Y104.890 E0.01493
G1 X127.072 Y105.107 E0.00737
G1 X127.027 Y105.441 E0.01141
G1 X126.970 Y105.652 E0.00737
G1 X126.889 Y105.857 E0.00748
G1 X126.667 Y106.234 E0.01481
G1 X126.439 Y106.493 E0.01169
G1 X126.095 Y106.762 E0.01475
G1 X125.907 Y106.866 E0.00728
G1 X125.707 Y106.950 E0.00736
G1 X125.373 Y107.040 E0.01169
G1 X124.939 Y107.073 E0.01475
G1 X124.508 Y107.015 E0.01474
G1 X124.296 Y106.952 E0.00748
G1 X124.095 Y106.867 E0.00737
G1 X123.805 Y106.696 E0.01141
G1 X123.634 Y106.561 E0.00737
G1 X123.478 Y106.409 E0.00737
G1 X123.270 Y106.144 E0.01141
G1 X123.159 Y105.957 E0.00737
G1 X123.068 Y105.756 E0.00748
G1 X122.952 Y105.330 E0.01493
G1 X122.928 Y104.893 E0.01481
G1 X122.975 Y104.551 E0.01169
G1 X123.113 Y104.138 E0.01475
G1 X123.335 Y103.763 E0.01474
G1 X123.632 Y103.441 E0.01483
G1 X123.902 Y103.240 E0.01141
G1 X124.296 Y103.048 E0.01483
G1 X124.721 Y102.944 E0.01481
G1 X125.066 Y102.927 E0.01169
G1 X125.498 Y102.986 E0.01475
G1 X125.905 Y103.133 E0.01463
G1 X126.195 Y103.304 E0.01141
G1 X126.522 Y103.591 E0.01473
G1 X126.769 Y103.921 E0.01397
M204 S1000
G1 X126.655 Y104.238 F10800.000
G1 F8640
G1 X126.932 Y104.244 E-0.08360
G1 X127.002 Y104.454 E-0.05099
G1 X127.072 Y104.890 E-0.10184
G1 X127.072 Y105.107 E-0.05030
G1 X127.027 Y105.441 E-0.07782
G1 X126.970 Y105.652 E-0.05030
G1 X126.889 Y105.857 E-0.05099
G1 X126.667 Y106.234 E-0.10104
G1 X126.439 Y106.493 E-0.07974
G1 X126.095 Y106.762 E-0.10061
G1 X126.047 Y106.788 E-0.01277
G1 E-0.04000 F2100.00000
G1 Z1.000 F10800.000
G1 X124.587 Y103.520
G1 Z0.400
G1 E0.80000 F2100.00000
M204 S1500
G1 F300
G1 X123.893 Y104.214 E0.03642
G1 X123.769 Y104.424 E0.00908
G1 X123.672 Y104.714 E0.01132
G1 X123.642 Y104.934 E0.00824
G1 X123.650 Y105.088 E0.00575
G1 X125.089 Y103.649 E0.07551
G1 X125.338 Y103.683 E0.00931
G1 X125.593 Y103.776 E0.01009
G1 X123.781 Y105.588 E0.09508
G1 X123.864 Y105.748 E0.00669
G1 X124.042 Y105.959 E0.01022
G1 X125.959 Y104.042 E0.10062
G1 X126.136 Y104.252 E0.01018
G1 X126.219 Y104.413 E0.00674
G1 X124.408 Y106.224 E0.09505
G1 X124.677 Y106.321 E0.01063
G1 X124.910 Y106.353 E0.00871
G1 X126.350 Y104.913 E0.07556
G1 X126.358 Y105.068 E0.00576
G1 X126.328 Y105.292 E0.00836
G1 X126.238 Y105.562 E0.01058
G1 X126.105 Y105.789 E0.00976
G1 X125.413 Y106.481 E0.03634
M204 S1000
;BEFORE_LAYER_CHANGE
G92 E0.0
;0.6


G1 F8640
G1 X126.105 Y105.789 E-0.22610
G1 X126.238 Y105.562 E-0.06076
G1 X126.328 Y105.292 E-0.06581
G1 X126.358 Y105.068 E-0.05202
G1 X126.350 Y104.913 E-0.03584
G1 X125.371 Y105.892 E-0.31946
G1 E-0.04000 F2100.00000
G1 Z1.000 F10800.000
