; generated by Slic3r Prusa Edition 1.41.0+win64 on 2018-10-02 at 08:50:34

; 

; external perimeters extrusion width = 0.45mm
; perimeters extrusion width = 0.45mm
; infill extrusion width = 0.45mm
; solid infill extrusion width = 0.45mm
; top infill extrusion width = 0.40mm
; first layer extrusion width = 0.42mm

M201 X9000 Y9000 Z500 E10000 ; sets maximum accelerations, mm/sec^2
M203 X500 Y500 Z12 E120 ; sets maximum feedrates, mm/sec
M204 P1500 R1500 T1500 ; sets acceleration (P, T) and retract acceleration (R), mm/sec^2
M205 X10.00 Y10.00 Z0.20 E2.50 ; sets the jerk limits, mm/sec
M205 S0 T0 ; sets the minimum extruding and travel feed rate, mm/sec
M107
M115 U3.3.1 ; tell printer latest fw version
M201 X1000 Y1000 Z1000 E9000 ; sets maximum accelerations, mm/sec^2
M203 X200 Y200 Z12 E120 ; sets maximum feedrates, mm/sec
M204 S1250 T1250 ; sets acceleration (S) and retract acceleration (T)
M205 X8 Y8 Z0.4 E1.5 ; sets the jerk limits, mm/sec
M205 S0 T0 ; sets the minimum extruding and travel feed rate, mm/sec
M83  ; extruder relative mode
M104 S255 ; set extruder temp
M140 S100 ; set bed temp
M190 S100 ; wait for bed temp
M109 S255 ; wait for extruder temp
G28 W ; home all without mesh bed level
G80 ; mesh bed leveling
G1 Y-3.0 F1000.0 ; go outside print area
G92 E0.0
G1 X60.0 E9.0  F1000.0 ; intro line
G1 X100.0 E12.5  F1000.0 ; intro line
G92 E0.0
M221 S95
M900 K30; Filament gcode
G4 P120000; wait two minutes to start
G21 ; set units to millimeters
G90 ; use absolute coordinates
M83 ; use relative distances for extrusion
;BEFORE_LAYER_CHANGE
G92 E0.0
;0.2


G1 E-0.80000 F2100.00000
G1 Z0.600 F10800.000
;AFTER_LAYER_CHANGE
;0.2
G1 X100.205 Y79.693
G1 Z0.200
G1 E0.80000 F2100.00000
M204 S1000
G1 F1800
G1 X101.049 Y79.511 E0.02709
G1 X149.085 Y79.510 E1.50611
G1 X149.904 Y79.671 E0.02620
G1 X150.604 Y80.127 E0.02620
G1 X151.082 Y80.813 E0.02620
G1 X151.268 Y81.631 E0.02631
G1 X151.269 Y129.724 E1.50794
G1 X151.107 Y130.526 E0.02563
G1 X150.662 Y131.212 E0.02563
G1 X149.943 Y131.710 E0.02743
G1 X149.083 Y131.887 E0.02754
G1 X101.055 Y131.887 E1.50588
G1 X100.254 Y131.725 E0.02563
G1 X99.568 Y131.280 E0.02563
G1 X99.069 Y130.561 E0.02743
G1 X98.892 Y129.701 E0.02754
G1 X98.892 Y81.673 E1.50588
G1 X99.055 Y80.872 E0.02563
G1 X99.499 Y80.186 E0.02563
G1 X100.156 Y79.728 E0.02510
; PURGING FINISHED
G1 F8640
G1 X101.049 Y79.511 E-0.21238
G1 X103.421 Y79.511 E-0.54762
G1 E-0.04000 F2100.00000
G1 Z0.800 F10800.000
G1 X101.668 Y82.286
G1 Z0.200
G1 E0.80000 F2100.00000
G1 F1800
G1 X148.494 Y82.286 E1.46819
G1 X148.494 Y129.112 E1.46819
G1 X101.668 Y129.112 E1.46819
G1 X101.668 Y82.346 E1.46631
G1 X101.291 Y81.909 F10800.000
G1 F1800
G1 X148.871 Y81.909 E1.49184
G1 X148.871 Y129.489 E1.49184
G1 X101.291 Y129.489 E1.49184
G1 X101.291 Y81.969 E1.48996
G1 X101.677 Y82.012 F10800.000
G1 F8640
G1 X104.582 Y81.965 E-0.76000
G1 E-0.04000 F2100.00000
G1 Z0.800 F10800.000
G1 X102.548 Y128.999
G1 Z0.200
G1 E0.80000 F2100.00000
G1 F1800
G1 X101.951 Y128.402 E0.02660
G1 X101.951 Y127.866 E0.01690
G1 X102.914 Y128.829 E0.04293
G1 X103.450 Y128.829 E0.01690
G1 X101.951 Y127.330 E0.06683
G1 X101.951 Y126.794 E0.01690
G1 X103.986 Y128.829 E0.09072
G1 X104.522 Y128.829 E0.01690
G1 X101.951 Y126.258 E0.11461
G1 X101.951 Y125.722 E0.01690
G1 X105.058 Y128.829 E0.13851
G1 X105.594 Y128.829 E0.01690
G1 X101.951 Y125.186 E0.16240
G1 X101.951 Y124.649 E0.01690
G1 X106.130 Y128.829 E0.18630
G1 X106.666 Y128.829 E0.01690
G1 X101.951 Y124.113 E0.21019
G1 X101.951 Y123.577 E0.01690
G1 X107.202 Y128.829 E0.23409
G1 X107.738 Y128.829 E0.01690
G1 X101.951 Y123.041 E0.25798
G1 X101.951 Y122.505 E0.01690
G1 X108.274 Y128.829 E0.28187
G1 X108.811 Y128.829 E0.01690
G1 X101.951 Y121.969 E0.30577
G1 X101.951 Y121.433 E0.01690
G1 X109.347 Y128.829 E0.32966
G1 X109.883 Y128.829 E0.01690
G1 X101.951 Y120.897 E0.35356
G1 X101.951 Y120.361 E0.01690
G1 X110.419 Y128.829 E0.37745
G1 X110.955 Y128.829 E0.01690
G1 X101.951 Y119.825 E0.40134
G1 X101.951 Y119.289 E0.01690
G1 X111.491 Y128.829 E0.42524
G1 X112.027 Y128.829 E0.01690
G1 X101.951 Y118.753 E0.44913
G1 X101.951 Y118.217 E0.01690
G1 X112.563 Y128.829 E0.47303
G1 X113.099 Y128.829 E0.01690
G1 X101.951 Y117.681 E0.49692
G1 X101.951 Y117.145 E0.01690
G1 X113.635 Y128.829 E0.52082
G1 X114.171 Y128.829 E0.01690
G1 X101.951 Y116.609 E0.54471
G1 X101.951 Y116.072 E0.01690
G1 X114.707 Y128.829 E0.56860
G1 X115.243 Y128.829 E0.01690
G1 X101.951 Y115.536 E0.59250
G1 X101.951 Y115.000 E0.01690
G1 X115.779 Y128.829 E0.61639
G1 X116.315 Y128.829 E0.01690
G1 X101.951 Y114.464 E0.64029
G1 X101.951 Y113.928 E0.01690
G1 X116.851 Y128.829 E0.66418
G1 X117.388 Y128.829 E0.01690
G1 X101.951 Y113.392 E0.68807
G1 X101.951 Y112.856 E0.01690
G1 X117.924 Y128.829 E0.71197
G1 X118.460 Y128.829 E0.01690
G1 X101.951 Y112.320 E0.73586
G1 X101.951 Y111.784 E0.01690
G1 X118.996 Y128.829 E0.75976
G1 X119.532 Y128.829 E0.01690
G1 X101.951 Y111.248 E0.78365
G1 X101.951 Y110.712 E0.01690
G1 X120.068 Y128.829 E0.80754
G1 X120.604 Y128.829 E0.01690
G1 X101.951 Y110.176 E0.83144
G1 X101.951 Y109.640 E0.01690
G1 X121.140 Y128.829 E0.85533
G1 X121.676 Y128.829 E0.01690
G1 X101.951 Y109.104 E0.87923
G1 X101.951 Y108.568 E0.01690
G1 X122.212 Y128.829 E0.90312
G1 X122.748 Y128.829 E0.01690
G1 X101.951 Y108.032 E0.92702
G1 X101.951 Y107.496 E0.01690
G1 X123.284 Y128.829 E0.95091
G1 X123.820 Y128.829 E0.01690
G1 X101.951 Y106.959 E0.97480
G1 X101.951 Y106.423 E0.01690
G1 X124.356 Y128.829 E0.99870
G1 X124.892 Y128.829 E0.01690
G1 X101.951 Y105.887 E1.02259
G1 X101.951 Y105.351 E0.01690
G1 X125.428 Y128.829 E1.04649
G1 X125.964 Y128.829 E0.01690
G1 X101.951 Y104.815 E1.07038
G1 X101.951 Y104.279 E0.01690
G1 X126.501 Y128.829 E1.09427
G1 X127.037 Y128.829 E0.01690
G1 X101.951 Y103.743 E1.11817
G1 X101.951 Y103.207 E0.01690
G1 X127.573 Y128.829 E1.14206
G1 X128.109 Y128.829 E0.01690
G1 X101.951 Y102.671 E1.16596
G1 X101.951 Y102.135 E0.01690
G1 X128.645 Y128.829 E1.18985
G1 X129.181 Y128.829 E0.01690
G1 X101.951 Y101.599 E1.21375
G1 X101.951 Y101.063 E0.01690
G1 X129.717 Y128.829 E1.23764
G1 X130.253 Y128.829 E0.01690
G1 X101.951 Y100.527 E1.26153
G1 X101.951 Y99.991 E0.01690
G1 X130.789 Y128.829 E1.28543
G1 X131.325 Y128.829 E0.01690
G1 X101.951 Y99.455 E1.30932
G1 X101.951 Y98.919 E0.01690
G1 X131.861 Y128.829 E1.33322
G1 X132.397 Y128.829 E0.01690
G1 X101.951 Y98.382 E1.35711
G1 X101.951 Y97.846 E0.01690
G1 X132.933 Y128.829 E1.38100
G1 X133.469 Y128.829 E0.01690
G1 X101.951 Y97.310 E1.40490
G1 X101.951 Y96.774 E0.01690
G1 X134.005 Y128.829 E1.42879
G1 X134.541 Y128.829 E0.01690
G1 X101.951 Y96.238 E1.45269
G1 X101.951 Y95.702 E0.01690
G1 X135.078 Y128.829 E1.47658
G1 X135.614 Y128.829 E0.01690
G1 X101.951 Y95.166 E1.50048
G1 X101.951 Y94.630 E0.01690
G1 X136.150 Y128.829 E1.52437
G1 X136.686 Y128.829 E0.01690
G1 X101.951 Y94.094 E1.54826
G1 X101.951 Y93.558 E0.01690
G1 X137.222 Y128.829 E1.57216
G1 X137.758 Y128.829 E0.01690
G1 X101.951 Y93.022 E1.59605
G1 X101.951 Y92.486 E0.01690
G1 X138.294 Y128.829 E1.61995
G1 X138.830 Y128.829 E0.01690
G1 X101.951 Y91.950 E1.64384
G1 X101.951 Y91.414 E0.01690
G1 X139.366 Y128.829 E1.66773
G1 X139.902 Y128.829 E0.01690
G1 X101.951 Y90.878 E1.69163
G1 X101.951 Y90.342 E0.01690
G1 X140.438 Y128.829 E1.71552
G1 X140.974 Y128.829 E0.01690
G1 X101.951 Y89.806 E1.73942
G1 X101.951 Y89.269 E0.01690
G1 X141.510 Y128.829 E1.76331
G1 X142.046 Y128.829 E0.01690
G1 X101.951 Y88.733 E1.78721
G1 X101.951 Y88.197 E0.01690
G1 X142.582 Y128.829 E1.81110
G1 X143.118 Y128.829 E0.01690
G1 X101.951 Y87.661 E1.83499
G1 X101.951 Y87.125 E0.01690
G1 X143.654 Y128.829 E1.85889
G1 X144.191 Y128.829 E0.01690
G1 X101.951 Y86.589 E1.88278
G1 X101.951 Y86.053 E0.01690
G1 X144.727 Y128.829 E1.90668
G1 X145.263 Y128.829 E0.01690
G1 X101.951 Y85.517 E1.93057
G1 X101.951 Y84.981 E0.01690
G1 X145.799 Y128.829 E1.95446
G1 X146.335 Y128.829 E0.01690
G1 X101.951 Y84.445 E1.97836
G1 X101.951 Y83.909 E0.01690
G1 X146.871 Y128.829 E2.00225
G1 X147.407 Y128.829 E0.01690
G1 X101.951 Y83.373 E2.02615
G1 X101.951 Y82.837 E0.01690
G1 X147.943 Y128.829 E2.05004
G1 X148.211 Y128.829 E0.00845
G1 X148.211 Y128.561 E0.00845
G1 X102.219 Y82.569 E2.05004
G1 X102.755 Y82.569 E0.01690
G1 X148.211 Y128.025 E2.02615
G1 X148.211 Y127.489 E0.01690
G1 X103.291 Y82.569 E2.00225
G1 X103.827 Y82.569 E0.01690
G1 X148.211 Y126.953 E1.97836
G1 X148.211 Y126.417 E0.01690
G1 X104.363 Y82.569 E1.95446
G1 X104.899 Y82.569 E0.01690
G1 X148.211 Y125.881 E1.93057
G1 X148.211 Y125.345 E0.01690
G1 X105.435 Y82.569 E1.90667
G1 X105.971 Y82.569 E0.01690
G1 X148.211 Y124.809 E1.88278
G1 X148.211 Y124.272 E0.01690
G1 X106.507 Y82.569 E1.85889
G1 X107.043 Y82.569 E0.01690
G1 X148.211 Y123.736 E1.83499
G1 X148.211 Y123.200 E0.01690
G1 X107.579 Y82.569 E1.81110
G1 X108.115 Y82.569 E0.01690
G1 X148.211 Y122.664 E1.78720
G1 X148.211 Y122.128 E0.01690
G1 X108.651 Y82.569 E1.76331
G1 X109.188 Y82.569 E0.01690
G1 X148.211 Y121.592 E1.73942
G1 X148.211 Y121.056 E0.01690
G1 X109.724 Y82.569 E1.71552
G1 X110.260 Y82.569 E0.01690
G1 X148.211 Y120.520 E1.69163
G1 X148.211 Y119.984 E0.01690
G1 X110.796 Y82.569 E1.66773
G1 X111.332 Y82.569 E0.01690
G1 X148.211 Y119.448 E1.64384
G1 X148.211 Y118.912 E0.01690
G1 X111.868 Y82.569 E1.61994
G1 X112.404 Y82.569 E0.01690
G1 X148.211 Y118.376 E1.59605
G1 X148.211 Y117.840 E0.01690
G1 X112.940 Y82.569 E1.57216
G1 X113.476 Y82.569 E0.01690
G1 X148.211 Y117.304 E1.54826
G1 X148.211 Y116.768 E0.01690
G1 X114.012 Y82.569 E1.52437
G1 X114.548 Y82.569 E0.01690
G1 X148.211 Y116.232 E1.50047
G1 X148.211 Y115.695 E0.01690
G1 X115.084 Y82.569 E1.47658
G1 X115.620 Y82.569 E0.01690
G1 X148.211 Y115.159 E1.45269
G1 X148.211 Y114.623 E0.01690
G1 X116.156 Y82.569 E1.42879
G1 X116.692 Y82.569 E0.01690
G1 X148.211 Y114.087 E1.40490
G1 X148.211 Y113.551 E0.01690
G1 X117.228 Y82.569 E1.38100
G1 X117.765 Y82.569 E0.01690
G1 X148.211 Y113.015 E1.35711
G1 X148.211 Y112.479 E0.01690
G1 X118.301 Y82.569 E1.33322
G1 X118.837 Y82.569 E0.01690
G1 X148.211 Y111.943 E1.30932
G1 X148.211 Y111.407 E0.01690
G1 X119.373 Y82.569 E1.28543
G1 X119.909 Y82.569 E0.01690
G1 X148.211 Y110.871 E1.26153
G1 X148.211 Y110.335 E0.01690
G1 X120.445 Y82.569 E1.23764
G1 X120.981 Y82.569 E0.01690
G1 X148.211 Y109.799 E1.21374
G1 X148.211 Y109.263 E0.01690
G1 X121.517 Y82.569 E1.18985
G1 X122.053 Y82.569 E0.01690
G1 X148.211 Y108.727 E1.16596
G1 X148.211 Y108.191 E0.01690
G1 X122.589 Y82.569 E1.14206
G1 X123.125 Y82.569 E0.01690
G1 X148.211 Y107.655 E1.11817
G1 X148.211 Y107.119 E0.01690
G1 X123.661 Y82.569 E1.09427
G1 X124.197 Y82.569 E0.01690
G1 X148.211 Y106.582 E1.07038
G1 X148.211 Y106.046 E0.01690
G1 X124.733 Y82.569 E1.04649
G1 X125.269 Y82.569 E0.01690
G1 X148.211 Y105.510 E1.02259
G1 X148.211 Y104.974 E0.01690
G1 X125.805 Y82.569 E0.99870
G1 X126.341 Y82.569 E0.01690
G1 X148.211 Y104.438 E0.97480
G1 X148.211 Y103.902 E0.01690
G1 X126.878 Y82.569 E0.95091
G1 X127.414 Y82.569 E0.01690
G1 X148.211 Y103.366 E0.92701
G1 X148.211 Y102.830 E0.01690
G1 X127.950 Y82.569 E0.90312
G1 X128.486 Y82.569 E0.01690
G1 X148.211 Y102.294 E0.87923
G1 X148.211 Y101.758 E0.01690
G1 X129.022 Y82.569 E0.85533
G1 X129.558 Y82.569 E0.01690
G1 X148.211 Y101.222 E0.83144
G1 X148.211 Y100.686 E0.01690
G1 X130.094 Y82.569 E0.80754
G1 X130.630 Y82.569 E0.01690
G1 X148.211 Y100.150 E0.78365
G1 X148.211 Y99.614 E0.01690
G1 X131.166 Y82.569 E0.75976
G1 X131.702 Y82.569 E0.01690
G1 X148.211 Y99.078 E0.73586
G1 X148.211 Y98.542 E0.01690
G1 X132.238 Y82.569 E0.71197
G1 X132.774 Y82.569 E0.01690
G1 X148.211 Y98.005 E0.68807
G1 X148.211 Y97.469 E0.01690
G1 X133.310 Y82.569 E0.66418
G1 X133.846 Y82.569 E0.01690
G1 X148.211 Y96.933 E0.64028
G1 X148.211 Y96.397 E0.01690
G1 X134.382 Y82.569 E0.61639
G1 X134.918 Y82.569 E0.01690
G1 X148.211 Y95.861 E0.59250
G1 X148.211 Y95.325 E0.01690
G1 X135.455 Y82.569 E0.56860
G1 X135.991 Y82.569 E0.01690
G1 X148.211 Y94.789 E0.54471
G1 X148.211 Y94.253 E0.01690
G1 X136.527 Y82.569 E0.52081
G1 X137.063 Y82.569 E0.01690
G1 X148.211 Y93.717 E0.49692
G1 X148.211 Y93.181 E0.01690
G1 X137.599 Y82.569 E0.47303
G1 X138.135 Y82.569 E0.01690
G1 X148.211 Y92.645 E0.44913
G1 X148.211 Y92.109 E0.01690
G1 X138.671 Y82.569 E0.42524
G1 X139.207 Y82.569 E0.01690
G1 X148.211 Y91.573 E0.40134
G1 X148.211 Y91.037 E0.01690
G1 X139.743 Y82.569 E0.37745
G1 X140.279 Y82.569 E0.01690
G1 X148.211 Y90.501 E0.35355
G1 X148.211 Y89.965 E0.01690
G1 X140.815 Y82.569 E0.32966
G1 X141.351 Y82.569 E0.01690
G1 X148.211 Y89.429 E0.30577
G1 X148.211 Y88.892 E0.01690
G1 X141.887 Y82.569 E0.28187
G1 X142.423 Y82.569 E0.01690
G1 X148.211 Y88.356 E0.25798
G1 X148.211 Y87.820 E0.01690
G1 X142.959 Y82.569 E0.23408
G1 X143.495 Y82.569 E0.01690
G1 X148.211 Y87.284 E0.21019
G1 X148.211 Y86.748 E0.01690
G1 X144.031 Y82.569 E0.18630
G1 X144.568 Y82.569 E0.01690
G1 X148.211 Y86.212 E0.16240
G1 X148.211 Y85.676 E0.01690
G1 X145.104 Y82.569 E0.13851
G1 X145.640 Y82.569 E0.01690
G1 X148.211 Y85.140 E0.11461
G1 X148.211 Y84.604 E0.01690
G1 X146.176 Y82.569 E0.09072
G1 X146.712 Y82.569 E0.01690
G1 X148.211 Y84.068 E0.06682
G1 X148.211 Y83.532 E0.01690
G1 X147.248 Y82.569 E0.04293
G1 X147.784 Y82.569 E0.01690
G1 X148.381 Y83.165 E0.02660
;BEFORE_LAYER_CHANGE
G92 E0.0
;0.4


G1 F8640
G1 X147.784 Y82.569 E-0.19487
G1 X147.248 Y82.569 E-0.12378
G1 X148.211 Y83.532 E-0.31451
G1 X148.211 Y84.068 E-0.12378
G1 X148.202 Y84.059 E-0.00306
G1 E-0.04000 F2100.00000
G1 Z0.800 F10800.000
;AFTER_LAYER_CHANGE
;0.4
M140 S110 ; set bed temperature
G1 X151.082 Y80.813
G1 Z0.400
G1 E0.80000 F2100.00000
G1 F3000
G1 X151.268 Y81.631 E0.02631
G1 X151.269 Y129.724 E1.50794
G1 X151.107 Y130.526 E0.02563
G1 X150.662 Y131.212 E0.02563
G1 X149.943 Y131.710 E0.02743
G1 X149.083 Y131.887 E0.02754
G1 X101.055 Y131.887 E1.50588
G1 X100.254 Y131.725 E0.02563
G1 X99.568 Y131.280 E0.02563
G1 X99.069 Y130.561 E0.02743
G1 X98.892 Y129.701 E0.02754
G1 X98.892 Y81.673 E1.50588
G1 X99.055 Y80.872 E0.02563
G1 X99.499 Y80.186 E0.02563
G1 X100.205 Y79.693 E0.02698
G1 X101.049 Y79.511 E0.02709
G1 X149.085 Y79.510 E1.50611
G1 X149.904 Y79.671 E0.02620
G1 X150.604 Y80.127 E0.02620
G1 X151.048 Y80.764 E0.02431
; PURGING FINISHED
G1 F8640
G1 X151.268 Y81.631 E-0.20664
G1 X151.268 Y84.027 E-0.55336
G1 E-0.04000 F2100.00000
G1 Z1.000 F10800.000
G1 X148.449 Y82.331
G1 Z0.400
G1 E0.80000 F2100.00000
M204 S800
G1 F2700
G1 X148.449 Y129.067 E1.58195
G1 X101.713 Y129.067 E1.58195
G1 X101.713 Y82.331 E1.58195
G1 X148.389 Y82.331 E1.57992
M204 S1000
G1 X148.856 Y81.924 F10800.000
M204 S800
G1 F2100
G1 X148.856 Y129.474 E1.60951
G1 X101.306 Y129.474 E1.60951
G1 X101.306 Y81.924 E1.60951
G1 X148.796 Y81.924 E1.60748
M204 S1000
G1 X148.752 Y82.310 F10800.000
G1 F8640
G1 X148.800 Y85.215 E-0.76000
G1 E-0.04000 F2100.00000
G1 Z1.000 F10800.000
G1 X102.662 Y82.453
G1 Z0.400
G1 E0.80000 F2100.00000
M204 S1500
G1 F8073.67
G1 X102.018 Y83.096 E0.03092
G1 X102.018 Y83.674 E0.01965
G1 X103.056 Y82.636 E0.04990
G1 X103.634 Y82.636 E0.01965
G1 X102.018 Y84.252 E0.07768
G1 X102.018 Y84.830 E0.01965
G1 X104.212 Y82.636 E0.10546
G1 X104.791 Y82.636 E0.01965
G1 X102.018 Y85.409 E0.13325
G1 X102.018 Y85.987 E0.01965
G1 X105.369 Y82.636 E0.16103
G1 X105.947 Y82.636 E0.01965
G1 X102.018 Y86.565 E0.18881
G1 X102.018 Y87.143 E0.01965
G1 X106.525 Y82.636 E0.21660
G1 X107.103 Y82.636 E0.01965
G1 X102.018 Y87.721 E0.24438
G1 X102.018 Y88.299 E0.01965
G1 X107.681 Y82.636 E0.27216
G1 X108.259 Y82.636 E0.01965
G1 X102.018 Y88.877 E0.29995
G1 X102.018 Y89.455 E0.01965
G1 X108.837 Y82.636 E0.32773
G1 X109.415 Y82.636 E0.01965
G1 X102.018 Y90.033 E0.35551
G1 X102.018 Y90.611 E0.01965
G1 X109.993 Y82.636 E0.38330
G1 X110.571 Y82.636 E0.01965
G1 X102.018 Y91.189 E0.41108
G1 X102.018 Y91.767 E0.01965
G1 X111.149 Y82.636 E0.43886
G1 X111.727 Y82.636 E0.01965
G1 X102.018 Y92.345 E0.46664
G1 X102.018 Y92.923 E0.01965
G1 X112.305 Y82.636 E0.49443
G1 X112.883 Y82.636 E0.01965
G1 X102.018 Y93.501 E0.52221
G1 X102.018 Y94.079 E0.01965
G1 X113.461 Y82.636 E0.54999
G1 X114.039 Y82.636 E0.01965
G1 X102.018 Y94.657 E0.57778
