; generated by Slic3r Prusa Edition 1.41.0+win64 on 2018-10-26 at 10:36:41

; 

; external perimeters extrusion width = 0.45mm
; perimeters extrusion width = 0.45mm
; infill extrusion width = 0.45mm
; solid infill extrusion width = 0.45mm
; top infill extrusion width = 0.40mm
; support material extrusion width = 0.35mm
; first layer extrusion width = 0.42mm

M201 X9000 Y9000 Z500 E10000 ; sets maximum accelerations, mm/sec^2
M203 X500 Y500 Z12 E120 ; sets maximum feedrates, mm/sec
M204 P1500 R1500 T1500 ; sets acceleration (P, T) and retract acceleration (R), mm/sec^2
M205 X10.00 Y10.00 Z0.20 E2.50 ; sets the jerk limits, mm/sec
M205 S0 T0 ; sets the minimum extruding and travel feed rate, mm/sec
M107
M115 U3.3.1 ; tell printer latest fw version
M201 X1000 Y1000 Z1000 E9000 ; sets maximum accelerations, mm/sec^2
M203 X200 Y200 Z12 E120 ; sets maximum feedrates, mm/sec
M204 S1250 T1250 ; sets acceleration (S) and retract acceleration (T)
M205 X8 Y8 Z0.4 E1.5 ; sets the jerk limits, mm/sec
M205 S0 T0 ; sets the minimum extruding and travel feed rate, mm/sec
M83  ; extruder relative mode
M104 S255 ; set extruder temp
M140 S100 ; set bed temp
M190 S100 ; wait for bed temp
M109 S255 ; wait for extruder temp
G28 W ; home all without mesh bed level
G80 ; mesh bed leveling
G1 Y-3.0 F1000.0 ; go outside print area
G92 E0.0
G1 X60.0 E9.0  F1000.0 ; intro line
G1 X100.0 E12.5  F1000.0 ; intro line
G92 E0.0
M221 S95
M900 K30; Filament gcode
G4 P120000; wait two minutes to start
G21 ; set units to millimeters
G90 ; use absolute coordinates
M83 ; use relative distances for extrusion
;BEFORE_LAYER_CHANGE
G92 E0.0
;0.2


G1 E-0.80000 F2100.00000
G1 Z0.600 F10800.000
;AFTER_LAYER_CHANGE
;0.2
G1 X100.124 Y78.994
G1 Z0.200
G1 E0.80000 F2100.00000
M204 S1000
G1 F1800
G1 X100.969 Y78.812 E0.02709
G1 X149.004 Y78.811 E1.50611
G1 X149.823 Y78.972 E0.02620
G1 X150.523 Y79.429 E0.02620
G1 X151.001 Y80.114 E0.02620
G1 X151.187 Y80.932 E0.02631
G1 X151.188 Y129.026 E1.50794
G1 X151.026 Y129.827 E0.02563
G1 X150.582 Y130.513 E0.02563
G1 X149.863 Y131.011 E0.02743
G1 X149.002 Y131.189 E0.02754
G1 X100.974 Y131.188 E1.50588
G1 X100.173 Y131.026 E0.02563
G1 X99.487 Y130.582 E0.02563
G1 X98.989 Y129.863 E0.02743
G1 X98.811 Y129.002 E0.02754
G1 X98.812 Y80.974 E1.50588
G1 X98.974 Y80.173 E0.02563
G1 X99.418 Y79.487 E0.02563
G1 X100.075 Y79.029 E0.02510
; PURGING FINISHED
G1 F8640
G1 X100.969 Y78.812 E-0.21238
G1 X103.340 Y78.812 E-0.54762
G1 E-0.04000 F2100.00000
G1 Z0.800 F10800.000
G1 X101.587 Y81.587
G1 Z0.200
G1 E0.80000 F2100.00000
G1 F1800
G1 X148.413 Y81.587 E1.46819
G1 X148.413 Y128.413 E1.46819
G1 X101.587 Y128.413 E1.46819
G1 X101.587 Y81.647 E1.46631
G1 X101.210 Y81.210 F10800.000
G1 F1800
G1 X148.790 Y81.210 E1.49184
G1 X148.790 Y128.790 E1.49184
G1 X101.210 Y128.790 E1.49184
G1 X101.210 Y81.270 E1.48996
G1 X101.596 Y81.314 F10800.000
G1 F8640
G1 X104.501 Y81.266 E-0.76000
G1 E-0.04000 F2100.00000
G1 Z0.800 F10800.000
G1 X102.467 Y128.300
G1 Z0.200
G1 E0.80000 F2100.00000
G1 F1800
G1 X101.870 Y127.703 E0.02660
G1 X101.870 Y127.167 E0.01690
G1 X102.833 Y128.130 E0.04293
G1 X103.369 Y128.130 E0.01690
G1 X101.870 Y126.631 E0.06683
G1 X101.870 Y126.095 E0.01690
G1 X103.905 Y128.130 E0.09072
G1 X104.441 Y128.130 E0.01690
G1 X101.870 Y125.559 E0.11461
G1 X101.870 Y125.023 E0.01690
G1 X104.977 Y128.130 E0.13851
G1 X105.513 Y128.130 E0.01690
G1 X101.870 Y124.487 E0.16240
G1 X101.870 Y123.951 E0.01690
G1 X106.049 Y128.130 E0.18630
G1 X106.585 Y128.130 E0.01690
G1 X101.870 Y123.415 E0.21019
G1 X101.870 Y122.878 E0.01690
G1 X107.122 Y128.130 E0.23409
G1 X107.658 Y128.130 E0.01690
G1 X101.870 Y122.342 E0.25798
G1 X101.870 Y121.806 E0.01690
G1 X108.194 Y128.130 E0.28187
G1 X108.730 Y128.130 E0.01690
G1 X101.870 Y121.270 E0.30577
G1 X101.870 Y120.734 E0.01690
G1 X109.266 Y128.130 E0.32966
G1 X109.802 Y128.130 E0.01690
G1 X101.870 Y120.198 E0.35356
G1 X101.870 Y119.662 E0.01690
G1 X110.338 Y128.130 E0.37745
G1 X110.874 Y128.130 E0.01690
G1 X101.870 Y119.126 E0.40134
G1 X101.870 Y118.590 E0.01690
G1 X111.410 Y128.130 E0.42524
G1 X111.946 Y128.130 E0.01690
G1 X101.870 Y118.054 E0.44913
G1 X101.870 Y117.518 E0.01690
G1 X112.482 Y128.130 E0.47303
G1 X113.018 Y128.130 E0.01690
G1 X101.870 Y116.982 E0.49692
G1 X101.870 Y116.446 E0.01690
G1 X113.554 Y128.130 E0.52082
G1 X114.090 Y128.130 E0.01690
G1 X101.870 Y115.910 E0.54471
G1 X101.870 Y115.374 E0.01690
G1 X114.626 Y128.130 E0.56860
G1 X115.162 Y128.130 E0.01690
G1 X101.870 Y114.838 E0.59250
G1 X101.870 Y114.302 E0.01690
G1 X115.698 Y128.130 E0.61639
G1 X116.235 Y128.130 E0.01690
G1 X101.870 Y113.765 E0.64029
G1 X101.870 Y113.229 E0.01690
G1 X116.771 Y128.130 E0.66418
G1 X117.307 Y128.130 E0.01690
G1 X101.870 Y112.693 E0.68807
G1 X101.870 Y112.157 E0.01690
G1 X117.843 Y128.130 E0.71197
G1 X118.379 Y128.130 E0.01690
G1 X101.870 Y111.621 E0.73586
G1 X101.870 Y111.085 E0.01690
G1 X118.915 Y128.130 E0.75976
G1 X119.451 Y128.130 E0.01690
G1 X101.870 Y110.549 E0.78365
G1 X101.870 Y110.013 E0.01690
G1 X119.987 Y128.130 E0.80754
G1 X120.523 Y128.130 E0.01690
G1 X101.870 Y109.477 E0.83144
G1 X101.870 Y108.941 E0.01690
G1 X121.059 Y128.130 E0.85533
G1 X121.595 Y128.130 E0.01690
G1 X101.870 Y108.405 E0.87923
G1 X101.870 Y107.869 E0.01690
G1 X122.131 Y128.130 E0.90312
G1 X122.667 Y128.130 E0.01690
G1 X101.870 Y107.333 E0.92702
G1 X101.870 Y106.797 E0.01690
G1 X123.203 Y128.130 E0.95091
G1 X123.739 Y128.130 E0.01690
G1 X101.870 Y106.261 E0.97480
G1 X101.870 Y105.725 E0.01690
G1 X124.275 Y128.130 E0.99870
G1 X124.812 Y128.130 E0.01690
G1 X101.870 Y105.188 E1.02259
G1 X101.870 Y104.652 E0.01690
G1 X125.348 Y128.130 E1.04649
G1 X125.884 Y128.130 E0.01690
G1 X101.870 Y104.116 E1.07038
G1 X101.870 Y103.580 E0.01690
G1 X126.420 Y128.130 E1.09427
G1 X126.956 Y128.130 E0.01690
G1 X101.870 Y103.044 E1.11817
G1 X101.870 Y102.508 E0.01690
G1 X127.492 Y128.130 E1.14206
G1 X128.028 Y128.130 E0.01690
G1 X101.870 Y101.972 E1.16596
G1 X101.870 Y101.436 E0.01690
G1 X128.564 Y128.130 E1.18985
G1 X129.100 Y128.130 E0.01690
G1 X101.870 Y100.900 E1.21375
G1 X101.870 Y100.364 E0.01690
G1 X129.636 Y128.130 E1.23764
G1 X130.172 Y128.130 E0.01690
G1 X101.870 Y99.828 E1.26153
G1 X101.870 Y99.292 E0.01690
G1 X130.708 Y128.130 E1.28543
G1 X131.244 Y128.130 E0.01690
G1 X101.870 Y98.756 E1.30932
G1 X101.870 Y98.220 E0.01690
G1 X131.780 Y128.130 E1.33322
G1 X132.316 Y128.130 E0.01690
G1 X101.870 Y97.684 E1.35711
G1 X101.870 Y97.148 E0.01690
G1 X132.852 Y128.130 E1.38100
G1 X133.388 Y128.130 E0.01690
G1 X101.870 Y96.612 E1.40490
G1 X101.870 Y96.075 E0.01690
G1 X133.925 Y128.130 E1.42879
G1 X134.461 Y128.130 E0.01690
G1 X101.870 Y95.539 E1.45269
G1 X101.870 Y95.003 E0.01690
G1 X134.997 Y128.130 E1.47658
G1 X135.533 Y128.130 E0.01690
G1 X101.870 Y94.467 E1.50048
G1 X101.870 Y93.931 E0.01690
G1 X136.069 Y128.130 E1.52437
G1 X136.605 Y128.130 E0.01690
G1 X101.870 Y93.395 E1.54826
G1 X101.870 Y92.859 E0.01690
G1 X137.141 Y128.130 E1.57216
G1 X137.677 Y128.130 E0.01690
G1 X101.870 Y92.323 E1.59605
G1 X101.870 Y91.787 E0.01690
G1 X138.213 Y128.130 E1.61995
G1 X138.749 Y128.130 E0.01690
G1 X101.870 Y91.251 E1.64384
G1 X101.870 Y90.715 E0.01690
G1 X139.285 Y128.130 E1.66773
G1 X139.821 Y128.130 E0.01690
G1 X101.870 Y90.179 E1.69163
G1 X101.870 Y89.643 E0.01690
G1 X140.357 Y128.130 E1.71552
G1 X140.893 Y128.130 E0.01690
G1 X101.870 Y89.107 E1.73942
G1 X101.870 Y88.571 E0.01690
G1 X141.429 Y128.130 E1.76331
G1 X141.965 Y128.130 E0.01690
G1 X101.870 Y88.035 E1.78721
G1 X101.870 Y87.498 E0.01690
G1 X142.502 Y128.130 E1.81110
G1 X143.038 Y128.130 E0.01690
G1 X101.870 Y86.962 E1.83499
G1 X101.870 Y86.426 E0.01690
G1 X143.574 Y128.130 E1.85889
G1 X144.110 Y128.130 E0.01690
G1 X101.870 Y85.890 E1.88278
G1 X101.870 Y85.354 E0.01690
G1 X144.646 Y128.130 E1.90668
G1 X145.182 Y128.130 E0.01690
G1 X101.870 Y84.818 E1.93057
G1 X101.870 Y84.282 E0.01690
G1 X145.718 Y128.130 E1.95446
G1 X146.254 Y128.130 E0.01690
G1 X101.870 Y83.746 E1.97836
G1 X101.870 Y83.210 E0.01690
G1 X146.790 Y128.130 E2.00225
G1 X147.326 Y128.130 E0.01690
G1 X101.870 Y82.674 E2.02615
G1 X101.870 Y82.138 E0.01690
G1 X147.862 Y128.130 E2.05004
G1 X148.130 Y128.130 E0.00845
G1 X148.130 Y127.862 E0.00845
G1 X102.138 Y81.870 E2.05004
G1 X102.674 Y81.870 E0.01690
G1 X148.130 Y127.326 E2.02615
G1 X148.130 Y126.790 E0.01690
G1 X103.210 Y81.870 E2.00225
G1 X103.746 Y81.870 E0.01690
G1 X148.130 Y126.254 E1.97836
G1 X148.130 Y125.718 E0.01690
G1 X104.282 Y81.870 E1.95446
G1 X104.818 Y81.870 E0.01690
G1 X148.130 Y125.182 E1.93057
G1 X148.130 Y124.646 E0.01690
G1 X105.354 Y81.870 E1.90667
G1 X105.890 Y81.870 E0.01690
G1 X148.130 Y124.110 E1.88278
G1 X148.130 Y123.574 E0.01690
G1 X106.426 Y81.870 E1.85889
G1 X106.962 Y81.870 E0.01690
G1 X148.130 Y123.038 E1.83499
G1 X148.130 Y122.501 E0.01690
G1 X107.499 Y81.870 E1.81110
G1 X108.035 Y81.870 E0.01690
G1 X148.130 Y121.965 E1.78720
G1 X148.130 Y121.429 E0.01690
G1 X108.571 Y81.870 E1.76331
G1 X109.107 Y81.870 E0.01690
G1 X148.130 Y120.893 E1.73942
G1 X148.130 Y120.357 E0.01690
G1 X109.643 Y81.870 E1.71552
G1 X110.179 Y81.870 E0.01690
G1 X148.130 Y119.821 E1.69163
G1 X148.130 Y119.285 E0.01690
G1 X110.715 Y81.870 E1.66773
G1 X111.251 Y81.870 E0.01690
G1 X148.130 Y118.749 E1.64384
G1 X148.130 Y118.213 E0.01690
G1 X111.787 Y81.870 E1.61994
G1 X112.323 Y81.870 E0.01690
G1 X148.130 Y117.677 E1.59605
G1 X148.130 Y117.141 E0.01690
G1 X112.859 Y81.870 E1.57216
G1 X113.395 Y81.870 E0.01690
G1 X148.130 Y116.605 E1.54826
G1 X148.130 Y116.069 E0.01690
G1 X113.931 Y81.870 E1.52437
G1 X114.467 Y81.870 E0.01690
G1 X148.130 Y115.533 E1.50047
G1 X148.130 Y114.997 E0.01690
G1 X115.003 Y81.870 E1.47658
G1 X115.539 Y81.870 E0.01690
G1 X148.130 Y114.461 E1.45269
G1 X148.130 Y113.925 E0.01690
G1 X116.075 Y81.870 E1.42879
G1 X116.612 Y81.870 E0.01690
G1 X148.130 Y113.388 E1.40490
G1 X148.130 Y112.852 E0.01690
G1 X117.148 Y81.870 E1.38100
G1 X117.684 Y81.870 E0.01690
G1 X148.130 Y112.316 E1.35711
G1 X148.130 Y111.780 E0.01690
G1 X118.220 Y81.870 E1.33322
G1 X118.756 Y81.870 E0.01690
G1 X148.130 Y111.244 E1.30932
G1 X148.130 Y110.708 E0.01690
G1 X119.292 Y81.870 E1.28543
G1 X119.828 Y81.870 E0.01690
G1 X148.130 Y110.172 E1.26153
G1 X148.130 Y109.636 E0.01690
G1 X120.364 Y81.870 E1.23764
G1 X120.900 Y81.870 E0.01690
G1 X148.130 Y109.100 E1.21374
G1 X148.130 Y108.564 E0.01690
G1 X121.436 Y81.870 E1.18985
G1 X121.972 Y81.870 E0.01690
G1 X148.130 Y108.028 E1.16596
G1 X148.130 Y107.492 E0.01690
G1 X122.508 Y81.870 E1.14206
G1 X123.044 Y81.870 E0.01690
G1 X148.130 Y106.956 E1.11817
G1 X148.130 Y106.420 E0.01690
G1 X123.580 Y81.870 E1.09427
G1 X124.116 Y81.870 E0.01690
G1 X148.130 Y105.884 E1.07038
G1 X148.130 Y105.348 E0.01690
G1 X124.652 Y81.870 E1.04649
G1 X125.189 Y81.870 E0.01690
G1 X148.130 Y104.811 E1.02259
G1 X148.130 Y104.275 E0.01690
G1 X125.725 Y81.870 E0.99870
G1 X126.261 Y81.870 E0.01690
G1 X148.130 Y103.739 E0.97480
G1 X148.130 Y103.203 E0.01690
G1 X126.797 Y81.870 E0.95091
G1 X127.333 Y81.870 E0.01690
G1 X148.130 Y102.667 E0.92701
G1 X148.130 Y102.131 E0.01690
G1 X127.869 Y81.870 E0.90312
G1 X128.405 Y81.870 E0.01690
G1 X148.130 Y101.595 E0.87923
G1 X148.130 Y101.059 E0.01690
G1 X128.941 Y81.870 E0.85533
G1 X129.477 Y81.870 E0.01690
G1 X148.130 Y100.523 E0.83144
G1 X148.130 Y99.987 E0.01690
G1 X130.013 Y81.870 E0.80754
G1 X130.549 Y81.870 E0.01690
G1 X148.130 Y99.451 E0.78365
G1 X148.130 Y98.915 E0.01690
G1 X131.085 Y81.870 E0.75976
G1 X131.621 Y81.870 E0.01690
G1 X148.130 Y98.379 E0.73586
G1 X148.130 Y97.843 E0.01690
G1 X132.157 Y81.870 E0.71197
G1 X132.693 Y81.870 E0.01690
G1 X148.130 Y97.307 E0.68807
G1 X148.130 Y96.771 E0.01690
G1 X133.229 Y81.870 E0.66418
G1 X133.765 Y81.870 E0.01690
G1 X148.130 Y96.235 E0.64028
G1 X148.130 Y95.698 E0.01690
G1 X134.302 Y81.870 E0.61639
G1 X134.838 Y81.870 E0.01690
G1 X148.130 Y95.162 E0.59250
G1 X148.130 Y94.626 E0.01690
G1 X135.374 Y81.870 E0.56860
G1 X135.910 Y81.870 E0.01690
G1 X148.130 Y94.090 E0.54471
G1 X148.130 Y93.554 E0.01690
G1 X136.446 Y81.870 E0.52081
G1 X136.982 Y81.870 E0.01690
G1 X148.130 Y93.018 E0.49692
G1 X148.130 Y92.482 E0.01690
G1 X137.518 Y81.870 E0.47303
G1 X138.054 Y81.870 E0.01690
G1 X148.130 Y91.946 E0.44913
G1 X148.130 Y91.410 E0.01690
G1 X138.590 Y81.870 E0.42524
G1 X139.126 Y81.870 E0.01690
G1 X148.130 Y90.874 E0.40134
G1 X148.130 Y90.338 E0.01690
G1 X139.662 Y81.870 E0.37745
G1 X140.198 Y81.870 E0.01690
G1 X148.130 Y89.802 E0.35355
G1 X148.130 Y89.266 E0.01690
G1 X140.734 Y81.870 E0.32966
G1 X141.270 Y81.870 E0.01690
G1 X148.130 Y88.730 E0.30577
G1 X148.130 Y88.194 E0.01690
G1 X141.806 Y81.870 E0.28187
G1 X142.342 Y81.870 E0.01690
G1 X148.130 Y87.658 E0.25798
G1 X148.130 Y87.121 E0.01690
G1 X142.879 Y81.870 E0.23408
G1 X143.415 Y81.870 E0.01690
G1 X148.130 Y86.585 E0.21019
G1 X148.130 Y86.049 E0.01690
G1 X143.951 Y81.870 E0.18630
G1 X144.487 Y81.870 E0.01690
G1 X148.130 Y85.513 E0.16240
G1 X148.130 Y84.977 E0.01690
G1 X145.023 Y81.870 E0.13851
G1 X145.559 Y81.870 E0.01690
G1 X148.130 Y84.441 E0.11461
G1 X148.130 Y83.905 E0.01690
G1 X146.095 Y81.870 E0.09072
G1 X146.631 Y81.870 E0.01690
G1 X148.130 Y83.369 E0.06682
G1 X148.130 Y82.833 E0.01690
G1 X147.167 Y81.870 E0.04293
G1 X147.703 Y81.870 E0.01690
G1 X148.300 Y82.467 E0.02660
;BEFORE_LAYER_CHANGE
G92 E0.0
;0.4


G1 F8640
G1 X147.703 Y81.870 E-0.19487
G1 X147.167 Y81.870 E-0.12378
G1 X148.130 Y82.833 E-0.31451
G1 X148.130 Y83.369 E-0.12378
G1 X148.121 Y83.360 E-0.00306
G1 E-0.04000 F2100.00000
G1 Z0.800 F10800.000
;AFTER_LAYER_CHANGE
;0.4
M140 S110 ; set bed temperature
G1 X151.001 Y80.114
G1 Z0.400
G1 E0.80000 F2100.00000
G1 F3000
G1 X151.187 Y80.932 E0.02631
G1 X151.188 Y129.026 E1.50794
G1 X151.026 Y129.827 E0.02563
G1 X150.582 Y130.513 E0.02563
G1 X149.863 Y131.011 E0.02743
G1 X149.002 Y131.189 E0.02754
G1 X100.974 Y131.188 E1.50588
G1 X100.173 Y131.026 E0.02563
G1 X99.487 Y130.582 E0.02563
G1 X98.989 Y129.863 E0.02743
G1 X98.811 Y129.002 E0.02754
G1 X98.812 Y80.974 E1.50588
G1 X98.974 Y80.173 E0.02563
G1 X99.418 Y79.487 E0.02563
G1 X100.124 Y78.994 E0.02698
G1 X100.969 Y78.812 E0.02709
G1 X149.004 Y78.811 E1.50611
G1 X149.823 Y78.972 E0.02620
G1 X150.523 Y79.429 E0.02620
G1 X150.967 Y80.065 E0.02431
; PURGING FINISHED
G1 F8640
G1 X151.187 Y80.932 E-0.20664
G1 X151.188 Y83.329 E-0.55336
G1 E-0.04000 F2100.00000
G1 Z1.000 F10800.000
G1 X148.368 Y81.632
G1 Z0.400
G1 E0.80000 F2100.00000
M204 S800
G1 F2700
G1 X148.368 Y128.368 E1.58195
G1 X101.632 Y128.368 E1.58195
G1 X101.632 Y81.632 E1.58195
G1 X148.308 Y81.632 E1.57992
M204 S1000
G1 X148.775 Y81.225 F10800.000
M204 S800
G1 F2100
G1 X148.775 Y128.775 E1.60951
G1 X101.225 Y128.775 E1.60951
G1 X101.225 Y81.225 E1.60951
G1 X148.715 Y81.225 E1.60748
M204 S1000
G1 X148.671 Y81.611 F10800.000
G1 F8640
G1 X148.719 Y84.516 E-0.76000
G1 E-0.04000 F2100.00000
G1 Z1.000 F10800.000
G1 X102.581 Y81.754
G1 Z0.400
G1 E0.80000 F2100.00000
M204 S1500
G1 F8073.67
G1 X101.937 Y82.398 E0.03092
G1 X101.937 Y82.976 E0.01965
G1 X102.976 Y81.937 E0.04990
G1 X103.554 Y81.937 E0.01965
G1 X101.937 Y83.554 E0.07768
G1 X101.937 Y84.132 E0.01965
G1 X104.132 Y81.937 E0.10546
G1 X104.710 Y81.937 E0.01965
G1 X101.937 Y84.710 E0.13325
G1 X101.937 Y85.288 E0.01965
G1 X105.288 Y81.937 E0.16103
G1 X105.866 Y81.937 E0.01965
G1 X101.937 Y85.866 E0.18881
G1 X101.937 Y86.444 E0.01965
G1 X106.444 Y81.937 E0.21660
G1 X107.022 Y81.937 E0.01965
G1 X101.937 Y87.022 E0.24438
G1 X101.937 Y87.600 E0.01965
G1 X107.600 Y81.937 E0.27216
G1 X108.178 Y81.937 E0.01965
G1 X101.937 Y88.178 E0.29995
G1 X101.937 Y88.756 E0.01965
G1 X108.756 Y81.937 E0.32773
G1 X109.334 Y81.937 E0.01965
G1 X101.937 Y89.334 E0.35551
G1 X101.937 Y89.912 E0.01965
G1 X109.912 Y81.937 E0.38330
G1 X110.490 Y81.937 E0.01965
G1 X101.937 Y90.490 E0.41108
G1 X101.937 Y91.068 E0.01965
G1 X111.068 Y81.937 E0.43886
G1 X111.646 Y81.937 E0.01965
G1 X101.937 Y91.646 E0.46664
G1 X101.937 Y92.224 E0.01965
G1 X112.224 Y81.937 E0.49443
G1 X112.802 Y81.937 E0.01965
G1 X101.937 Y92.802 E0.52221
G1 X101.937 Y93.380 E0.01965
G1 X113.380 Y81.937 E0.54999
G1 X113.958 Y81.937 E0.01965
