; generated by Slic3r Prusa Edition 1.41.0+win64 on 2018-10-05 at 12:20:29

; 

; external perimeters extrusion width = 0.45mm
; perimeters extrusion width = 0.45mm
; infill extrusion width = 0.45mm
; solid infill extrusion width = 0.45mm
; top infill extrusion width = 0.40mm
; support material extrusion width = 0.35mm
; first layer extrusion width = 0.42mm

M201 X9000 Y9000 Z500 E10000 ; sets maximum accelerations, mm/sec^2
M203 X500 Y500 Z12 E120 ; sets maximum feedrates, mm/sec
M204 P1500 R1500 T1500 ; sets acceleration (P, T) and retract acceleration (R), mm/sec^2
M205 X10.00 Y10.00 Z0.20 E2.50 ; sets the jerk limits, mm/sec
M205 S0 T0 ; sets the minimum extruding and travel feed rate, mm/sec
M107
M115 U3.3.1 ; tell printer latest fw version
M201 X1000 Y1000 Z1000 E9000 ; sets maximum accelerations, mm/sec^2
M203 X200 Y200 Z12 E120 ; sets maximum feedrates, mm/sec
M204 S1250 T1250 ; sets acceleration (S) and retract acceleration (T)
M205 X8 Y8 Z0.4 E1.5 ; sets the jerk limits, mm/sec
M205 S0 T0 ; sets the minimum extruding and travel feed rate, mm/sec
M83  ; extruder relative mode
M104 S255 ; set extruder temp
M140 S100 ; set bed temp
M190 S100 ; wait for bed temp
M109 S255 ; wait for extruder temp
G28 W ; home all without mesh bed level
G80 ; mesh bed leveling
G1 Y-3.0 F1000.0 ; go outside print area
G92 E0.0
G1 X60.0 E9.0  F1000.0 ; intro line
G1 X100.0 E12.5  F1000.0 ; intro line
G92 E0.0
M221 S95
M900 K30; Filament gcode
G4 P120000; wait two minutes to start
G21 ; set units to millimeters
G90 ; use absolute coordinates
M83 ; use relative distances for extrusion
;BEFORE_LAYER_CHANGE
G92 E0.0
;0.2


G1 E-0.80000 F2100.00000
G1 Z0.600 F10800.000
;AFTER_LAYER_CHANGE
;0.2
G1 X155.794 Y73.629
G1 Z0.200
G1 E0.80000 F2100.00000
M204 S1000
G1 F1800
G1 X156.132 Y73.292 E0.01498
G1 X156.539 Y73.034 E0.01510
G1 X156.988 Y72.872 E0.01498
G1 X157.466 Y72.812 E0.01510
G1 X207.504 Y72.811 E1.56890
G1 X208.028 Y72.876 E0.01658
G1 X208.522 Y73.065 E0.01658
G1 X208.956 Y73.366 E0.01658
G1 X209.308 Y73.766 E0.01669
G1 X212.981 Y80.243 E0.23347
G1 X213.162 Y80.709 E0.01567
G1 X213.233 Y81.203 E0.01567
G1 X213.228 Y129.047 E1.50012
G1 X213.144 Y129.510 E0.01475
G1 X212.963 Y129.945 E0.01475
G1 X209.205 Y136.372 E0.23346
G1 X208.864 Y136.712 E0.01510
G1 X208.453 Y136.970 E0.01521
G1 X207.995 Y137.132 E0.01521
G1 X207.514 Y137.188 E0.01521
G1 X157.482 Y137.188 E1.56872
G1 X156.765 Y137.062 E0.02281
G1 X156.130 Y136.707 E0.02281
G1 X155.637 Y136.148 E0.02338
G1 X153.321 Y132.153 E0.14479
G1 X153.120 Y131.648 E0.01703
G1 X153.049 Y131.109 E0.01703
G1 X153.051 Y79.041 E1.63256
G1 X153.286 Y78.154 E0.02878
G1 X155.765 Y73.682 E0.16032
; PURGING FINISHED
G1 F8640
G1 X156.132 Y73.292 E-0.12371
G1 X156.539 Y73.034 E-0.11117
G1 X156.988 Y72.872 E-0.11033
G1 X157.466 Y72.812 E-0.11117
G1 X158.781 Y72.812 E-0.30362
G1 E-0.04000 F2100.00000
G1 Z0.800 F10800.000
G1 X203.504 Y85.289
G1 Z0.200
G1 E0.80000 F2100.00000
G1 F1800
G1 X203.504 Y124.541 E1.23074
G1 X204.258 Y124.541 E0.02365
G1 X204.258 Y85.459 E1.22542
G1 X205.012 Y85.459 E0.02365
G1 X205.012 Y124.541 E1.22542
G1 X205.766 Y124.541 E0.02365
G1 X205.766 Y85.459 E1.22542
G1 X206.520 Y85.459 E0.02365
G1 X206.520 Y124.541 E1.22542
G1 X207.274 Y124.541 E0.02365
G1 X207.274 Y85.459 E1.22542
G1 X207.690 Y85.459 E0.01303
G1 X207.959 Y85.190 E0.01191
G1 X207.959 Y81.263 E0.12311
G1 X208.029 Y81.263 E0.00220
G1 X208.029 Y128.721 E1.48799
G1 X208.783 Y128.721 E0.02365
G1 X208.783 Y81.263 E1.48799
G1 X209.537 Y81.263 E0.02365
G1 X209.537 Y128.721 E1.48799
G1 X210.291 Y128.721 E0.02365
G1 X210.291 Y81.263 E1.48799
G1 X211.045 Y81.263 E0.02365
G1 X211.045 Y128.890 E1.49331
G1 F8640
G1 X211.045 Y125.599 E-0.76000
G1 E-0.04000 F2100.00000
G1 Z0.800 F10800.000
G1 X162.025 Y124.711
G1 Z0.200
G1 E0.80000 F2100.00000
G1 F1800
G1 X162.025 Y85.459 E1.23074
G1 X161.271 Y85.459 E0.02365
G1 X161.271 Y124.541 E1.22542
G1 X160.517 Y124.541 E0.02365
G1 X160.517 Y85.459 E1.22542
G1 X159.762 Y85.459 E0.02365
G1 X159.762 Y124.541 E1.22542
G1 X159.008 Y124.541 E0.02365
G1 X159.008 Y85.459 E1.22542
G1 X158.254 Y85.459 E0.02365
G1 X158.254 Y124.541 E1.22542
G1 X157.500 Y124.541 E0.02365
G1 X157.500 Y85.459 E1.22542
G1 X157.310 Y85.459 E0.00596
G1 X157.041 Y85.190 E0.01191
G1 X157.041 Y80.947 E0.13302
G1 X156.746 Y80.652 E0.01311
G1 X156.746 Y129.348 E1.52684
G1 X155.992 Y130.102 E0.03344
G1 X155.992 Y79.898 E1.57413
G1 X155.238 Y79.143 E0.03344
G1 X155.238 Y131.096 E1.62895
G1 F8640
G1 X155.238 Y127.805 E-0.76000
G1 E-0.04000 F2100.00000
G1 Z0.800 F10800.000
G1 X158.087 Y134.413
G1 Z0.200
G1 E0.80000 F2100.00000
G1 F1800
G1 X158.087 Y125.587 E0.27673
G1 X206.913 Y125.587 E1.53090
G1 X206.913 Y134.413 E0.27673
G1 X158.147 Y134.413 E1.52902
G1 X157.710 Y134.790 F10800.000
G1 F1800
G1 X157.710 Y125.210 E0.30037
G1 X207.290 Y125.210 E1.55455
G1 X207.290 Y134.790 E0.30037
G1 X157.770 Y134.790 E1.55266
G1 X157.888 Y134.432 F10800.000
G1 F8640
G1 X157.749 Y131.499 E-0.76000
G1 E-0.04000 F2100.00000
G1 Z0.800 F10800.000
G1 X158.200 Y133.535
G1 Z0.200
G1 E0.80000 F2100.00000
G1 F1800
G1 X158.796 Y134.130 E0.02651
G1 X159.331 Y134.130 E0.01685
G1 X158.370 Y133.169 E0.04278
G1 X158.370 Y132.634 E0.01685
G1 X159.866 Y134.130 E0.06660
G1 X160.402 Y134.130 E0.01685
G1 X158.370 Y132.098 E0.09043
G1 X158.370 Y131.563 E0.01685
G1 X160.937 Y134.130 E0.11425
G1 X161.472 Y134.130 E0.01685
G1 X158.370 Y131.028 E0.13807
G1 X158.370 Y130.493 E0.01685
G1 X162.007 Y134.130 E0.16190
G1 X162.543 Y134.130 E0.01685
G1 X158.370 Y129.957 E0.18572
G1 X158.370 Y129.422 E0.01685
G1 X163.078 Y134.130 E0.20955
G1 X163.613 Y134.130 E0.01685
G1 X158.370 Y128.887 E0.23337
G1 X158.370 Y128.352 E0.01685
G1 X164.148 Y134.130 E0.25720
G1 X164.684 Y134.130 E0.01685
G1 X158.370 Y127.816 E0.28102
G1 X158.370 Y127.281 E0.01685
G1 X165.219 Y134.130 E0.30484
G1 X165.754 Y134.130 E0.01685
G1 X158.370 Y126.746 E0.32867
G1 X158.370 Y126.210 E0.01685
G1 X166.290 Y134.130 E0.35249
G1 X166.825 Y134.130 E0.01685
G1 X158.565 Y125.870 E0.36765
G1 X159.100 Y125.870 E0.01685
G1 X167.360 Y134.130 E0.36765
G1 X167.895 Y134.130 E0.01685
G1 X159.635 Y125.870 E0.36765
G1 X160.170 Y125.870 E0.01685
G1 X168.431 Y134.130 E0.36765
G1 X168.966 Y134.130 E0.01685
G1 X160.706 Y125.870 E0.36765
G1 X161.241 Y125.870 E0.01685
G1 X169.501 Y134.130 E0.36765
G1 X170.036 Y134.130 E0.01685
G1 X161.776 Y125.870 E0.36765
G1 X162.312 Y125.870 E0.01685
G1 X170.572 Y134.130 E0.36765
G1 X171.107 Y134.130 E0.01685
G1 X162.847 Y125.870 E0.36765
G1 X163.382 Y125.870 E0.01685
G1 X171.642 Y134.130 E0.36765
G1 X172.178 Y134.130 E0.01685
G1 X163.917 Y125.870 E0.36765
G1 X164.453 Y125.870 E0.01685
G1 X172.713 Y134.130 E0.36765
G1 X173.248 Y134.130 E0.01685
G1 X164.988 Y125.870 E0.36765
G1 X165.523 Y125.870 E0.01685
G1 X173.783 Y134.130 E0.36765
G1 X174.319 Y134.130 E0.01685
G1 X166.058 Y125.870 E0.36765
G1 X166.594 Y125.870 E0.01685
G1 X174.854 Y134.130 E0.36765
G1 X175.389 Y134.130 E0.01685
G1 X167.129 Y125.870 E0.36765
G1 X167.664 Y125.870 E0.01685
G1 X175.925 Y134.130 E0.36765
G1 X176.460 Y134.130 E0.01685
G1 X168.200 Y125.870 E0.36765
G1 X168.735 Y125.870 E0.01685
G1 X176.995 Y134.130 E0.36765
G1 X177.530 Y134.130 E0.01685
G1 X169.270 Y125.870 E0.36765
G1 X169.805 Y125.870 E0.01685
G1 X178.066 Y134.130 E0.36765
G1 X178.601 Y134.130 E0.01685
G1 X170.341 Y125.870 E0.36765
G1 X170.876 Y125.870 E0.01685
G1 X179.136 Y134.130 E0.36765
G1 X179.671 Y134.130 E0.01685
G1 X171.411 Y125.870 E0.36765
G1 X171.946 Y125.870 E0.01685
G1 X180.207 Y134.130 E0.36765
G1 X180.742 Y134.130 E0.01685
G1 X172.482 Y125.870 E0.36765
G1 X173.017 Y125.870 E0.01685
G1 X181.277 Y134.130 E0.36765
G1 X181.813 Y134.130 E0.01685
G1 X173.552 Y125.870 E0.36765
G1 X174.088 Y125.870 E0.01685
G1 X182.348 Y134.130 E0.36765
G1 X182.883 Y134.130 E0.01685
G1 X174.623 Y125.870 E0.36765
G1 X175.158 Y125.870 E0.01685
G1 X183.418 Y134.130 E0.36765
G1 X183.954 Y134.130 E0.01685
G1 X175.693 Y125.870 E0.36765
G1 X176.229 Y125.870 E0.01685
G1 X184.489 Y134.130 E0.36765
G1 X185.024 Y134.130 E0.01685
G1 X176.764 Y125.870 E0.36765
G1 X177.299 Y125.870 E0.01685
G1 X185.560 Y134.130 E0.36765
G1 X186.095 Y134.130 E0.01685
G1 X177.835 Y125.870 E0.36765
G1 X178.370 Y125.870 E0.01685
G1 X186.630 Y134.130 E0.36765
G1 X187.165 Y134.130 E0.01685
G1 X178.905 Y125.870 E0.36765
G1 X179.440 Y125.870 E0.01685
G1 X187.701 Y134.130 E0.36765
G1 X188.236 Y134.130 E0.01685
G1 X179.976 Y125.870 E0.36765
G1 X180.511 Y125.870 E0.01685
G1 X188.771 Y134.130 E0.36765
G1 X189.306 Y134.130 E0.01685
G1 X181.046 Y125.870 E0.36765
G1 X181.581 Y125.870 E0.01685
G1 X189.842 Y134.130 E0.36765
G1 X190.377 Y134.130 E0.01685
G1 X182.117 Y125.870 E0.36765
G1 X182.652 Y125.870 E0.01685
G1 X190.912 Y134.130 E0.36765
G1 X191.448 Y134.130 E0.01685
G1 X183.187 Y125.870 E0.36765
G1 X183.723 Y125.870 E0.01685
G1 X191.983 Y134.130 E0.36765
G1 X192.518 Y134.130 E0.01685
G1 X184.258 Y125.870 E0.36765
G1 X184.793 Y125.870 E0.01685
G1 X193.053 Y134.130 E0.36765
G1 X193.589 Y134.130 E0.01685
G1 X185.328 Y125.870 E0.36765
G1 X185.864 Y125.870 E0.01685
G1 X194.124 Y134.130 E0.36765
G1 X194.659 Y134.130 E0.01685
G1 X186.399 Y125.870 E0.36765
G1 X186.934 Y125.870 E0.01685
G1 X195.195 Y134.130 E0.36765
G1 X195.730 Y134.130 E0.01685
G1 X187.470 Y125.870 E0.36765
G1 X188.005 Y125.870 E0.01685
G1 X196.265 Y134.130 E0.36765
G1 X196.800 Y134.130 E0.01685
G1 X188.540 Y125.870 E0.36765
G1 X189.075 Y125.870 E0.01685
G1 X197.336 Y134.130 E0.36765
G1 X197.871 Y134.130 E0.01685
G1 X189.611 Y125.870 E0.36765
G1 X190.146 Y125.870 E0.01685
G1 X198.406 Y134.130 E0.36765
G1 X198.941 Y134.130 E0.01685
G1 X190.681 Y125.870 E0.36765
G1 X191.216 Y125.870 E0.01685
G1 X199.477 Y134.130 E0.36765
G1 X200.012 Y134.130 E0.01685
G1 X191.752 Y125.870 E0.36765
G1 X192.287 Y125.870 E0.01685
G1 X200.547 Y134.130 E0.36765
G1 X201.083 Y134.130 E0.01685
G1 X192.822 Y125.870 E0.36765
G1 X193.358 Y125.870 E0.01685
G1 X201.618 Y134.130 E0.36765
G1 X202.153 Y134.130 E0.01685
G1 X193.893 Y125.870 E0.36765
G1 X194.428 Y125.870 E0.01685
G1 X202.688 Y134.130 E0.36765
G1 X203.224 Y134.130 E0.01685
G1 X194.963 Y125.870 E0.36765
G1 X195.499 Y125.870 E0.01685
G1 X203.759 Y134.130 E0.36765
G1 X204.294 Y134.130 E0.01685
G1 X196.034 Y125.870 E0.36765
G1 X196.569 Y125.870 E0.01685
G1 X204.830 Y134.130 E0.36765
G1 X205.365 Y134.130 E0.01685
G1 X197.105 Y125.870 E0.36765
G1 X197.640 Y125.870 E0.01685
G1 X205.900 Y134.130 E0.36765
G1 X206.435 Y134.130 E0.01685
G1 X198.175 Y125.870 E0.36765
G1 X198.710 Y125.870 E0.01685
G1 X206.630 Y133.790 E0.35250
G1 X206.630 Y133.254 E0.01685
G1 X199.246 Y125.870 E0.32867
G1 X199.781 Y125.870 E0.01685
G1 X206.630 Y132.719 E0.30485
G1 X206.630 Y132.184 E0.01685
G1 X200.316 Y125.870 E0.28102
G1 X200.851 Y125.870 E0.01685
G1 X206.630 Y131.649 E0.25720
G1 X206.630 Y131.113 E0.01685
G1 X201.387 Y125.870 E0.23338
G1 X201.922 Y125.870 E0.01685
G1 X206.630 Y130.578 E0.20955
G1 X206.630 Y130.043 E0.01685
G1 X202.457 Y125.870 E0.18573
G1 X202.993 Y125.870 E0.01685
G1 X206.630 Y129.507 E0.16190
G1 X206.630 Y128.972 E0.01685
G1 X203.528 Y125.870 E0.13808
G1 X204.063 Y125.870 E0.01685
G1 X206.630 Y128.437 E0.11425
G1 X206.630 Y127.902 E0.01685
G1 X204.598 Y125.870 E0.09043
G1 X205.134 Y125.870 E0.01685
G1 X206.630 Y127.366 E0.06661
G1 X206.630 Y126.831 E0.01685
G1 X205.669 Y125.870 E0.04278
G1 X206.204 Y125.870 E0.01685
G1 X206.800 Y126.465 E0.02651
G1 F8640
G1 X206.204 Y125.870 E-0.19449
G1 X205.669 Y125.870 E-0.12360
G1 X206.630 Y126.831 E-0.31387
G1 X206.630 Y127.366 E-0.12360
G1 X206.617 Y127.353 E-0.00445
G1 E-0.04000 F2100.00000
G1 Z0.800 F10800.000
G1 X206.800 Y84.413
G1 Z0.200
G1 E0.80000 F2100.00000
G1 F1800
G1 X158.087 Y84.413 E1.52735
G1 X158.087 Y75.587 E0.27673
G1 X206.913 Y75.587 E1.53090
G1 X206.913 Y84.413 E0.27673
G1 X206.860 Y84.413 E0.00166
G1 X207.290 Y84.790 F10800.000
G1 F1800
G1 X157.710 Y84.790 E1.55455
G1 X157.710 Y75.210 E0.30037
G1 X207.290 Y75.210 E1.55455
G1 X207.290 Y84.730 E0.29849
G1 X206.891 Y84.765 F10800.000
G1 F8640
G1 X203.999 Y84.734 E-0.76000
G1 E-0.04000 F2100.00000
G1 Z0.800 F10800.000
G1 X206.800 Y76.465
G1 Z0.200
G1 E0.80000 F2100.00000
G1 F1800
G1 X206.204 Y75.870 E0.02651
G1 X205.669 Y75.870 E0.01685
G1 X206.630 Y76.831 E0.04278
G1 X206.630 Y77.366 E0.01685
G1 X205.134 Y75.870 E0.06661
G1 X204.598 Y75.870 E0.01685
G1 X206.630 Y77.902 E0.09043
G1 X206.630 Y78.437 E0.01685
G1 X204.063 Y75.870 E0.11425
G1 X203.528 Y75.870 E0.01685
G1 X206.630 Y78.972 E0.13808
G1 X206.630 Y79.507 E0.01685
G1 X202.993 Y75.870 E0.16190
G1 X202.457 Y75.870 E0.01685
G1 X206.630 Y80.043 E0.18573
G1 X206.630 Y80.578 E0.01685
G1 X201.922 Y75.870 E0.20955
G1 X201.387 Y75.870 E0.01685
G1 X206.630 Y81.113 E0.23338
G1 X206.630 Y81.649 E0.01685
G1 X200.851 Y75.870 E0.25720
G1 X200.316 Y75.870 E0.01685
G1 X206.630 Y82.184 E0.28102
G1 X206.630 Y82.719 E0.01685
G1 X199.781 Y75.870 E0.30485
G1 X199.246 Y75.870 E0.01685
G1 X206.630 Y83.254 E0.32867
G1 X206.630 Y83.790 E0.01685
G1 X198.710 Y75.870 E0.35250
G1 X198.175 Y75.870 E0.01685
G1 X206.435 Y84.130 E0.36765
G1 X205.900 Y84.130 E0.01685
G1 X197.640 Y75.870 E0.36765
G1 X197.105 Y75.870 E0.01685
G1 X205.365 Y84.130 E0.36765
G1 X204.830 Y84.130 E0.01685
G1 X196.569 Y75.870 E0.36765
G1 X196.034 Y75.870 E0.01685
G1 X204.294 Y84.130 E0.36765
G1 X203.759 Y84.130 E0.01685
G1 X195.499 Y75.870 E0.36765
G1 X194.963 Y75.870 E0.01685
G1 X203.224 Y84.130 E0.36765
G1 X202.688 Y84.130 E0.01685
G1 X194.428 Y75.870 E0.36765
G1 X193.893 Y75.870 E0.01685
G1 X202.153 Y84.130 E0.36765
G1 X201.618 Y84.130 E0.01685
G1 X193.358 Y75.870 E0.36765
G1 X192.822 Y75.870 E0.01685
G1 X201.083 Y84.130 E0.36765
G1 X200.547 Y84.130 E0.01685
G1 X192.287 Y75.870 E0.36765
G1 X191.752 Y75.870 E0.01685
G1 X200.012 Y84.130 E0.36765
G1 X199.477 Y84.130 E0.01685
G1 X191.216 Y75.870 E0.36765
G1 X190.681 Y75.870 E0.01685
G1 X198.941 Y84.130 E0.36765
G1 X198.406 Y84.130 E0.01685
G1 X190.146 Y75.870 E0.36765
G1 X189.611 Y75.870 E0.01685
G1 X197.871 Y84.130 E0.36765
G1 X197.336 Y84.130 E0.01685
G1 X189.075 Y75.870 E0.36765
G1 X188.540 Y75.870 E0.01685
G1 X196.800 Y84.130 E0.36765
G1 X196.265 Y84.130 E0.01685
G1 X188.005 Y75.870 E0.36765
G1 X187.470 Y75.870 E0.01685
G1 X195.730 Y84.130 E0.36765
G1 X195.195 Y84.130 E0.01685
G1 X186.934 Y75.870 E0.36765
G1 X186.399 Y75.870 E0.01685
G1 X194.659 Y84.130 E0.36765
G1 X194.124 Y84.130 E0.01685
G1 X185.864 Y75.870 E0.36765
G1 X185.328 Y75.870 E0.01685
G1 X193.589 Y84.130 E0.36765
G1 X193.053 Y84.130 E0.01685
G1 X184.793 Y75.870 E0.36765
G1 X184.258 Y75.870 E0.01685
G1 X192.518 Y84.130 E0.36765
G1 X191.983 Y84.130 E0.01685
G1 X183.723 Y75.870 E0.36765
G1 X183.187 Y75.870 E0.01685
G1 X191.448 Y84.130 E0.36765
G1 X190.912 Y84.130 E0.01685
G1 X182.652 Y75.870 E0.36765
G1 X182.117 Y75.870 E0.01685
G1 X190.377 Y84.130 E0.36765
G1 X189.842 Y84.130 E0.01685
G1 X181.581 Y75.870 E0.36765
G1 X181.046 Y75.870 E0.01685
G1 X189.306 Y84.130 E0.36765
G1 X188.771 Y84.130 E0.01685
G1 X180.511 Y75.870 E0.36765
G1 X179.976 Y75.870 E0.01685
G1 X188.236 Y84.130 E0.36765
G1 X187.701 Y84.130 E0.01685
G1 X179.440 Y75.870 E0.36765
G1 X178.905 Y75.870 E0.01685
G1 X187.165 Y84.130 E0.36765
G1 X186.630 Y84.130 E0.01685
G1 X178.370 Y75.870 E0.36765
G1 X177.835 Y75.870 E0.01685
G1 X186.095 Y84.130 E0.36765
G1 X185.560 Y84.130 E0.01685
G1 X177.299 Y75.870 E0.36765
G1 X176.764 Y75.870 E0.01685
G1 X185.024 Y84.130 E0.36765
G1 X184.489 Y84.130 E0.01685
G1 X176.229 Y75.870 E0.36765
G1 X175.693 Y75.870 E0.01685
G1 X183.954 Y84.130 E0.36765
G1 X183.418 Y84.130 E0.01685
G1 X175.158 Y75.870 E0.36765
G1 X174.623 Y75.870 E0.01685
G1 X182.883 Y84.130 E0.36765
G1 X182.348 Y84.130 E0.01685
G1 X174.088 Y75.870 E0.36765
G1 X173.552 Y75.870 E0.01685
G1 X181.813 Y84.130 E0.36765
G1 X181.277 Y84.130 E0.01685
G1 X173.017 Y75.870 E0.36765
G1 X172.482 Y75.870 E0.01685
G1 X180.742 Y84.130 E0.36765
G1 X180.207 Y84.130 E0.01685
G1 X171.946 Y75.870 E0.36765
G1 X171.411 Y75.870 E0.01685
G1 X179.671 Y84.130 E0.36765
G1 X179.136 Y84.130 E0.01685
G1 X170.876 Y75.870 E0.36765
G1 X170.341 Y75.870 E0.01685
