; generated by Slic3r Prusa Edition 1.41.0+win64 on 2018-10-03 at 10:01:24

; 

; external perimeters extrusion width = 0.45mm
; perimeters extrusion width = 0.45mm
; infill extrusion width = 0.45mm
; solid infill extrusion width = 0.45mm
; top infill extrusion width = 0.40mm
; first layer extrusion width = 0.42mm

M201 X9000 Y9000 Z500 E10000 ; sets maximum accelerations, mm/sec^2
M203 X500 Y500 Z12 E120 ; sets maximum feedrates, mm/sec
M204 P1500 R1500 T1500 ; sets acceleration (P, T) and retract acceleration (R), mm/sec^2
M205 X10.00 Y10.00 Z0.20 E2.50 ; sets the jerk limits, mm/sec
M205 S0 T0 ; sets the minimum extruding and travel feed rate, mm/sec
M107
M115 U3.3.1 ; tell printer latest fw version
M201 X1000 Y1000 Z1000 E9000 ; sets maximum accelerations, mm/sec^2
M203 X200 Y200 Z12 E120 ; sets maximum feedrates, mm/sec
M204 S1250 T1250 ; sets acceleration (S) and retract acceleration (T)
M205 X8 Y8 Z0.4 E1.5 ; sets the jerk limits, mm/sec
M205 S0 T0 ; sets the minimum extruding and travel feed rate, mm/sec
M83  ; extruder relative mode
M104 S255 ; set extruder temp
M140 S100 ; set bed temp
M190 S100 ; wait for bed temp
M109 S255 ; wait for extruder temp
G28 W ; home all without mesh bed level
G80 ; mesh bed leveling
G1 Y-3.0 F1000.0 ; go outside print area
G92 E0.0
G1 X60.0 E9.0  F1000.0 ; intro line
G1 X100.0 E12.5  F1000.0 ; intro line
G92 E0.0
M221 S95
M900 K30; Filament gcode
G4 P120000; wait two minutes to start
G21 ; set units to millimeters
G90 ; use absolute coordinates
M83 ; use relative distances for extrusion
;BEFORE_LAYER_CHANGE
G92 E0.0
;0.2


G1 E-0.80000 F2100.00000
G1 Z0.600 F10800.000
;AFTER_LAYER_CHANGE
;0.2
G1 X123.147 Y76.835
G1 Z0.200
G1 E0.80000 F2100.00000
M204 S1000
G1 F1800
G1 X123.614 Y76.306 E0.02213
G1 X127.743 Y73.208 E0.16184
G1 X128.527 Y72.863 E0.02687
G1 X128.991 Y72.811 E0.01464
G1 X144.004 Y72.811 E0.47070
G1 X144.823 Y72.972 E0.02620
G1 X145.521 Y73.426 E0.02608
G1 X146.000 Y74.111 E0.02620
G1 X146.187 Y74.925 E0.02620
G1 X146.189 Y135.004 E1.88373
G1 X146.127 Y135.514 E0.01612
G1 X145.868 Y136.140 E0.02123
G1 X145.431 Y136.656 E0.02123
G1 X144.856 Y137.014 E0.02123
G1 X144.199 Y137.179 E0.02123
G1 X128.993 Y137.189 E0.47679
G1 X128.486 Y137.127 E0.01601
G1 X127.738 Y136.788 E0.02574
G1 X123.565 Y133.652 E0.16368
G1 X123.053 Y133.000 E0.02597
G1 X122.821 Y132.205 E0.02597
G1 X122.811 Y77.996 E1.69969
G1 X122.873 Y77.486 E0.01612
G1 X123.124 Y76.891 E0.02025
; PURGING FINISHED
G1 F8640
G1 X123.614 Y76.306 E-0.17619
G1 X125.637 Y74.789 E-0.58381
G1 E-0.04000 F2100.00000
G1 Z0.800 F10800.000
G1 X125.587 Y78.587
G1 Z0.200
G1 E0.80000 F2100.00000
G1 F1800
G1 X129.587 Y78.587 E0.12542
G1 X129.587 Y75.587 E0.09406
G1 X143.413 Y75.587 E0.43350
G1 X143.413 Y84.763 E0.28770
G1 X139.587 Y84.763 E0.11996
G1 X139.587 Y79.763 E0.15677
G1 X133.413 Y79.763 E0.19359
G1 X133.413 Y130.237 E1.58258
G1 X139.587 Y130.237 E0.19359
G1 X139.587 Y125.237 E0.15677
G1 X143.413 Y125.237 E0.11996
G1 X143.413 Y134.413 E0.28770
G1 X129.587 Y134.413 E0.43350
G1 X129.587 Y131.413 E0.09406
G1 X125.587 Y131.413 E0.12542
G1 X125.587 Y129.087 E0.07293
G1 X126.413 Y129.087 E0.02589
G1 X126.413 Y131.087 E0.06271
G1 X129.587 Y131.087 E0.09952
G1 X129.587 Y78.913 E1.63588
G1 X126.413 Y78.913 E0.09952
G1 X126.413 Y80.913 E0.06271
G1 X125.587 Y80.913 E0.02589
G1 X125.587 Y78.647 E0.07104
G1 F8640
G1 X128.878 Y78.598 E-0.76000
G1 E-0.04000 F2100.00000
G1 Z0.800 F10800.000
G1 X139.210 Y80.140
G1 Z0.200
G1 E0.80000 F2100.00000
G1 F1800
G1 X133.790 Y80.140 E0.16994
G1 X133.790 Y129.860 E1.55894
G1 X139.210 Y129.860 E0.16994
G1 X139.210 Y124.860 E0.15677
G1 X143.790 Y124.860 E0.14360
G1 X143.790 Y134.790 E0.31135
G1 X129.210 Y134.790 E0.45715
G1 X129.210 Y131.790 E0.09406
G1 X125.210 Y131.790 E0.12542
G1 X125.210 Y128.710 E0.09657
G1 X126.790 Y128.710 E0.04954
G1 X126.790 Y130.710 E0.06271
G1 X129.210 Y130.710 E0.07588
G1 X129.210 Y79.290 E1.61224
G1 X126.790 Y79.290 E0.07588
G1 X126.790 Y81.290 E0.06271
G1 X125.210 Y81.290 E0.04954
G1 X125.210 Y78.210 E0.09657
G1 X129.210 Y78.210 E0.12542
G1 X129.210 Y75.210 E0.09406
G1 X143.790 Y75.210 E0.45715
G1 X143.790 Y85.140 E0.31135
G1 X139.210 Y85.140 E0.14360
G1 X139.210 Y80.200 E0.15489
G1 X139.112 Y79.752 F10800.000
G1 F8640
G1 X135.919 Y80.164 E-0.76000
G1 E-0.04000 F2100.00000
G1 Z0.800 F10800.000
G1 X139.700 Y84.109
G1 Z0.200
G1 E0.80000 F2100.00000
G1 F1800
G1 X140.072 Y84.480 E0.01654
G1 X140.607 Y84.480 E0.01685
G1 X139.870 Y83.743 E0.03281
G1 X139.870 Y83.208 E0.01685
G1 X141.142 Y84.480 E0.05665
G1 X141.678 Y84.480 E0.01685
G1 X139.870 Y82.672 E0.08048
G1 X139.870 Y82.137 E0.01685
G1 X142.213 Y84.480 E0.10431
G1 X142.748 Y84.480 E0.01685
G1 X139.870 Y81.602 E0.12814
G1 X139.870 Y81.066 E0.01685
G1 X143.130 Y84.326 E0.14513
G1 X143.130 Y83.791 E0.01685
G1 X139.870 Y80.531 E0.14513
G1 X139.870 Y79.995 E0.01685
G1 X143.300 Y83.425 E0.15269
G1 F8640
G1 X140.972 Y81.098 E-0.76000
G1 E-0.04000 F2100.00000
G1 Z0.800 F10800.000
G1 X143.300 Y76.466
G1 Z0.200
G1 E0.80000 F2100.00000
G1 F1800
G1 X142.704 Y75.870 E0.02652
G1 X142.169 Y75.870 E0.01685
G1 X143.130 Y76.831 E0.04280
G1 X143.130 Y77.367 E0.01685
G1 X141.633 Y75.870 E0.06663
G1 X141.098 Y75.870 E0.01685
G1 X143.130 Y77.902 E0.09046
G1 X143.130 Y78.437 E0.01685
G1 X140.563 Y75.870 E0.11430
G1 X140.027 Y75.870 E0.01685
G1 X143.130 Y78.973 E0.13813
G1 X143.130 Y79.508 E0.01685
G1 X139.492 Y75.870 E0.16196
G1 X138.957 Y75.870 E0.01685
G1 X143.130 Y80.043 E0.18579
G1 X143.130 Y80.579 E0.01685
G1 X138.421 Y75.870 E0.20963
G1 X137.886 Y75.870 E0.01685
G1 X143.130 Y81.114 E0.23346
G1 X143.130 Y81.650 E0.01685
G1 X137.350 Y75.870 E0.25729
G1 X136.815 Y75.870 E0.01685
G1 X143.130 Y82.185 E0.28112
G1 X143.130 Y82.720 E0.01685
G1 X136.280 Y75.870 E0.30495
G1 X135.744 Y75.870 E0.01685
G1 X139.355 Y79.480 E0.16071
G1 X138.819 Y79.480 E0.01685
G1 X135.209 Y75.870 E0.16071
G1 X134.674 Y75.870 E0.01685
G1 X138.284 Y79.480 E0.16071
G1 X137.748 Y79.480 E0.01685
G1 X134.138 Y75.870 E0.16071
G1 X133.603 Y75.870 E0.01685
G1 X137.213 Y79.480 E0.16071
G1 X136.678 Y79.480 E0.01685
G1 X133.067 Y75.870 E0.16071
G1 X132.532 Y75.870 E0.01685
G1 X136.142 Y79.480 E0.16071
G1 X135.607 Y79.480 E0.01685
G1 X131.997 Y75.870 E0.16071
G1 X131.461 Y75.870 E0.01685
G1 X135.072 Y79.480 E0.16071
G1 X134.536 Y79.480 E0.01685
G1 X130.926 Y75.870 E0.16071
G1 X130.391 Y75.870 E0.01685
G1 X134.001 Y79.480 E0.16071
G1 X133.466 Y79.480 E0.01685
G1 X129.870 Y75.884 E0.16006
G1 X129.870 Y76.420 E0.01685
G1 X133.130 Y79.680 E0.14513
G1 X133.130 Y80.215 E0.01685
G1 X129.870 Y76.955 E0.14513
G1 X129.870 Y77.491 E0.01685
G1 X133.130 Y80.751 E0.14513
G1 X133.130 Y81.286 E0.01685
G1 X129.870 Y78.026 E0.14513
G1 X129.870 Y78.561 E0.01685
G1 X133.130 Y81.822 E0.14513
G1 X133.130 Y82.357 E0.01685
G1 X129.870 Y79.097 E0.14513
G1 X129.870 Y79.632 E0.01685
G1 X133.130 Y82.892 E0.14513
G1 X133.130 Y83.428 E0.01685
G1 X129.870 Y80.167 E0.14513
G1 X129.870 Y80.703 E0.01685
G1 X133.130 Y83.963 E0.14513
G1 X133.130 Y84.498 E0.01685
G1 X129.870 Y81.238 E0.14513
G1 X129.870 Y81.774 E0.01685
G1 X133.130 Y85.034 E0.14513
G1 X133.130 Y85.569 E0.01685
G1 X129.870 Y82.309 E0.14513
G1 X129.870 Y82.844 E0.01685
G1 X133.130 Y86.105 E0.14513
G1 X133.130 Y86.640 E0.01685
G1 X129.870 Y83.380 E0.14513
G1 X129.870 Y83.915 E0.01685
G1 X133.130 Y87.175 E0.14513
G1 X133.130 Y87.711 E0.01685
G1 X129.870 Y84.450 E0.14513
G1 X129.870 Y84.986 E0.01685
G1 X133.130 Y88.246 E0.14513
G1 X133.130 Y88.781 E0.01685
G1 X129.870 Y85.521 E0.14513
G1 X129.870 Y86.056 E0.01685
G1 X133.130 Y89.317 E0.14513
G1 X133.130 Y89.852 E0.01685
G1 X129.870 Y86.592 E0.14513
G1 X129.870 Y87.127 E0.01685
G1 X133.130 Y90.387 E0.14513
G1 X133.130 Y90.923 E0.01685
G1 X129.870 Y87.663 E0.14513
G1 X129.870 Y88.198 E0.01685
G1 X133.130 Y91.458 E0.14513
G1 X133.130 Y91.994 E0.01685
G1 X129.870 Y88.733 E0.14513
G1 X129.870 Y89.269 E0.01685
G1 X133.130 Y92.529 E0.14513
G1 X133.130 Y93.064 E0.01685
G1 X129.870 Y89.804 E0.14513
G1 X129.870 Y90.339 E0.01685
G1 X133.130 Y93.600 E0.14513
G1 X133.130 Y94.135 E0.01685
G1 X129.870 Y90.875 E0.14513
G1 X129.870 Y91.410 E0.01685
G1 X133.130 Y94.670 E0.14513
G1 X133.130 Y95.206 E0.01685
G1 X129.870 Y91.945 E0.14513
G1 X129.870 Y92.481 E0.01685
G1 X133.130 Y95.741 E0.14513
G1 X133.130 Y96.276 E0.01685
G1 X129.870 Y93.016 E0.14513
G1 X129.870 Y93.552 E0.01685
G1 X133.130 Y96.812 E0.14513
G1 X133.130 Y97.347 E0.01685
G1 X129.870 Y94.087 E0.14513
G1 X129.870 Y94.622 E0.01685
G1 X133.130 Y97.883 E0.14513
G1 X133.130 Y98.418 E0.01685
G1 X129.870 Y95.158 E0.14513
G1 X129.870 Y95.693 E0.01685
G1 X133.130 Y98.953 E0.14513
G1 X133.130 Y99.489 E0.01685
G1 X129.870 Y96.228 E0.14513
G1 X129.870 Y96.764 E0.01685
G1 X133.130 Y100.024 E0.14513
G1 X133.130 Y100.559 E0.01685
G1 X129.870 Y97.299 E0.14513
G1 X129.870 Y97.835 E0.01685
G1 X133.130 Y101.095 E0.14513
G1 X133.130 Y101.630 E0.01685
G1 X129.870 Y98.370 E0.14513
G1 X129.870 Y98.905 E0.01685
G1 X133.130 Y102.166 E0.14513
G1 X133.130 Y102.701 E0.01685
G1 X129.870 Y99.441 E0.14513
G1 X129.870 Y99.976 E0.01685
G1 X133.130 Y103.236 E0.14513
G1 X133.130 Y103.772 E0.01685
G1 X129.870 Y100.511 E0.14513
G1 X129.870 Y101.047 E0.01685
G1 X133.130 Y104.307 E0.14513
G1 X133.130 Y104.842 E0.01685
G1 X129.870 Y101.582 E0.14513
G1 X129.870 Y102.117 E0.01685
G1 X133.130 Y105.378 E0.14513
G1 X133.130 Y105.913 E0.01685
G1 X129.870 Y102.653 E0.14513
G1 X129.870 Y103.188 E0.01685
G1 X133.130 Y106.448 E0.14513
G1 X133.130 Y106.984 E0.01685
G1 X129.870 Y103.724 E0.14513
G1 X129.870 Y104.259 E0.01685
G1 X133.130 Y107.519 E0.14513
G1 X133.130 Y108.055 E0.01685
G1 X129.870 Y104.794 E0.14513
G1 X129.870 Y105.330 E0.01685
G1 X133.130 Y108.590 E0.14513
G1 X133.130 Y109.125 E0.01685
G1 X129.870 Y105.865 E0.14513
G1 X129.870 Y106.400 E0.01685
G1 X133.130 Y109.661 E0.14513
G1 X133.130 Y110.196 E0.01685
G1 X129.870 Y106.936 E0.14513
G1 X129.870 Y107.471 E0.01685
G1 X133.130 Y110.731 E0.14513
G1 X133.130 Y111.267 E0.01685
G1 X129.870 Y108.007 E0.14513
G1 X129.870 Y108.542 E0.01685
G1 X133.130 Y111.802 E0.14513
G1 X133.130 Y112.338 E0.01685
G1 X129.870 Y109.077 E0.14513
G1 X129.870 Y109.613 E0.01685
G1 X133.130 Y112.873 E0.14513
G1 X133.130 Y113.408 E0.01685
G1 X129.870 Y110.148 E0.14513
G1 X129.870 Y110.683 E0.01685
G1 X133.130 Y113.944 E0.14513
G1 X133.130 Y114.479 E0.01685
G1 X129.870 Y111.219 E0.14513
G1 X129.870 Y111.754 E0.01685
G1 X133.130 Y115.014 E0.14513
G1 X133.130 Y115.550 E0.01685
G1 X129.870 Y112.289 E0.14513
G1 X129.870 Y112.825 E0.01685
G1 X133.130 Y116.085 E0.14513
G1 X133.130 Y116.620 E0.01685
G1 X129.870 Y113.360 E0.14513
G1 X129.870 Y113.896 E0.01685
G1 X133.130 Y117.156 E0.14513
G1 X133.130 Y117.691 E0.01685
G1 X129.870 Y114.431 E0.14513
G1 X129.870 Y114.966 E0.01685
G1 X133.130 Y118.227 E0.14513
G1 X133.130 Y118.762 E0.01685
G1 X129.870 Y115.502 E0.14513
G1 X129.870 Y116.037 E0.01685
G1 X133.130 Y119.297 E0.14513
G1 X133.130 Y119.833 E0.01685
G1 X129.870 Y116.572 E0.14513
G1 X129.870 Y117.108 E0.01685
G1 X133.130 Y120.368 E0.14513
G1 X133.130 Y120.903 E0.01685
G1 X129.870 Y117.643 E0.14513
G1 X129.870 Y118.178 E0.01685
G1 X133.130 Y121.439 E0.14513
G1 X133.130 Y121.974 E0.01685
G1 X129.870 Y118.714 E0.14513
G1 X129.870 Y119.249 E0.01685
G1 X133.130 Y122.510 E0.14513
G1 X133.130 Y123.045 E0.01685
G1 X129.870 Y119.785 E0.14513
G1 X129.870 Y120.320 E0.01685
G1 X133.130 Y123.580 E0.14513
G1 X133.130 Y124.116 E0.01685
G1 X129.870 Y120.855 E0.14513
G1 X129.870 Y121.391 E0.01685
G1 X133.130 Y124.651 E0.14513
G1 X133.130 Y125.186 E0.01685
G1 X129.870 Y121.926 E0.14513
G1 X129.870 Y122.461 E0.01685
G1 X133.130 Y125.722 E0.14513
G1 X133.130 Y126.257 E0.01685
G1 X129.870 Y122.997 E0.14513
G1 X129.870 Y123.532 E0.01685
G1 X133.130 Y126.792 E0.14513
G1 X133.130 Y127.328 E0.01685
G1 X129.870 Y124.068 E0.14513
G1 X129.870 Y124.603 E0.01685
G1 X133.130 Y127.863 E0.14513
G1 X133.130 Y128.399 E0.01685
G1 X129.870 Y125.138 E0.14513
G1 X129.870 Y125.674 E0.01685
G1 X133.130 Y128.934 E0.14513
G1 X133.130 Y129.469 E0.01685
G1 X129.870 Y126.209 E0.14513
G1 X129.870 Y126.744 E0.01685
G1 X133.130 Y130.005 E0.14513
G1 X133.130 Y130.520 E0.01622
G1 X133.645 Y130.520 E0.01622
G1 X137.256 Y134.130 E0.16071
G1 X137.791 Y134.130 E0.01685
G1 X134.181 Y130.520 E0.16071
G1 X134.716 Y130.520 E0.01685
G1 X138.326 Y134.130 E0.16071
G1 X138.862 Y134.130 E0.01685
G1 X135.251 Y130.520 E0.16071
G1 X135.787 Y130.520 E0.01685
G1 X139.397 Y134.130 E0.16071
G1 X139.932 Y134.130 E0.01685
G1 X136.322 Y130.520 E0.16071
G1 X136.858 Y130.520 E0.01685
G1 X140.468 Y134.130 E0.16071
G1 X141.003 Y134.130 E0.01685
G1 X137.393 Y130.520 E0.16071
G1 X137.928 Y130.520 E0.01685
G1 X141.539 Y134.130 E0.16071
G1 X142.074 Y134.130 E0.01685
G1 X138.464 Y130.520 E0.16071
G1 X138.999 Y130.520 E0.01685
G1 X142.609 Y134.130 E0.16071
G1 X143.130 Y134.130 E0.01639
G1 X139.534 Y130.520 E0.16039
G1 X139.870 Y130.520 E0.01056
G1 X139.870 Y130.320 E0.00629
G1 X143.130 Y133.580 E0.14513
G1 X143.130 Y133.045 E0.01685
G1 X139.870 Y129.785 E0.14513
G1 X139.870 Y129.249 E0.01685
G1 X143.130 Y132.510 E0.14513
G1 X143.130 Y131.974 E0.01685
G1 X139.870 Y128.714 E0.14513
G1 X139.870 Y128.178 E0.01685
G1 X143.130 Y131.439 E0.14513
G1 X143.130 Y130.903 E0.01685
G1 X139.870 Y127.643 E0.14513
G1 X139.870 Y127.108 E0.01685
G1 X143.130 Y130.368 E0.14513
G1 X143.130 Y129.833 E0.01685
G1 X139.870 Y126.572 E0.14513
G1 X139.870 Y126.037 E0.01685
G1 X143.130 Y129.297 E0.14513
G1 X143.130 Y128.762 E0.01685
G1 X139.888 Y125.520 E0.14432
G1 X140.423 Y125.520 E0.01685
G1 X143.130 Y128.227 E0.12049
G1 X143.130 Y127.691 E0.01685
G1 X140.959 Y125.520 E0.09666
G1 X141.494 Y125.520 E0.01685
G1 X143.130 Y127.156 E0.07283
G1 X143.130 Y126.620 E0.01685
G1 X142.030 Y125.520 E0.04899
G1 X142.565 Y125.520 E0.01685
G1 X143.130 Y126.085 E0.02516
G1 X143.130 Y125.550 E0.01685
G1 X142.931 Y125.350 E0.00888
G1 F8640
G1 X143.130 Y125.550 E-0.06516
G1 X143.130 Y126.085 E-0.12362
G1 X142.565 Y125.520 E-0.18457
G1 X142.030 Y125.520 E-0.12362
G1 X142.835 Y126.325 E-0.26303
G1 E-0.04000 F2100.00000
G1 Z0.800 F10800.000
G1 X136.890 Y134.300
G1 Z0.200
G1 E0.80000 F2100.00000
G1 F1800
G1 X129.870 Y127.280 E0.31251
G1 X129.870 Y127.815 E0.01685
G1 X136.185 Y134.130 E0.28112
G1 X135.650 Y134.130 E0.01685
G1 X129.870 Y128.350 E0.25729
G1 X129.870 Y128.886 E0.01685
G1 X135.114 Y134.130 E0.23345
G1 X134.579 Y134.130 E0.01685
G1 X129.870 Y129.421 E0.20962
G1 X129.870 Y129.957 E0.01685
G1 X134.043 Y134.130 E0.18579
G1 X133.508 Y134.130 E0.01685
G1 X129.870 Y130.492 E0.16196
G1 X129.870 Y131.027 E0.01685
G1 X132.973 Y134.130 E0.13812
G1 X132.437 Y134.130 E0.01685
G1 X129.870 Y131.563 E0.11429
G1 X129.870 Y132.098 E0.01685
G1 X131.902 Y134.130 E0.09046
G1 X131.367 Y134.130 E0.01685
G1 X129.870 Y132.633 E0.06663
G1 X129.870 Y133.169 E0.01685
G1 X130.831 Y134.130 E0.04280
G1 X130.296 Y134.130 E0.01685
G1 X129.700 Y133.534 E0.02652
G1 F8640
G1 X130.296 Y134.130 E-0.19451
G1 X130.831 Y134.130 E-0.12362
G1 X129.870 Y133.169 E-0.31392
G1 X129.870 Y132.633 E-0.12362
G1 X129.883 Y132.647 E-0.00433
G1 E-0.04000 F2100.00000
G1 Z0.800 F10800.000
G1 X126.300 Y129.995
G1 Z0.200
G1 E0.80000 F2100.00000
G1 F1800
G1 X125.870 Y129.565 E0.01984
G1 X125.870 Y130.120 E0.01811
G1 X126.130 Y130.380 E0.01201
G1 X126.130 Y130.935 E0.01811
G1 X125.700 Y130.505 E0.01984
G1 F8640
G1 X126.130 Y130.935 E-0.14040
G1 X126.130 Y130.380 E-0.12814
G1 X125.870 Y130.120 E-0.08499
G1 X125.870 Y129.565 E-0.12814
G1 X126.300 Y129.995 E-0.14040
G1 E-0.17794 F2100.00000
G1 Z0.800 F10800.000
G1 X125.700 Y80.005
G1 Z0.200
G1 E0.80000 F2100.00000
G1 F1800
G1 X126.130 Y80.435 E0.01984
G1 X126.130 Y79.880 E0.01811
G1 X125.870 Y79.620 E0.01201
G1 X125.870 Y79.065 E0.01811
G1 X126.300 Y79.495 E0.01984
;BEFORE_LAYER_CHANGE
G92 E0.0
;0.4


G1 F8640
G1 X125.870 Y79.065 E-0.14040
G1 X125.870 Y79.620 E-0.12814
G1 X126.130 Y79.880 E-0.08499
G1 X126.130 Y80.435 E-0.12814
G1 X125.700 Y80.005 E-0.14040
G1 E-0.17794 F2100.00000
G1 Z0.800 F10800.000
;AFTER_LAYER_CHANGE
;0.4
M140 S110 ; set bed temperature
G1 X123.147 Y76.835
G1 Z0.400
